<?xml version="1.0" encoding="UTF-8"?>
<map version="1.10" tiledversion="1.12.1" orientation="orthogonal" renderorder="right-down" width="250" height="110" tilewidth="32" tileheight="32" infinite="0" nextlayerid="20" nextobjectid="593">
 <tileset firstgid="1" source="Tilesets/The depths-Tileset-Platform1.tsx"/>
 <tileset firstgid="241" source="Tilesets/The depths-Tileset-Platform3-no pillars.tsx"/>
 <tileset firstgid="625" source="Tilesets/Tileset-Terrain.tsx"/>
 <tileset firstgid="4721" source="Tilesets/The depths-Tileset-Platform2.tsx"/>
 <tileset firstgid="5201" source="Tilesets/Atlas-Props.tsx"/>
 <tileset firstgid="8273" source="Tilesets/The depths-Tileset-Platform3.tsx"/>
 <tileset firstgid="8657" source="Tilesets/Tileset-Terrain2.tsx"/>
 <tileset firstgid="12177" source="Tilesets/Atlas-props-sprites.tsx"/>
 <layer id="5" name="bg" width="250" height="110">
  <data encoding="csv">
8660,8660,8660,8660,8660,8660,8660,8660,8660,8660,8660,8660,8660,8660,8660,8660,8660,8660,8660,8660,8660,8660,8660,8660,8660,8660,8660,8660,8660,8660,8660,8660,8660,8660,8660,8660,8660,8660,8660,8660,8660,8660,8660,8660,10173,10175,10176,10177,10048,10049,9919,9920,8660,8660,8660,8660,8660,8660,8660,8660,8660,8660,8660,8660,8660,8660,8660,8660,8660,9929,9930,9992,9993,9994,9996,8660,8660,8660,8660,8660,8660,8660,8660,8660,8660,8660,8660,8660,8660,8660,8660,8660,8660,8660,8660,8660,8660,8660,8660,8660,8660,8660,8660,8660,8660,8660,8660,8660,8660,10111,10112,10113,9983,9984,9985,8660,8660,8660,8660,8660,8660,8660,8660,8660,8660,8660,8660,8660,8660,8660,8660,8660,8660,8660,8660,8660,9929,9930,10056,10057,10058,10060,8660,8660,8660,8660,8660,8660,8660,8660,8660,8660,8660,8660,8660,8660,8660,8660,8660,8660,8660,8660,8660,8660,8660,8660,8660,8660,8660,8660,8660,8660,8660,8660,8660,8660,8660,8660,8660,8660,8660,8660,8660,8660,8660,8660,8660,8660,8660,8660,8660,8660,8660,8660,8660,8660,8660,8660,8660,8660,8660,8660,8660,8660,8660,8660,8660,8660,8660,8660,8660,8660,8660,8660,8660,8660,8660,8660,8660,8660,8660,8660,8660,8660,8660,8660,8660,8660,10109,10115,10115,10115,10115,10115,10115,10115,10115,10115,10116,10117,10118,10120,10121,10122,10184,10185,10186,10188,8660,8660,
8660,8660,8660,8660,8660,8660,8660,8660,8660,8660,8660,8660,8660,8660,8660,8660,8660,8660,8660,8660,8660,8660,8660,8660,8660,8660,8660,8660,8660,8660,8660,8660,8660,8660,8660,8660,8660,8660,8660,8660,8660,8660,8660,8660,10237,10239,10240,10241,10112,10113,9983,9984,9985,9987,9987,9987,9987,9987,9987,9987,9987,9987,9987,9987,9987,9988,9989,9990,9992,9993,9994,10056,10057,10058,10060,8660,8660,8660,8660,8660,8660,8660,8660,8660,8660,8660,8660,8660,8660,8660,8660,8660,8660,8660,8660,8660,8660,8660,8660,8660,8660,8660,8660,8660,8660,8660,8660,8660,8660,10175,10176,10177,10047,10048,10049,9919,9920,8660,8660,8660,8660,8660,8660,8660,8660,8660,8660,8660,8660,8660,8660,8660,8660,8660,8660,9992,9993,9994,10120,10121,10122,10124,8660,8660,8660,8660,8660,8660,8660,8660,8660,8660,8660,8660,8660,8660,8660,9919,9920,8660,8660,8660,8660,8660,8660,8660,8660,8660,8660,8660,8660,8660,8660,8660,8660,8660,8660,8660,8660,8660,8660,8660,8660,8660,8660,8660,8660,8660,8660,8660,8660,8660,8660,8660,8660,8660,8660,8660,8660,8660,8660,8660,8660,8660,8660,8660,8660,8660,8660,8660,8660,8660,8660,8660,8660,8660,8660,8660,8660,8660,8660,8660,8660,8660,8660,8660,8660,8660,10173,10179,10179,10179,10179,10179,10179,10179,10179,10179,10180,10181,10182,10184,10185,10186,10248,10249,10250,10252,8660,8660,
8660,8660,8660,8660,8660,8660,8660,8660,8660,8660,8660,8660,8660,8660,8660,8660,8660,8660,8660,8660,8660,8660,8660,8660,8660,8660,8660,8660,8660,8660,8660,8660,8660,9929,9930,9932,8660,8660,8660,8660,8660,8660,8660,8660,10301,10303,10304,10305,10176,10177,10047,10048,10049,10051,10051,10051,10051,10051,10051,10051,10051,10051,10051,10051,10051,10052,10053,10054,10056,10057,10058,10120,10121,10122,10124,8660,8660,8660,8660,8660,8660,8660,8660,8660,8660,8660,8660,8660,8660,8660,8660,8660,8660,8660,8660,8660,8660,8660,8660,8660,8660,8660,8660,8660,8660,8660,8660,8660,8660,10239,10240,10241,10111,10112,10113,9983,9984,9985,8660,8660,8660,8660,8660,8660,8660,8660,8660,8660,8660,8660,8660,8660,8660,8660,8660,10056,10057,10058,10184,10185,10186,10188,8660,8660,8660,8660,8660,8660,8660,8660,8660,8660,8660,8660,8660,8660,8660,9983,9984,9985,8660,8660,8660,8660,8660,8660,8660,8660,8660,8660,8660,8660,8660,8660,8660,8660,8660,8660,8660,8660,8660,8660,8660,8660,8660,8660,8660,8660,8660,8660,8660,8660,8660,8660,8660,8660,8660,8660,8660,8660,8660,8660,8660,8660,8660,8660,8660,8660,8660,8660,8660,8660,8660,8660,8660,8660,8660,8660,8660,8660,8660,8660,8660,8660,8660,8660,8660,8660,10237,10243,10243,10243,10243,10243,10243,10243,10243,10243,10244,10245,10246,10248,10249,10250,10312,10313,10314,10316,8660,8660,
8660,8660,8660,8660,8660,8660,8660,8660,8660,8660,8660,8660,8660,8660,8660,8660,8660,8660,8660,8660,8660,8660,8660,8660,8660,8660,8660,8660,8660,8660,8660,8660,9992,9993,9994,9996,8660,8660,8660,8660,8660,8660,8660,8660,10365,10367,10368,10369,10240,10241,10111,10112,10113,10115,10115,10115,10115,10115,10115,10115,10115,10115,10115,10115,10115,10116,10117,10118,10120,10121,10122,10184,10185,10186,10188,8660,8660,8660,8660,8660,8660,8660,8660,8660,8660,8660,8660,8660,8660,8660,8660,8660,8660,8660,8660,8660,8660,8660,8660,8660,8660,8660,8660,8660,8660,8660,8660,8660,8660,10303,10304,10305,10175,10176,10177,10047,10048,10049,9919,9920,8660,8660,8660,8660,8660,8660,8660,8660,8660,8660,8660,8660,8660,9929,9930,10120,10121,10122,10248,10249,10250,10252,8660,8660,8660,8660,8660,8660,8660,8660,8660,8660,8660,8660,8660,8660,8660,10047,10048,10049,8660,8660,8660,8660,8660,8660,8660,8660,8660,8660,8660,8660,8660,8660,8660,8660,8660,8660,8660,8660,8660,8660,8660,8660,8660,8660,8660,8660,8660,8660,8660,8660,8660,8660,8660,8660,8660,8660,8660,8660,8660,8660,9929,9930,8660,8660,8660,8660,8660,8660,8660,8660,8660,8660,8660,8660,8660,8660,8660,8660,8660,8660,8660,8660,8660,8660,8660,8660,10301,10307,10307,10307,10307,10307,10307,10307,10307,10307,10308,10309,10310,10312,10313,10314,10376,10377,10378,10380,8660,8660,
8660,8660,8660,8660,8660,8660,8660,8660,8660,8660,8660,8660,8660,9917,9919,9920,8660,8660,8660,8660,8660,8660,8660,8660,8660,8660,8660,8660,8660,8660,9929,9930,10056,10057,10058,10060,8660,8660,8660,8660,8660,8660,8660,8660,8660,8660,10432,10433,10304,10305,10175,10176,10177,10179,10179,10179,10179,10179,10179,10179,10179,10179,10179,10179,10179,10180,10181,10182,10184,10185,10186,10248,10249,10250,10252,8660,8660,8660,8660,8660,8660,8660,8660,8660,8660,8660,8660,8660,8660,8660,8660,8660,8660,8660,8660,8660,8660,8660,8660,8660,8660,8660,8660,8660,8660,8660,8660,8660,8660,10367,10368,10369,10239,10240,10241,10111,10112,10113,9983,9984,9985,9987,9988,9989,9987,9988,9987,9987,9987,9988,9989,9990,9992,9993,9994,10184,10185,10186,10312,10313,10314,10316,8660,8660,8660,8660,8660,8660,8660,8660,8660,8660,8660,8660,8660,8660,8660,10111,10112,10113,9919,9920,8660,8660,8660,8660,8660,8660,8660,8660,8660,8660,8660,8660,8660,8660,8660,8660,8660,8660,8660,8660,8660,8660,8660,8660,8660,8660,8660,8660,8660,8660,8660,8660,8660,8660,8660,8660,8660,8660,8660,9992,9993,9994,8660,8660,8660,8660,8660,8660,8660,8660,8660,8660,8660,8660,8660,8660,8660,8660,8660,8660,8660,8660,8660,8660,8660,8660,10365,10371,10371,10371,10371,10371,10371,10371,10371,10371,10372,10373,10374,10376,10377,10378,10440,10441,8660,8660,8660,8660,
8660,8660,8660,8660,8660,8660,8660,8660,8660,8660,8660,8660,8660,9981,9983,9984,9985,9987,9988,9989,9990,9990,9990,9990,9990,9990,9990,9990,9990,9992,9993,9994,10120,10121,10122,10124,8660,8660,8660,8660,8660,8660,8660,8660,8660,8660,8660,10367,10368,10369,10239,10240,10241,10243,10243,10243,10243,10243,10243,10243,10243,10243,10243,10243,10243,10244,10245,10246,10248,10249,10250,10312,10313,10314,10316,8660,8660,8660,8660,8660,8660,8660,8660,8660,8660,8660,8660,8660,8660,8660,8660,8660,8660,8660,8660,8660,8660,8660,8660,8660,8660,8660,8660,8660,8660,8660,8660,8660,8660,8660,10432,10433,10303,10304,10305,10175,10176,10177,10047,10048,10049,10051,10052,10053,10051,10052,10051,10051,10051,10052,10053,10054,10056,10057,10058,10248,10249,10250,10376,10377,10378,10380,8660,8660,8660,8660,8660,8660,8660,8660,8660,8660,8660,8660,8660,8660,8660,10175,10176,10177,9983,9984,9985,8660,8660,8660,8660,8660,8660,8660,8660,8660,8660,8660,8660,8660,8660,8660,8660,8660,8660,8660,8660,8660,8660,8660,8660,8660,8660,8660,8660,8660,8660,8660,8660,8660,8660,8660,8660,8660,8660,10056,10057,10058,8660,8660,8660,8660,8660,8660,8660,8660,8660,8660,8660,8660,8660,8660,8660,8660,8660,8660,8660,8660,8660,8660,8660,8660,8660,10435,10435,10435,10435,10435,10435,10435,10435,10435,10436,10437,10438,10440,10441,8660,8660,8660,8660,8660,8660,8660,
8660,8660,8660,8660,8660,8660,8660,8660,8660,8660,8660,8660,8660,10045,10047,10048,10049,10051,10052,10053,10054,10054,10054,10054,10054,10054,10054,10054,10054,10056,10057,10058,10184,10185,10186,10188,8660,8660,8660,8660,8660,8660,8660,8660,8660,8660,8660,8660,10432,10433,10303,10304,10305,10307,10307,10307,10307,10307,10307,10307,10307,10307,10307,10307,10307,10308,10309,10310,10312,10313,10314,10376,10377,10378,10380,8660,8660,8660,8660,8660,8660,8660,8660,8660,8660,8660,8660,8660,8660,8660,8660,8660,8660,8660,8660,8660,8660,8660,8660,8660,8660,8660,8660,8660,8660,8660,8660,8660,8660,8660,8660,8660,10367,10368,10369,10239,10240,10241,10111,10112,10113,10115,10116,10117,10115,10116,10115,10115,10115,10116,10117,10118,10120,10121,10122,10312,10313,10314,10440,10441,8660,8660,8660,8660,8660,8660,8660,8660,8660,8660,8660,8660,8660,8660,8660,8660,8660,10239,10240,10241,10047,10048,10049,9919,9920,8660,8660,8660,8660,8660,8660,8660,8660,8660,8660,8660,8660,8660,8660,8660,8660,8660,8660,8660,8660,8660,8660,8660,8660,8660,8660,8660,8660,8660,8660,8660,8660,8660,8660,9929,9930,10120,10121,10122,8660,8660,8660,8660,8660,8660,8660,8660,8660,8660,8660,8660,8660,8660,8660,8660,8660,8660,8660,8660,8660,8660,8660,8660,8660,8660,8660,8660,8660,8660,8660,8660,8660,8660,8660,8660,8660,8660,8660,8660,8660,8660,8660,8660,8660,8660,
8660,8660,8660,8660,8660,8660,8660,8660,8660,8660,8660,8660,8660,10109,10111,10112,10113,10115,10116,10117,10118,10118,10118,10118,10118,10118,10118,10118,10118,10120,10121,10122,10248,10249,10250,10252,8660,8660,8660,8660,8660,8660,8660,8660,8660,8660,8660,8660,8660,8660,10367,10368,10369,10371,10371,10371,10371,10371,10371,10371,10371,10371,10371,10371,10371,10372,10373,10374,10376,10377,10378,10440,10441,8660,8660,8660,8660,8660,8660,8660,8660,8660,8660,8660,8660,8660,8660,8660,8660,8660,8660,8660,8660,8660,8660,8660,8660,8660,8660,8660,8660,8660,8660,8660,8660,8660,8660,8660,8660,8660,8660,8660,8660,10432,10433,10303,10304,10305,10175,10176,10177,10179,10180,10181,10179,10180,10179,10179,10179,10180,10181,10182,10184,10185,10186,10376,10377,10378,8660,8660,8660,8660,8660,8660,8660,8660,8660,8660,8660,8660,8660,8660,8660,8660,8660,8660,8660,10303,10304,10305,10111,10112,10113,9983,9984,9985,9987,9987,9987,9987,9987,9987,9987,9987,9987,9987,9987,9987,9987,9987,9987,9987,9987,9987,9987,9987,9988,9989,9987,9987,9987,9988,9989,9990,8660,8660,9929,9930,9992,9993,9994,10184,10185,10186,8660,8660,8660,8660,8660,8660,8660,8660,8660,8660,8660,8660,8660,8660,8660,8660,8660,8660,8660,8660,8660,8660,8660,8660,8660,8660,8660,8660,8660,8660,8660,8660,8660,8660,8660,8660,8660,8660,8660,8660,8660,8660,8660,8660,8660,8660,
8660,8660,8660,8660,8660,8660,8660,8660,8660,8660,8660,8660,8660,10173,10175,10176,10177,10179,10180,10181,10182,10182,10182,10182,10182,10182,10182,10182,10182,10184,10185,10186,10312,10313,10314,10316,8660,8660,8660,8660,8660,8660,8660,8660,8660,8660,8660,8660,8660,8660,8660,10432,10433,10435,10435,10435,10435,10435,10435,10435,10435,10435,10435,10435,10435,10436,10437,10438,10440,10441,8660,8660,8660,8660,8660,8660,8660,8660,8660,8660,8660,8660,8660,8660,8660,8660,8660,8660,8660,8660,8660,8660,8660,8660,8660,8660,8660,8660,8660,8660,8660,8660,8660,8660,8660,8660,8660,8660,8660,8660,8660,8660,8660,8660,8660,10367,10368,10369,10239,10240,10241,10243,10244,10245,10243,10244,10243,10243,10243,10244,10245,10246,10248,10249,10250,10440,10441,8660,8660,8660,8660,8660,8660,8660,8660,8660,8660,8660,8660,8660,8660,8660,8660,8660,8660,8660,8660,10367,10368,10369,10175,10176,10177,10047,10048,10049,10051,10051,10051,10051,10051,10051,10051,10051,10051,10051,10051,10051,10051,10051,10051,10051,10051,10051,10051,10051,10052,10053,10051,10051,9987,9987,9988,9989,9990,9992,9993,9994,10056,10057,10058,10248,10249,10250,8660,8660,8660,8660,8660,8660,8660,8660,8660,8660,8660,8660,8660,8660,8660,8660,8660,8660,8660,8660,8660,8660,8660,8660,8660,8660,8660,8660,8660,8660,8660,8660,8660,8660,8660,8660,8660,8660,8660,8660,8660,8660,8660,8660,8660,8660,
8660,8660,8660,8660,8660,8660,8660,8660,8660,8660,8660,8660,8660,10237,10239,10240,10241,10243,10244,10245,10246,10246,10246,10246,10246,10246,10246,10246,10246,10248,10249,10250,10376,10377,10378,10380,8660,8660,8660,8660,8660,8660,8660,8660,8660,8660,8660,8660,8660,8660,8660,8660,8660,8660,8660,8660,8660,8660,8660,8660,8660,8660,8660,8660,8660,8660,8660,8660,8660,8660,8660,8660,8660,8660,8660,8660,8660,8660,8660,8660,8660,8660,8660,8660,8660,8660,8660,8660,8660,8660,8660,8660,8660,8660,8660,8660,8660,8660,8660,8660,8660,8660,8660,8660,8660,8660,8660,8660,8660,8660,8660,8660,8660,8660,8660,8660,10432,10433,10303,10304,10305,10307,10308,10309,10307,10308,10307,10307,10307,10308,10309,10310,10312,10313,10314,8660,8660,8660,8660,8660,8660,8660,8660,8660,8660,8660,8660,8660,8660,8660,8660,8660,8660,8660,8660,8660,8660,8660,10432,10433,10239,10240,10241,10111,10112,10113,10115,10115,10115,10115,10115,10115,10115,10115,10115,10115,10115,10115,10115,10115,10115,10115,10115,10115,10115,10115,10116,10117,10115,10115,10051,10051,10052,10053,10054,10056,10057,10058,10120,10121,10122,10312,10313,10314,8660,8660,8660,8660,8660,8660,8660,8660,8660,8660,8660,8660,8660,8660,8660,8660,8660,8660,8660,8660,8660,8660,8660,8660,8660,8660,8660,8660,8660,8660,8660,8660,8660,8660,8660,8660,8660,8660,8660,8660,8660,8660,8660,8660,8660,8660,
8660,8660,8660,8660,8660,8660,8660,8660,8660,8660,8660,8660,8660,10301,10303,10304,10305,10307,10308,10309,10310,10310,10310,10310,10310,10310,10310,10310,10310,10312,10313,10314,10440,10441,8660,8660,8660,8660,8660,8660,8660,8660,8660,8660,8660,8660,8660,8660,8660,8660,8660,8660,8660,8660,8660,8660,8660,8660,8660,8660,8660,8660,8660,8660,8660,8660,8660,8660,8660,8660,8660,8660,8660,8660,8660,8660,8660,8660,8660,8660,8660,8660,8660,8660,8660,8660,8660,8660,8660,8660,8660,8660,8660,8660,8660,8660,8660,8660,8660,8660,8660,8660,8660,8660,8660,8660,8660,8660,8660,8660,8660,8660,8660,8660,8660,8660,8660,8660,10367,10368,10369,10371,10372,10373,10371,10372,10371,10371,10371,10372,10373,10374,10376,10377,10378,8660,8660,8660,8660,8660,8660,8660,8660,8660,8660,8660,8660,8660,8660,8660,8660,8660,8660,8660,8660,8660,8660,8660,8660,8660,10303,10304,10305,10175,10176,10177,10179,10179,10179,10179,10179,10179,10179,10179,10179,10179,10179,10179,10179,10179,10179,10179,10179,10179,10179,10179,10180,10181,10179,10179,10115,10115,10116,10117,10118,10120,10121,10122,10184,10185,10186,10376,10377,10378,8660,8660,8660,8660,8660,8660,8660,8660,8660,8660,8660,8660,8660,8660,8660,8660,8660,8660,8660,8660,8660,8660,8660,8660,8660,8660,8660,8660,8660,8660,8660,8660,8660,8660,8660,8660,8660,8660,8660,8660,8660,8660,8660,8660,8660,8660,
8660,8660,8660,8660,8660,8660,8660,8660,8660,8660,8660,8660,8660,10365,10367,10368,10369,10371,10372,10373,10374,10374,10374,10374,10374,10374,10374,10374,10374,10376,10377,10378,8660,8660,8660,8660,8660,8660,8660,8660,8660,8660,8660,8660,8660,8660,8660,8660,8660,8660,8660,8660,8660,8660,8660,8660,8660,8660,8660,8660,8660,8660,8660,8660,8660,8660,8660,8660,8660,8660,8660,8660,8660,8660,8660,8660,8660,8660,8660,8660,8660,8660,8660,8660,8660,8660,8660,8660,8660,8660,8660,8660,8660,8660,8660,8660,8660,8660,8660,8660,8660,8660,8660,8660,8660,8660,8660,8660,8660,8660,8660,8660,8660,8660,8660,8660,8660,8660,8660,10432,10433,10435,10436,10437,10435,10436,10435,10435,10435,10436,10437,10438,10440,10441,8660,8660,8660,8660,8660,8660,8660,8660,8660,8660,8660,8660,8660,8660,8660,8660,8660,8660,8660,8660,8660,8660,8660,8660,8660,8660,10367,10368,10369,10239,10240,10241,10243,10243,10243,10243,10243,10243,10243,10243,10243,10243,10243,10243,10243,10243,10243,10243,10243,10243,10243,10243,10244,10245,10243,10243,10179,10179,10180,10181,10182,10184,10185,10186,10248,10249,10250,10440,10441,8660,8660,8660,8660,8660,8660,8660,8660,8660,8660,8660,8660,8660,8660,8660,8660,8660,8660,8660,8660,8660,8660,8660,8660,8660,8660,8660,8660,8660,8660,8660,8660,8660,8660,8660,8660,8660,8660,8660,8660,8660,8660,8660,8660,8660,8660,8660,
8660,8660,8660,8660,8660,8660,8660,8660,8660,8660,8660,8660,8660,8660,8660,10432,10433,10435,10436,10437,10438,10438,10438,10438,10438,10438,10438,10438,10438,10440,10441,8660,8660,8660,8660,8660,8660,8660,8660,8660,8660,8660,8660,8660,8660,8660,8660,8660,8660,8660,8660,8660,8660,8660,8660,8660,8660,8660,8660,8660,8660,8660,8660,8660,8660,8660,8660,8660,8660,8660,8660,8660,8660,8660,8660,8660,8660,8660,8660,8660,8660,8660,8660,8660,8660,8660,8660,8660,8660,8660,8660,8660,8660,8660,8660,8660,8660,8660,8660,8660,8660,8660,8660,8660,8660,8660,8660,8660,8660,8660,8660,8660,8660,8660,8660,8660,8660,8660,8660,8660,8660,8660,8660,8660,8660,8660,8660,8660,8660,8660,8660,8660,8660,8660,8660,8660,8660,8660,8660,8660,8660,8660,8660,8660,8660,8660,8660,8660,8660,8660,8660,8660,8660,8660,8660,8660,8660,8660,8660,8660,8660,10432,10433,10303,10304,10305,10307,10307,10307,10307,10307,10307,10307,10307,10307,10307,10307,10307,10307,10307,10307,10307,10307,10307,10307,10307,10308,10309,10307,10307,10243,10243,10244,10245,10246,10248,10249,10250,10312,10313,10314,8660,8660,8660,8660,8660,8660,8660,8660,8660,8660,8660,8660,8660,8660,8660,8660,8660,8660,8660,8660,8660,8660,8660,8660,8660,8660,8660,8660,8660,8660,8660,8660,8660,8660,8660,8660,8660,8660,8660,8660,8660,8660,8660,8660,8660,8660,8660,8660,8660,
8660,8660,8660,8660,8660,8660,8660,8660,8660,8660,8660,8660,8660,8660,8660,8660,8660,8660,8660,8660,8660,8660,8660,8660,8660,8660,8660,8660,8660,8660,8660,8660,8660,8660,8660,8660,8660,8660,8660,8660,8660,8660,8660,8660,8660,8660,8660,8660,8660,8660,8660,8660,8660,8660,8660,8660,8660,8660,8660,8660,8660,8660,8660,8660,8660,8660,8660,8660,8660,8660,8660,8660,8660,8660,8660,8660,8660,8660,8660,8660,8660,8660,8660,8660,8660,8660,8660,8660,8660,8660,8660,8660,8660,8660,8660,8660,8660,8660,8660,8660,8660,8660,8660,8660,8660,8660,8660,8660,8660,8660,8660,8660,8660,8660,8660,8660,8660,8660,8660,8660,8660,8660,8660,8660,8660,8660,8660,8660,8660,8660,8660,8660,8660,8660,8660,8660,8660,8660,8660,8660,8660,8660,8660,8660,8660,8660,8660,8660,8660,8660,8660,8660,8660,8660,8660,8660,8660,8660,8660,8660,8660,8660,8660,10367,10368,10369,10371,10371,10371,10371,10371,10371,10371,10371,10371,10371,10371,10371,10371,10371,10371,10371,10371,10371,10371,10371,10372,10373,10371,10371,10307,10307,10308,10309,10310,10312,10313,10314,10376,10377,10378,8660,8660,8660,8660,8660,8660,8660,8660,8660,8660,8660,8660,8660,8660,8660,8660,8660,8660,8660,8660,8660,8660,8660,8660,8660,8660,8660,8660,8660,8660,8660,8660,8660,8660,8660,8660,8660,8660,8660,8660,8660,8660,8660,8660,8660,8660,8660,8660,8660,
8660,8660,8660,8660,8660,8660,8660,8660,8660,8660,8660,8660,8660,8660,8660,8660,8660,8660,8660,8660,8660,8660,8660,8660,8660,8660,8660,8660,8660,8660,8660,8660,8660,8660,8660,8660,8660,8660,8660,8660,8660,8660,8660,8660,8660,8660,8660,8660,8660,8660,8660,8660,8660,8660,8660,8660,8660,8660,8660,8660,8660,8660,8660,8660,8660,8660,8660,8660,8660,8660,8660,8660,8660,8660,8660,8660,8660,8660,8660,8660,8660,8660,8660,8660,8660,8660,8660,8660,8660,8660,8660,8660,8660,8660,8660,8660,8660,8660,8660,8660,8660,8660,8660,8660,8660,8660,8660,8660,8660,8660,8660,8660,8660,8660,8660,8660,8660,8660,8660,8660,8660,8660,8660,8660,8660,8660,8660,8660,8660,8660,8660,8660,8660,8660,8660,8660,8660,8660,8660,8660,8660,8660,8660,8660,8660,8660,8660,8660,8660,8660,8660,8660,8660,8660,8660,8660,8660,8660,8660,8660,8660,8660,8660,8660,10432,10433,10435,10435,10435,10435,10435,10435,10435,10435,10435,10435,10435,10435,10435,10435,10435,10435,10435,10435,10435,10435,10436,10437,10435,10435,10371,10371,10372,10373,10374,10376,10377,10378,10440,10441,8660,8660,8660,8660,8660,8660,8660,8660,8660,8660,8660,8660,8660,8660,8660,8660,8660,8660,8660,8660,8660,8660,8660,8660,8660,8660,8660,8660,8660,8660,8660,8660,8660,8660,8660,8660,8660,8660,8660,8660,8660,8660,8660,8660,8660,8660,8660,8660,8660,8660,
8660,8660,8660,8660,8660,8660,8660,8660,8660,8660,8660,8660,8660,8660,8660,8660,8660,8660,8660,8660,8660,8660,8660,8660,8660,8660,8660,8660,8660,8660,8660,8660,8660,8660,8660,8660,8660,8660,8660,8660,8660,8660,8660,8660,8660,8660,8660,8660,8660,8660,8660,8660,8660,8660,8660,8660,8660,8660,8660,8660,8660,8660,8660,8660,8660,8660,8660,8660,8660,8660,8660,8660,8660,8660,8660,8660,8660,8660,8660,8660,8660,8660,8660,8660,8660,8660,8660,8660,8660,8660,8660,8660,8660,8660,8660,8660,8660,8660,8660,8660,8660,8660,8660,8660,8660,8660,8660,8660,8660,8660,8660,8660,8660,8660,8660,8660,8660,8660,8660,8660,8660,8660,8660,8660,8660,8660,8660,8660,8660,8660,8660,8660,8660,8660,8660,8660,8660,8660,8660,8660,8660,8660,8660,8660,8660,8660,8660,8660,8660,8660,8660,8660,8660,8660,8660,8660,8660,8660,8660,8660,8660,8660,8660,8660,8660,8660,8660,8660,8660,8660,8660,8660,8660,8660,8660,8660,8660,8660,8660,8660,8660,8660,8660,8660,8660,8660,8660,8660,8660,8660,10435,10435,10436,10437,10438,10440,10441,8660,8660,8660,8660,8660,8660,8660,8660,8660,8660,8660,8660,8660,8660,8660,8660,8660,8660,8660,8660,8660,8660,8660,8660,8660,8660,8660,8660,8660,8660,8660,8660,8660,8660,8660,8660,8660,8660,8660,8660,8660,8660,8660,8660,8660,8660,8660,8660,8660,8660,8660,8660,8660,
8660,8660,8660,8660,8660,8660,8660,8660,8660,8660,8660,8660,8660,8660,8660,8660,8660,8660,8660,8660,8660,8660,8660,8660,8660,8660,8660,8660,8660,8660,8660,8660,8660,8660,8660,8660,8660,8660,8660,8660,8660,8660,8660,8660,8660,8660,8660,8660,8660,8660,8660,8660,8660,8660,8660,8660,8660,8660,8660,8660,8660,8660,8660,8660,8660,8660,8660,8660,8660,8660,8660,8660,8660,8660,8660,8660,8660,8660,8660,8660,8660,8660,8660,8660,8660,8660,8660,8660,8660,8660,8660,8660,8660,8660,8660,8660,8660,8660,8660,8660,8660,8660,8660,8660,8660,8660,8660,8660,8660,8660,8660,8660,8660,8660,8660,8660,8660,8660,8660,8660,8660,8660,8660,8660,8660,8660,8660,8660,8660,8660,8660,8660,8660,8660,8660,8660,8660,8660,8660,8660,8660,8660,8660,8660,8660,8660,8660,8660,8660,8660,8660,8660,8660,8660,8660,8660,8660,8660,8660,8660,8660,8660,8660,8660,8660,8660,8660,8660,8660,8660,8660,8660,8660,8660,8660,8660,8660,8660,8660,8660,8660,8660,8660,8660,8660,8660,8660,8660,8660,8660,8660,8660,8660,8660,8660,8660,8660,8660,8660,8660,8660,8660,8660,8660,8660,8660,8660,8660,8660,8660,8660,8660,8660,8660,8660,8660,8660,8660,8660,8660,8660,8660,8660,8660,8660,8660,8660,8660,8660,8660,8660,8660,8660,8660,8660,8660,8660,8660,8660,8660,8660,8660,8660,8660,8660,8660,8660,8660,8660,8660,
8660,8660,8660,8660,8660,8660,8660,8660,8660,8660,8660,8660,8660,8660,8660,8660,8660,8660,8660,8660,8660,8660,8660,8660,8660,8660,8660,8660,8660,8660,8660,8660,8660,8660,8660,8660,8660,8660,8660,8660,8660,8660,8660,8660,8660,8660,8660,8660,8660,8660,8660,8660,8660,8660,8660,8660,8660,8660,8660,8660,8660,8660,8660,8660,8660,8660,8660,8660,8660,8660,8660,8660,8660,8660,8660,8660,8660,8660,8660,8660,8660,8660,8660,8660,8660,8660,8660,8660,8660,8660,8660,8660,8660,8660,8660,8660,8660,8660,8660,8660,8660,8660,8660,8660,8660,8660,8660,8660,8660,8660,8660,8660,8660,8660,8660,8660,8660,8660,8660,8660,8660,8660,8660,8660,8660,8660,8660,8660,8660,8660,8660,8660,8660,8660,8660,8660,8660,8660,8660,8660,8660,8660,8660,8660,8660,8660,8660,8660,8660,8660,8660,8660,8660,8660,8660,8660,8660,8660,8660,8660,8660,8660,8660,8660,8660,8660,8660,8660,8660,8660,8660,8660,8660,8660,8660,8660,8660,8660,8660,8660,8660,8660,8660,8660,8660,8660,8660,8660,8660,8660,8660,8660,8660,8660,8660,8660,8660,8660,8660,8660,8660,8660,8660,8660,8660,8660,8660,8660,8660,8660,8660,8660,8660,8660,8660,8660,8660,8660,8660,8660,8660,8660,8660,8660,8660,8660,8660,8660,8660,8660,8660,8660,8660,8660,8660,8660,8660,8660,8660,8660,8660,8660,8660,8660,8660,8660,8660,8660,8660,8660,
8660,8660,8660,8660,8660,8660,8660,8660,8660,8660,8660,8660,8660,8660,8660,8660,8660,8660,8660,8660,8660,8660,8660,8660,8660,8660,8660,8660,8660,8660,8660,8660,8660,8660,8660,8660,8660,8660,8660,8660,8660,8660,8660,8660,8660,8660,8660,8660,8660,8660,8660,8660,8660,8660,8660,8660,8660,8660,8660,8660,8660,8660,8660,8660,8660,8660,8660,8660,8660,8660,8660,8660,8660,8660,8660,8660,8660,8660,8660,8660,8660,8660,8660,8660,8660,8660,8660,8660,8660,8660,8660,8660,8660,8660,8660,8660,8660,8660,8660,8660,8660,8660,8660,8660,8660,8660,8660,8660,8660,8660,8660,8660,8660,8660,8660,8660,8660,8660,8660,8660,8660,8660,8660,8660,8660,8660,8660,8660,8660,8660,8660,8660,8660,8660,8660,8660,8660,8660,8660,8660,8660,8660,8660,8660,8660,8660,8660,8660,8660,8660,8660,8660,8660,8660,8660,8660,8660,8660,8660,8660,8660,8660,8660,8660,8660,8660,8660,8660,8660,8660,8660,8660,8660,8660,8660,8660,8660,8660,8660,8660,8660,8660,8660,8660,8660,8660,8660,8660,8660,8660,8660,8660,8660,8660,8660,8660,8660,8660,8660,8660,8660,8660,8660,8660,8660,8660,8660,8660,8660,8660,8660,8660,8660,8660,8660,8660,8660,8660,8660,8660,8660,8660,8660,8660,8660,8660,8660,8660,8660,8660,8660,8660,8660,8660,8660,8660,8660,8660,8660,8660,8660,8660,8660,8660,8660,8660,8660,8660,8660,8660,
8660,8660,8660,8660,8660,8660,8660,8660,8660,8660,8660,8660,8660,8660,8660,8660,8660,8660,8660,8660,8660,8660,8660,8660,8660,8660,8660,8660,8660,8660,8660,8660,8660,8660,8660,8660,8660,8660,8660,8660,8660,8660,8660,8660,8660,8660,8660,8660,8660,8660,8660,8660,8660,8660,8660,8660,8660,8660,8660,8660,8660,8660,8660,8660,8660,8660,8660,8660,8660,8660,8660,8660,8660,8660,8660,8660,8660,8660,8660,8660,8660,8660,8660,8660,8660,8660,8660,8660,8660,8660,8660,8660,8660,8660,8660,8660,8660,8660,8660,8660,8660,8660,8660,8660,8660,8660,8660,8660,8660,8660,8660,8660,8660,8660,8660,8660,8660,8660,8660,8660,8660,8660,8660,8660,8660,8660,8660,8660,8660,8660,8660,8660,8660,8660,8660,8660,8660,8660,8660,8660,8660,8660,8660,8660,8660,8660,8660,8660,8660,8660,8660,8660,8660,8660,8660,8660,8660,8660,8660,8660,8660,8660,8660,8660,8660,8660,8660,8660,8660,8660,8660,8660,8660,8660,8660,8660,8660,8660,8660,8660,8660,8660,8660,8660,8660,8660,8660,8660,8660,8660,8660,8660,8660,8660,8660,8660,8660,8660,8660,8660,8660,8660,8660,8660,8660,8660,8660,8660,8660,8660,8660,8660,8660,8660,8660,8660,8660,8660,8660,8660,8660,8660,8660,8660,8660,8660,8660,8660,8660,8660,8660,8660,8660,8660,8660,8660,8660,8660,8660,8660,8660,8660,8660,8660,8660,8660,8660,8660,8660,8660,
8660,8660,8660,8660,8660,8660,8660,8660,8660,8660,8660,8660,8660,8660,8660,8660,8660,8660,8660,8660,8660,8660,8660,8660,8660,8660,8660,8660,8660,8660,8660,8660,8660,8660,8660,8660,8660,8660,8660,8660,8660,8660,8660,8660,8660,8660,8660,8660,8660,8660,8660,8660,8660,8660,8660,8660,8660,8660,8660,8660,8660,8660,8660,8660,8660,8660,8660,8660,8660,8660,8660,8660,8660,8660,8660,8660,8660,8660,8660,8660,8660,8660,8660,8660,8660,8660,8660,8660,8660,8660,8660,8660,8660,8660,8660,8660,8660,8660,8660,8660,8660,8660,8660,8660,8660,8660,8660,8660,8660,8660,8660,8660,8660,8660,8660,8660,8660,8660,8660,8660,8660,8660,8660,8660,8660,8660,8660,8660,8660,8660,8660,8660,8660,8660,8660,8660,8660,8660,8660,8660,8660,8660,8660,8660,8660,8660,8660,8660,8660,8660,8660,8660,8660,8660,8660,8660,8660,8660,8660,8660,8660,8660,8660,8660,8660,8660,8660,8660,8660,8660,8660,8660,8660,8660,8660,8660,8660,8660,8660,8660,8660,8660,8660,8660,8660,8660,8660,8660,8660,8660,8660,8660,8660,8660,8660,8660,8660,8660,8660,8660,8660,8660,8660,8660,8660,8660,8660,8660,8660,8660,8660,8660,8660,8660,8660,8660,8660,8660,8660,8660,8660,8660,8660,8660,8660,8660,8660,8660,8660,8660,8660,8660,8660,8660,8660,8660,8660,8660,8660,8660,8660,8660,8660,8660,8660,8660,8660,8660,8660,8660,
8660,8660,8660,8660,8660,8660,8660,8660,8660,8660,8660,8660,8660,8660,8660,8660,8660,8660,8660,8660,8660,8660,8660,8660,8660,8660,8660,8660,8660,8660,8660,8660,8660,8660,8660,8660,8660,8660,8660,8660,8660,8660,8660,8660,8660,8660,8660,8660,8660,8660,8660,8660,8660,8660,8660,8660,8660,8660,8660,8660,8660,8660,8660,8660,8660,8660,8660,8660,8660,8660,8660,8660,8660,8660,8660,8660,8660,8660,8660,8660,8660,8660,8660,8660,8660,8660,8660,8660,8660,8660,8660,8660,8660,8660,8660,8660,8660,8660,8660,8660,8660,8660,8660,8660,8660,8660,8660,8660,8660,8660,8660,8660,8660,8660,8660,8660,8660,8660,8660,8660,8660,8660,8660,8660,8660,8660,8660,8660,8660,8660,8660,8660,8660,8660,8660,8660,8660,8660,8660,8660,8660,8660,8660,8660,8660,8660,8660,8660,8660,8660,8660,8660,8660,8660,8660,8660,8660,8660,8660,8660,8660,8660,8660,8660,8660,8660,8660,8660,8660,8660,8660,8660,8660,8660,8660,8660,8660,8660,8660,8660,8660,8660,8660,8660,8660,8660,8660,8660,8660,8660,8660,8660,8660,8660,8660,8660,8660,8660,8660,8660,8660,8660,8660,8660,8660,8660,8660,8660,8660,8660,8660,8660,8660,8660,8660,8660,8660,8660,8660,8660,8660,8660,8660,8660,8660,8660,8660,8660,8660,8660,8660,8660,8660,8660,8660,8660,8660,8660,8660,8660,8660,8660,8660,8660,8660,8660,8660,8660,8660,8660,
8660,8660,8660,8660,8660,8660,8660,8660,8660,8660,8660,8660,8660,8660,8660,8660,8660,8660,8660,8660,8660,8660,8660,8660,8660,8660,8660,8660,8660,8660,8660,8660,8660,8660,8660,8660,8660,8660,8660,8660,8660,8660,8660,8660,8660,8660,8660,8660,8660,8660,8660,8660,8660,8660,8660,8660,8660,8660,8660,8660,8660,8660,8660,8660,8660,8660,8660,8660,8660,8660,8660,8660,8660,8660,8660,8660,8660,8660,8660,8660,8660,8660,8660,8660,8660,8660,8660,8660,8660,8660,8660,8660,8660,8660,8660,8660,8660,8660,8660,8660,8660,8660,8660,8660,8660,8660,8660,8660,8660,8660,8660,8660,8660,8660,8660,8660,8660,8660,8660,8660,8660,8660,8660,8660,8660,8660,8660,8660,8660,8660,8660,8660,8660,8660,8660,8660,8660,8660,8660,8660,8660,8660,8660,8660,8660,8660,8660,8660,8660,8660,8660,8660,8660,8660,8660,8660,8660,8660,8660,8660,8660,8660,8660,8660,8660,8660,8660,8660,8660,8660,8660,8660,8660,8660,8660,8660,8660,8660,8660,8660,8660,8660,8660,8660,8660,8660,8660,8660,8660,8660,8660,8660,8660,8660,8660,8660,8660,8660,8660,8660,8660,8660,8660,8660,8660,8660,8660,8660,8660,8660,8660,8660,8660,8660,8660,8660,8660,8660,8660,8660,8660,8660,8660,8660,8660,8660,8660,8660,8660,8660,8660,8660,8660,8660,8660,8660,8660,8660,8660,8660,8660,8660,8660,8660,8660,8660,8660,8660,8660,8660,
8660,8660,8660,8660,8660,8660,8660,8660,8660,8660,8660,8660,8660,8660,8660,8660,8660,8660,8660,8660,8660,8660,8660,8660,8660,8660,8660,8660,8660,8660,8660,8660,8660,8660,8660,8660,8660,8660,8660,8660,8660,8660,8660,8660,8660,8660,8660,8660,8660,8660,8660,8660,8660,8660,8660,8660,8660,8660,8660,8660,8660,8660,8660,8660,8660,8660,8660,8660,8660,8660,8660,8660,8660,8660,8660,8660,8660,8660,8660,8660,8660,8660,8660,8660,8660,8660,8660,8660,8660,8660,8660,8660,8660,8660,8660,8660,8660,8660,8660,8660,8660,8660,8660,8660,8660,8660,8660,8660,8660,8660,8660,8660,8660,8660,8660,8660,8660,8660,8660,8660,8660,8660,8660,8660,8660,8660,8660,8660,8660,8660,8660,8660,8660,8660,8660,8660,8660,8660,8660,8660,8660,8660,8660,8660,8660,8660,8660,8660,8660,8660,8660,8660,8660,8660,8660,8660,8660,8660,8660,8660,8660,8660,8660,8660,8660,8660,8660,8660,8660,8660,8660,8660,8660,8660,8660,8660,8660,8660,8660,8660,8660,8660,8660,8660,8660,8660,8660,8660,8660,8660,8660,8660,8660,8660,8660,8660,8660,8660,8660,8660,8660,8660,8660,8660,8660,8660,8660,8660,8660,8660,8660,8660,8660,8660,8660,8660,8660,8660,8660,8660,8660,8660,8660,8660,8660,8660,8660,8660,8660,8660,8660,8660,8660,8660,8660,8660,8660,8660,8660,8660,8660,8660,8660,8660,8660,8660,8660,8660,8660,8660,
8660,8660,8660,8660,8660,8660,8660,8660,8660,8660,8660,8660,8660,8660,8660,8660,8660,8660,8660,8660,8660,8660,8660,8660,8660,8660,8660,8660,8660,8660,8660,8660,8660,8660,8660,8660,8660,8660,8660,8660,8660,8660,8660,8660,8660,8660,8660,8660,8660,8660,8660,8660,8660,8660,8660,8660,8660,8660,8660,8660,8660,8660,8660,8660,8660,8660,8660,8660,8660,8660,8660,8660,8660,8660,8660,8660,8660,8660,8660,8660,8660,8660,8660,8660,8660,8660,8660,8660,8660,8660,8660,8660,8660,8660,8660,8660,8660,8660,8660,8660,8660,8660,8660,8660,8660,8660,8660,8660,8660,8660,8660,8660,8660,8660,8660,8660,8660,8660,8660,8660,8660,8660,8660,8660,8660,8660,8660,8660,8660,8660,8660,8660,8660,8660,8660,8660,8660,8660,8660,8660,8660,8660,8660,8660,8660,8660,8660,8660,8660,8660,8660,8660,8660,8660,8660,8660,8660,8660,8660,8660,8660,8660,8660,8660,8660,8660,8660,8660,8660,8660,8660,8660,8660,8660,8660,8660,8660,8660,8660,8660,8660,8660,8660,8660,8660,8660,8660,8660,8660,8660,8660,8660,8660,8660,8660,8660,8660,8660,8660,8660,8660,8660,8660,8660,8660,8660,8660,8660,8660,8660,8660,8660,8660,8660,8660,8660,8660,8660,8660,8660,8660,8660,8660,8660,8660,8660,8660,8660,8660,8660,8660,8660,8660,8660,8660,8660,8660,8660,8660,8660,8660,8660,8660,8660,8660,8660,8660,8660,8660,8660,
8660,8660,8660,8660,8660,8660,8660,8660,8660,8660,8660,8660,8660,8660,8660,8660,8660,8660,8660,8660,8660,8660,8660,8660,8660,8660,8660,8660,8660,8660,8660,8660,8660,8660,8660,8660,8660,8660,8660,8660,8660,8660,8660,8660,8660,8660,8660,8660,8660,8660,8660,8660,8660,8660,8660,8660,8660,8660,8660,8660,8660,8660,8660,8660,8660,8660,8660,8660,8660,8660,8660,8660,8660,8660,8660,8660,8660,8660,8660,8660,8660,8660,8660,8660,8660,8660,8660,8660,8660,8660,8660,8660,8660,8660,8660,8660,8660,8660,8660,8660,8660,8660,8660,8660,8660,8660,8660,8660,8660,8660,8660,8660,8660,8660,8660,8660,8660,8660,8660,8660,8660,8660,8660,8660,8660,8660,8660,8660,8660,8660,8660,8660,8660,8660,8660,8660,8660,8660,8660,8660,8660,8660,8660,8660,8660,8660,8660,8660,8660,8660,8660,8660,8660,8660,8660,8660,8660,8660,8660,8660,8660,8660,8660,8660,8660,8660,8660,8660,8660,8660,8660,8660,8660,8660,8660,8660,8660,8660,8660,8660,8660,8660,8660,8660,8660,8660,8660,8660,8660,8660,8660,8660,8660,8660,8660,8660,8660,8660,8660,8660,8660,8660,8660,8660,8660,8660,8660,8660,8660,8660,8660,8660,8660,8660,8660,8660,8660,8660,8660,8660,8660,8660,8660,8660,8660,8660,8660,8660,8660,8660,8660,8660,8660,8660,8660,8660,8660,8660,8660,8660,8660,8660,8660,8660,8660,8660,8660,8660,8660,8660,
8660,8660,8660,8660,8660,8660,8660,8660,8660,8660,8660,8660,8660,8660,8660,8660,8660,8660,8660,8660,8660,8660,8660,8660,8660,8660,8660,8660,8660,8660,8660,8660,8660,8660,8660,8660,8660,8660,8660,8660,8660,8660,8660,8660,8660,8660,8660,8660,8660,8660,8660,8660,8660,8660,8660,8660,8660,8660,8660,8660,8660,8660,8660,8660,8660,8660,8660,8660,8660,8660,8660,8660,8660,8660,8660,8660,8660,8660,8660,8660,8660,8660,8660,8660,8660,8660,8660,8660,8660,8660,8660,8660,8660,8660,8660,8660,8660,8660,8660,8660,8660,8660,8660,8660,8660,8660,8660,8660,8660,8660,8660,8660,8660,8660,8660,8660,8660,8660,8660,8660,8660,8660,8660,8660,8660,8660,8660,8660,8660,8660,8660,8660,8660,8660,8660,8660,8660,8660,8660,8660,8660,8660,8660,8660,8660,8660,8660,8660,8660,8660,8660,8660,8660,8660,8660,8660,8660,8660,8660,8660,8660,8660,8660,8660,8660,8660,8660,8660,8660,8660,8660,8660,8660,8660,8660,8660,8660,8660,8660,8660,8660,8660,8660,8660,8660,8660,8660,8660,8660,8660,8660,8660,8660,8660,8660,8660,8660,8660,8660,8660,8660,8660,8660,8660,8660,8660,8660,8660,8660,8660,8660,8660,8660,8660,8660,8660,8660,8660,8660,8660,8660,8660,8660,8660,8660,8660,8660,8660,8660,8660,8660,8660,8660,8660,8660,8660,8660,8660,8660,8660,8660,8660,8660,8660,8660,8660,8660,8660,8660,8660,
8660,8660,8660,8660,8660,8660,8660,8660,8660,8660,8660,8660,8660,8660,8660,8660,8660,8660,8660,8660,8660,8660,8660,8660,8660,8660,8660,8660,8660,8660,8660,8660,8660,8660,8660,8660,8660,8660,8660,8660,8660,8660,8660,8660,8660,8660,8660,8660,8660,8660,8660,8660,8660,8660,8660,8660,8660,8660,8660,8660,8660,8660,8660,8660,8660,8660,8660,8660,8660,8660,8660,8660,8660,8660,8660,8660,8660,8660,8660,8660,8660,8660,8660,8660,8660,8660,8660,8660,8660,8660,8660,8660,8660,8660,8660,8660,8660,8660,8660,8660,8660,8660,8660,8660,8660,8660,8660,8660,8660,8660,8660,8660,8660,8660,8660,8660,8660,8660,8660,8660,8660,8660,8660,8660,8660,8660,8660,8660,8660,8660,8660,8660,8660,8660,8660,8660,8660,8660,8660,8660,8660,8660,8660,8660,8660,8660,8660,8660,8660,8660,8660,8660,8660,8660,8660,8660,8660,8660,8660,8660,8660,8660,8660,8660,8660,8660,8660,8660,8660,8660,8660,8660,8660,8660,8660,8660,8660,8660,8660,8660,8660,8660,8660,8660,8660,8660,8660,8660,8660,8660,8660,8660,8660,8660,8660,8660,8660,8660,8660,8660,8660,8660,8660,8660,8660,8660,8660,8660,8660,8660,8660,8660,8660,8660,8660,8660,8660,8660,8660,8660,8660,8660,8660,8660,8660,8660,8660,8660,8660,8660,8660,8660,8660,8660,8660,8660,8660,8660,8660,8660,8660,8660,8660,8660,8660,8660,8660,8660,8660,8660,
8660,8660,8660,8660,8660,8660,8660,8660,8660,8660,8660,8660,8660,8660,8660,8660,8660,8660,8660,8660,8660,8660,8660,8660,8660,8660,8660,8660,8660,8660,8660,8660,8660,8660,8660,8660,8660,8660,8660,8660,8660,8660,8660,8660,8660,8660,8660,8660,8660,8660,8660,8660,8660,8660,8660,8660,8660,8660,8660,8660,8660,8660,8660,8660,8660,8660,8660,8660,8660,8660,8660,8660,8660,8660,8660,8660,8660,8660,8660,8660,8660,8660,8660,8660,8660,8660,8660,8660,8660,8660,8660,8660,8660,8660,8660,8660,8660,8660,8660,8660,8660,8660,8660,8660,8660,8660,8660,8660,8660,8660,8660,8660,8660,8660,8660,8660,8660,8660,8660,8660,8660,8660,8660,8660,8660,8660,8660,8660,8660,8660,8660,8660,8660,8660,8660,8660,8660,8660,8660,8660,8660,8660,8660,8660,8660,8660,8660,8660,8660,8660,8660,8660,8660,8660,8660,8660,8660,8660,8660,8660,8660,8660,8660,8660,8660,8660,8660,8660,8660,8660,8660,8660,8660,8660,8660,8660,8660,8660,8660,8660,8660,8660,8660,8660,8660,8660,8660,8660,8660,8660,8660,8660,8660,8660,8660,8660,8660,8660,8660,8660,8660,8660,8660,8660,8660,8660,8660,8660,8660,8660,8660,8660,8660,8660,8660,8660,8660,8660,8660,8660,8660,8660,8660,8660,8660,8660,8660,8660,8660,8660,8660,8660,8660,8660,8660,8660,8660,8660,8660,8660,8660,8660,8660,8660,8660,8660,8660,8660,8660,8660,
8660,8660,8660,8660,8660,8660,8660,8660,8660,8660,8660,8660,8660,8660,8660,8660,8660,8660,8660,8660,8660,8660,8660,8660,8660,8660,8660,8660,8660,8660,8660,8660,8660,8660,8660,8660,8660,8660,8660,8660,8660,8660,8660,8660,8660,8660,8660,8660,8660,8660,8660,8660,8660,8660,8660,8660,8660,8660,8660,8660,8660,8660,8660,8660,8660,8660,8660,8660,8660,8660,8660,8660,8660,8660,8660,8660,8660,8660,8660,8660,8660,8660,8660,8660,8660,8660,8660,8660,8660,8660,8660,8660,8660,8660,8660,8660,8660,8660,8660,8660,8660,8660,8660,8660,8660,8660,8660,8660,8660,8660,8660,8660,8660,8660,8660,8660,8660,8660,8660,8660,8660,8660,8660,8660,8660,8660,8660,8660,8660,8660,8660,8660,8660,8660,8660,8660,8660,8660,8660,8660,8660,8660,8660,8660,8660,8660,8660,8660,8660,8660,8660,8660,8660,8660,8660,8660,8660,8660,8660,8660,8660,8660,8660,8660,8660,8660,8660,8660,8660,8660,8660,8660,8660,8660,8660,8660,8660,8660,8660,8660,8660,8660,8660,8660,8660,8660,8660,8660,8660,8660,8660,8660,8660,8660,8660,8660,8660,8660,8660,8660,8660,8660,8660,8660,8660,8660,8660,8660,8660,8660,8660,8660,8660,8660,8660,8660,8660,8660,8660,8660,8660,8660,8660,8660,8660,8660,8660,8660,8660,8660,8660,8660,8660,8660,8660,8660,8660,8660,8660,8660,8660,8660,8660,8660,8660,8660,8660,8660,8660,8660,
8660,8660,8660,8660,8660,8660,8660,8660,8660,8660,8660,8660,8660,8660,8660,8660,8660,8660,8660,8660,8660,8660,8660,8660,8660,8660,8660,8660,8660,8660,8660,8660,8660,8660,8660,8660,8660,8660,8660,8660,8660,8660,8660,8660,8660,8660,8660,8660,8660,8660,8660,8660,8660,8660,8660,8660,8660,8660,8660,8660,8660,8660,8660,8660,8660,8660,8660,8660,8660,8660,8660,8660,8660,8660,8660,8660,8660,8660,8660,8660,8660,8660,8660,8660,8660,8660,8660,8660,8660,8660,8660,8660,8660,8660,8660,8660,8660,8660,8660,8660,8660,8660,8660,8660,8660,8660,8660,8660,8660,8660,8660,8660,8660,8660,8660,8660,8660,8660,8660,8660,8660,8660,8660,8660,8660,8660,8660,8660,8660,8660,8660,8660,8660,8660,8660,8660,8660,8660,8660,8660,8660,8660,8660,8660,8660,8660,8660,8660,8660,8660,8660,8660,8660,8660,8660,8660,8660,8660,8660,8660,8660,8660,8660,8660,8660,8660,8660,8660,8660,8660,8660,8660,8660,8660,8660,8660,8660,8660,8660,8660,8660,8660,8660,8660,8660,8660,8660,8660,8660,8660,8660,8660,8660,8660,8660,8660,8660,8660,8660,8660,8660,8660,8660,8660,8660,8660,8660,8660,8660,8660,8660,8660,8660,8660,8660,8660,8660,8660,8660,8660,8660,8660,8660,8660,8660,8660,8660,8660,8660,8660,8660,8660,8660,8660,8660,8660,8660,8660,8660,8660,8660,8660,8660,8660,8660,8660,8660,8660,8660,8660,
8660,8660,8660,8660,8660,8660,8660,8660,8660,8660,8660,8660,8660,8660,8660,8660,8660,8660,8660,8660,8660,8660,8660,8660,8660,8660,8660,8660,8660,8660,8660,8660,8660,8660,8660,8660,8660,8660,8660,8660,8660,8660,8660,8660,8660,8660,8660,8660,8660,8660,8660,8660,8660,8660,8660,8660,8660,8660,8660,8660,8660,8660,8660,8660,8660,8660,8660,8660,8660,8660,8660,8660,8660,8660,8660,8660,8660,8660,8660,8660,8660,8660,8660,8660,8660,8660,8660,8660,8660,8660,8660,8660,8660,8660,8660,8660,8660,8660,8660,8660,8660,8660,8660,8660,8660,8660,8660,8660,8660,8660,8660,8660,8660,8660,8660,8660,8660,8660,8660,8660,8660,8660,8660,8660,8660,8660,8660,8660,8660,8660,8660,8660,8660,8660,8660,8660,8660,8660,8660,8660,8660,8660,8660,8660,8660,8660,8660,8660,8660,8660,8660,8660,8660,8660,8660,8660,8660,8660,8660,8660,8660,8660,8660,8660,8660,8660,8660,8660,8660,8660,8660,8660,8660,8660,8660,8660,8660,8660,8660,8660,8660,8660,8660,8660,8660,8660,8660,8660,8660,8660,8660,8660,8660,8660,8660,8660,8660,8660,8660,8660,8660,8660,8660,8660,8660,8660,8660,8660,8660,8660,8660,8660,8660,8660,8660,8660,8660,8660,8660,8660,8660,8660,8660,8660,8660,8660,8660,8660,8660,8660,8660,8660,8660,8660,8660,8660,8660,8660,8660,8660,8660,8660,8660,8660,8660,8660,8660,8660,8660,8660,
8660,8660,8660,8660,8660,8660,8660,8660,8660,8660,8660,8660,8660,8660,8660,8660,8660,8660,8660,8660,8660,8660,8660,8660,8660,8660,8660,8660,8660,8660,8660,8660,8660,8660,8660,8660,8660,8660,8660,8660,8660,8660,8660,8660,8660,8660,8660,8660,8660,8660,8660,8660,8660,8660,8660,8660,8660,8660,8660,8660,8660,8660,8660,8660,8660,8660,8660,8660,8660,8660,8660,8660,8660,8660,8660,8660,8660,8660,8660,8660,8660,8660,8660,8660,8660,8660,8660,8660,8660,8660,8660,8660,8660,8660,8660,8660,8660,8660,8660,8660,8660,8660,8660,8660,8660,8660,8660,8660,8660,8660,8660,8660,8660,8660,8660,8660,8660,8660,8660,8660,8660,8660,8660,8660,8660,8660,8660,8660,8660,8660,8660,8660,8660,8660,8660,8660,8660,8660,8660,8660,8660,8660,8660,8660,8660,8660,8660,8660,8660,8660,8660,8660,8660,8660,8660,8660,8660,8660,8660,8660,8660,8660,8660,8660,8660,8660,8660,8660,8660,8660,8660,8660,8660,8660,8660,8660,8660,8660,8660,8660,8660,8660,8660,8660,8660,8660,8660,8660,8660,8660,8660,8660,8660,8660,8660,8660,8660,8660,8660,8660,8660,8660,8660,8660,8660,8660,8660,8660,8660,8660,8660,8660,8660,8660,8660,8660,8660,8660,8660,8660,8660,8660,8660,8660,8660,8660,8660,8660,8660,8660,8660,8660,8660,8660,8660,8660,8660,8660,8660,8660,8660,8660,8660,8660,8660,8660,8660,8660,8660,8660,
8660,8660,8660,8660,8660,8660,8660,8660,8660,8660,8660,8660,8660,8660,8660,8660,8660,8660,8660,8660,8660,8660,8660,8660,8660,8660,8660,8660,8660,8660,8660,8660,8660,8660,8660,8660,8660,8660,8660,8660,8660,8660,8660,8660,8660,8660,8660,8660,8660,8660,8660,8660,8660,8660,8660,8660,8660,8660,8660,8660,8660,8660,8660,8660,8660,8660,8660,8660,8660,8660,8660,8660,8660,8660,8660,8660,8660,8660,8660,8660,8660,8660,8660,8660,8660,8660,8660,8660,8660,8660,8660,8660,8660,8660,8660,8660,8660,8660,8660,8660,8660,8660,8660,8660,8660,8660,8660,8660,8660,8660,8660,8660,8660,8660,8660,8660,8660,8660,8660,8660,8660,8660,8660,8660,8660,8660,8660,8660,8660,8660,8660,8660,8660,8660,8660,8660,8660,8660,8660,8660,8660,8660,8660,8660,8660,8660,8660,8660,8660,8660,8660,8660,8660,8660,8660,8660,8660,8660,8660,8660,8660,8660,8660,8660,8660,8660,8660,8660,8660,8660,8660,8660,8660,8660,8660,8660,8660,8660,8660,8660,8660,8660,8660,8660,8660,8660,8660,8660,8660,8660,8660,8660,8660,8660,8660,8660,8660,8660,8660,8660,8660,8660,8660,8660,8660,8660,8660,8660,8660,8660,8660,8660,8660,8660,8660,8660,8660,8660,8660,8660,8660,8660,8660,8660,8660,8660,8660,8660,8660,8660,8660,8660,8660,8660,8660,8660,8660,8660,8660,8660,8660,8660,8660,8660,8660,8660,8660,8660,8660,8660,
8660,8660,8660,8660,8660,8660,8660,8660,8660,8660,8660,8660,8660,8660,8660,8660,8660,8660,8660,8660,8660,8660,8660,8660,8660,8660,8660,8660,8660,8660,8660,8660,8660,8660,8660,8660,8660,8660,8660,8660,8660,8660,8660,8660,8660,8660,8660,8660,8660,8660,8660,8660,8660,8660,8660,8660,8660,8660,8660,8660,8660,8660,8660,8660,8660,8660,8660,8660,8660,8660,8660,8660,8660,8660,8660,8660,8660,8660,8660,8660,8660,8660,8660,8660,8660,8660,8660,8660,8660,8660,8660,8660,8660,8660,8660,8660,8660,8660,8660,8660,8660,8660,8660,8660,8660,8660,8660,8660,8660,8660,8660,8660,8660,8660,8660,8660,8660,8660,8660,8660,8660,8660,8660,8660,8660,8660,8660,8660,8660,8660,8660,8660,8660,8660,8660,8660,8660,8660,8660,8660,8660,8660,8660,8660,8660,8660,8660,8660,8660,8660,8660,8660,8660,8660,8660,8660,8660,8660,8660,8660,8660,8660,8660,8660,8660,8660,8660,8660,8660,8660,8660,8660,8660,8660,8660,8660,8660,8660,8660,8660,8660,8660,8660,8660,8660,8660,8660,8660,8660,8660,8660,8660,8660,8660,8660,8660,8660,8660,8660,8660,8660,8660,8660,8660,8660,8660,8660,8660,8660,8660,8660,8660,8660,8660,8660,8660,8660,8660,8660,8660,8660,8660,8660,8660,8660,8660,8660,8660,8660,8660,8660,8660,8660,8660,8660,8660,8660,8660,8660,8660,8660,8660,8660,8660,8660,8660,8660,8660,8660,8660,
8660,8660,8660,8660,8660,8660,8660,8660,8660,8660,8660,8660,8660,8660,8660,8660,8660,8660,8660,8660,8660,8660,8660,8660,8660,8660,8660,8660,8660,8660,8660,8660,8660,8660,8660,8660,8660,8660,8660,8660,8660,8660,8660,8660,8660,8660,8660,8660,8660,8660,8660,8660,8660,8660,8660,8660,8660,8660,8660,8660,8660,8660,8660,8660,8660,8660,8660,8660,8660,8660,8660,8660,8660,8660,8660,8660,8660,8660,8660,8660,8660,8660,8660,8660,8660,8660,8660,8660,8660,8660,8660,8660,8660,8660,8660,8660,8660,8660,8660,8660,8660,8660,8660,8660,8660,8660,8660,8660,8660,8660,8660,8660,8660,8660,8660,8660,8660,8660,8660,8660,8660,8660,8660,8660,8660,8660,8660,8660,8660,8660,8660,8660,8660,8660,8660,8660,8660,8660,8660,8660,8660,8660,8660,8660,8660,8660,8660,8660,8660,8660,8660,8660,8660,8660,8660,8660,8660,8660,8660,8660,8660,8660,8660,8660,8660,8660,8660,8660,8660,8660,8660,8660,8660,8660,8660,8660,8660,8660,8660,8660,8660,8660,8660,8660,8660,8660,8660,8660,8660,8660,8660,8660,8660,8660,8660,8660,8660,8660,8660,8660,8660,8660,8660,8660,8660,8660,8660,8660,8660,8660,8660,8660,8660,8660,8660,8660,8660,8660,8660,8660,8660,8660,8660,8660,8660,8660,8660,8660,8660,8660,8660,8660,8660,8660,8660,8660,8660,8660,8660,8660,8660,8660,8660,8660,8660,8660,8660,8660,8660,8660,
8660,8660,8660,8660,8660,8660,8660,8660,8660,8660,8660,8660,8660,8660,8660,8660,8660,8660,8660,8660,8660,8660,8660,8660,8660,8660,8660,8660,8660,8660,8660,8660,8660,8660,8660,8660,8660,8660,8660,8660,8660,8660,8660,8660,8660,8660,8660,8660,8660,8660,8660,8660,8660,8660,8660,8660,8660,8660,8660,8660,8660,8660,8660,8660,8660,8660,8660,8660,8660,8660,8660,8660,8660,8660,8660,8660,8660,8660,8660,8660,8660,8660,8660,8660,8660,8660,8660,8660,8660,8660,8660,8660,8660,8660,8660,8660,8660,8660,8660,8660,8660,8660,8660,8660,8660,8660,8660,8660,8660,8660,8660,8660,8660,8660,8660,8660,8660,8660,8660,8660,8660,8660,8660,8660,8660,8660,8660,8660,8660,8660,8660,8660,8660,8660,8660,8660,8660,8660,8660,8660,8660,8660,8660,8660,8660,8660,8660,8660,8660,8660,8660,8660,8660,8660,8660,8660,8660,8660,8660,8660,8660,8660,8660,8660,8660,8660,8660,8660,8660,8660,8660,8660,8660,8660,8660,8660,8660,8660,8660,8660,8660,8660,8660,8660,8660,8660,8660,8660,8660,8660,8660,8660,8660,8660,8660,8660,8660,8660,8660,8660,8660,8660,8660,8660,8660,8660,8660,8660,8660,8660,8660,8660,8660,8660,8660,8660,8660,8660,8660,8660,8660,8660,8660,8660,8660,8660,8660,8660,8660,8660,8660,8660,8660,8660,8660,8660,8660,8660,8660,8660,8660,8660,8660,8660,8660,8660,8660,8660,8660,8660,
8660,8660,8660,8660,8660,8660,8660,8660,8660,8660,8660,8660,8660,8660,8660,8660,8660,8660,8660,8660,8660,8660,8660,8660,8660,8660,8660,8660,8660,8660,8660,8660,8660,8660,8660,8660,8660,8660,8660,8660,8660,8660,8660,8660,8660,8660,8660,8660,8660,8660,8660,8660,8660,8660,8660,8660,8660,8660,8660,8660,8660,8660,8660,8660,8660,8660,8660,8660,8660,8660,8660,8660,8660,8660,8660,8660,8660,8660,8660,8660,8660,8660,8660,8660,8660,8660,8660,8660,8660,8660,8660,8660,8660,8660,8660,8660,8660,8660,8660,8660,8660,8660,8660,8660,8660,8660,8660,8660,8660,8660,8660,8660,8660,8660,8660,8660,8660,8660,8660,8660,8660,8660,8660,8660,8660,8660,8660,8660,8660,8660,8660,8660,8660,8660,8660,8660,8660,8660,8660,8660,8660,8660,8660,8660,8660,8660,8660,8660,8660,8660,8660,8660,8660,8660,8660,8660,8660,8660,8660,8660,8660,8660,8660,8660,8660,8660,8660,8660,8660,8660,8660,8660,8660,8660,8660,8660,8660,8660,8660,8660,8660,8660,8660,8660,8660,8660,8660,8660,8660,8660,8660,8660,8660,8660,8660,8660,8660,8660,8660,8660,8660,8660,8660,8660,8660,8660,8660,8660,8660,8660,8660,8660,8660,8660,8660,8660,8660,8660,8660,8660,8660,8660,8660,8660,8660,8660,8660,8660,8660,8660,8660,8660,8660,8660,8660,8660,8660,8660,8660,8660,8660,8660,8660,8660,8660,8660,8660,8660,8660,8660,
8660,8660,8660,8660,8660,8660,8660,8660,8660,8660,8660,8660,8660,8660,8660,8660,8660,8660,8660,8660,8660,8660,8660,8660,8660,8660,8660,8660,8660,8660,8660,8660,8660,8660,8660,8660,8660,8660,8660,8660,8660,8660,8660,8660,8660,8660,8660,8660,8660,8660,8660,8660,8660,8660,8660,8660,8660,8660,8660,8660,8660,8660,8660,8660,8660,8660,8660,8660,8660,8660,8660,8660,8660,8660,8660,8660,8660,8660,8660,8660,8660,8660,8660,8660,8660,8660,8660,8660,8660,8660,8660,8660,8660,8660,8660,8660,8660,8660,8660,8660,8660,8660,8660,8660,8660,8660,8660,8660,8660,8660,8660,8660,8660,8660,8660,8660,8660,8660,8660,8660,8660,8660,8660,8660,8660,8660,8660,8660,8660,8660,8660,8660,8660,8660,8660,8660,8660,8660,8660,8660,8660,8660,8660,8660,8660,8660,8660,8660,8660,8660,8660,8660,8660,8660,8660,8660,8660,8660,8660,8660,8660,8660,8660,8660,8660,8660,8660,8660,8660,8660,8660,8660,8660,8660,8660,8660,8660,8660,8660,8660,8660,8660,8660,8660,8660,8660,8660,8660,8660,8660,8660,8660,8660,8660,8660,8660,8660,8660,8660,8660,8660,8660,8660,8660,8660,8660,8660,8660,8660,8660,8660,8660,8660,8660,8660,8660,8660,8660,8660,8660,8660,8660,8660,8660,8660,8660,8660,8660,8660,8660,8660,8660,8660,8660,8660,8660,8660,8660,8660,8660,8660,8660,8660,8660,8660,8660,8660,8660,8660,8660,
8660,8660,8660,8660,8660,8660,8660,8660,8660,8660,8660,8660,8660,8660,8660,8660,8660,8660,8660,8660,8660,8660,8660,8660,8660,8660,8660,8660,8660,8660,8660,8660,8660,8660,8660,8660,8660,8660,8660,8660,8660,8660,8660,8660,8660,8660,8660,8660,8660,8660,8660,8660,8660,8660,8660,8660,8660,8660,8660,8660,8660,8660,8660,8660,8660,8660,8660,8660,8660,8660,8660,8660,8660,8660,8660,8660,8660,8660,8660,8660,8660,8660,8660,8660,8660,8660,8660,8660,8660,8660,8660,8660,8660,8660,8660,8660,8660,8660,8660,8660,8660,8660,8660,8660,8660,8660,8660,8660,8660,8660,8660,8660,8660,8660,8660,8660,8660,8660,8660,8660,8660,8660,8660,8660,8660,8660,8660,8660,8660,8660,8660,8660,8660,8660,8660,8660,8660,8660,8660,8660,8660,8660,8660,8660,8660,8660,8660,8660,8660,8660,8660,8660,8660,8660,8660,8660,8660,8660,8660,8660,8660,8660,8660,8660,8660,8660,8660,8660,8660,8660,8660,8660,8660,8660,8660,8660,8660,8660,8660,8660,8660,8660,8660,8660,8660,8660,8660,8660,8660,8660,8660,8660,8660,8660,8660,8660,8660,8660,8660,8660,8660,8660,8660,8660,8660,8660,8660,8660,8660,8660,8660,8660,8660,8660,8660,8660,8660,8660,8660,8660,8660,8660,8660,8660,8660,8660,8660,8660,8660,8660,8660,8660,8660,8660,8660,8660,8660,8660,8660,8660,8660,8660,8660,8660,8660,8660,8660,8660,8660,8660,
8660,8660,8660,8660,8660,8660,8660,8660,8660,8660,8660,8660,8660,8660,8660,8660,8660,8660,8660,8660,8660,8660,8660,8660,8660,8660,8660,8660,8660,8660,8660,8660,8660,8660,8660,8660,8660,8660,8660,8660,8660,8660,8660,8660,8660,8660,8660,8660,8660,8660,8660,8660,8660,8660,8660,8660,8660,8660,8660,8660,8660,8660,8660,8660,8660,8660,8660,8660,8660,8660,8660,8660,8660,8660,8660,8660,8660,8660,8660,8660,8660,8660,8660,8660,8660,8660,8660,8660,8660,8660,8660,8660,8660,8660,8660,8660,8660,8660,8660,8660,8660,8660,8660,8660,8660,8660,8660,8660,8660,8660,8660,8660,8660,8660,8660,8660,8660,8660,8660,8660,8660,8660,8660,8660,8660,8660,8660,8660,8660,8660,8660,8660,8660,8660,8660,8660,8660,8660,8660,8660,8660,8660,8660,8660,8660,8660,8660,8660,8660,8660,8660,8660,8660,8660,8660,8660,8660,8660,8660,8660,8660,8660,8660,8660,8660,8660,8660,8660,8660,8660,8660,8660,8660,8660,8660,8660,8660,8660,8660,8660,8660,8660,8660,8660,8660,8660,8660,8660,8660,8660,8660,8660,8660,8660,8660,8660,8660,8660,8660,8660,8660,8660,8660,8660,8660,8660,8660,8660,8660,8660,8660,8660,8660,8660,8660,8660,8660,8660,8660,8660,8660,8660,8660,8660,8660,8660,8660,8660,8660,8660,8660,8660,8660,8660,8660,8660,8660,8660,8660,8660,8660,8660,8660,8660,8660,8660,8660,8660,8660,8660,
8660,8660,8660,8660,8660,8660,8660,8660,8660,8660,8660,8660,8660,8660,8660,8660,8660,8660,8660,8660,8660,8660,8660,8660,8660,8660,8660,8660,8660,8660,8660,8660,8660,8660,8660,8660,8660,8660,8660,8660,8660,8660,8660,8660,8660,8660,8660,8660,8660,8660,8660,8660,8660,8660,8660,8660,8660,8660,8660,8660,8660,8660,8660,8660,8660,8660,8660,8660,8660,8660,8660,8660,8660,8660,8660,8660,8660,8660,8660,8660,8660,8660,8660,8660,8660,8660,8660,8660,8660,8660,8660,8660,8660,8660,8660,8660,8660,8660,8660,8660,8660,8660,8660,8660,8660,8660,8660,8660,8660,8660,8660,8660,8660,8660,8660,8660,8660,8660,8660,8660,8660,8660,8660,8660,8660,8660,8660,8660,8660,8660,8660,8660,8660,8660,8660,8660,8660,8660,8660,8660,8660,8660,8660,8660,8660,8660,8660,8660,8660,8660,8660,8660,8660,8660,8660,8660,8660,8660,8660,8660,8660,8660,8660,8660,8660,8660,8660,8660,8660,8660,8660,8660,8660,8660,8660,8660,8660,8660,8660,8660,8660,8660,8660,8660,8660,8660,8660,8660,8660,8660,8660,8660,8660,8660,8660,8660,8660,8660,8660,8660,8660,8660,8660,8660,8660,8660,8660,8660,8660,8660,8660,8660,8660,8660,8660,8660,8660,8660,8660,8660,8660,8660,8660,8660,8660,8660,8660,8660,8660,8660,8660,8660,8660,8660,8660,8660,8660,8660,8660,8660,8660,8660,8660,8660,8660,8660,8660,8660,8660,8660,
8660,8660,8660,8660,8660,8660,8660,8660,8660,8660,8660,8660,8660,8660,8660,8660,8660,8660,8660,8660,8660,8660,8660,8660,8660,8660,8660,8660,8660,8660,8660,8660,8660,8660,8660,8660,8660,8660,8660,8660,8660,8660,8660,8660,8660,8660,8660,8660,8660,8660,8660,8660,8660,8660,8660,8660,8660,8660,8660,8660,8660,8660,8660,8660,8660,8660,8660,8660,8660,8660,8660,8660,8660,8660,8660,8660,8660,8660,8660,8660,8660,8660,8660,8660,8660,8660,8660,8660,8660,8660,8660,8660,8660,8660,8660,8660,8660,8660,8660,8660,8660,8660,8660,8660,8660,8660,8660,8660,8660,8660,8660,8660,8660,8660,8660,8660,8660,8660,8660,8660,8660,8660,8660,8660,8660,8660,8660,8660,8660,8660,8660,8660,8660,8660,8660,8660,8660,8660,8660,8660,8660,8660,8660,8660,8660,8660,8660,8660,8660,8660,8660,8660,8660,8660,8660,8660,8660,8660,8660,8660,8660,8660,8660,8660,8660,8660,8660,8660,8660,8660,8660,8660,8660,8660,8660,8660,8660,8660,8660,8660,8660,8660,8660,8660,8660,8660,8660,8660,8660,8660,8660,8660,8660,8660,8660,8660,8660,8660,8660,8660,8660,8660,8660,8660,8660,8660,8660,8660,8660,8660,8660,8660,8660,8660,8660,8660,8660,8660,8660,8660,8660,8660,8660,8660,8660,8660,8660,8660,8660,8660,8660,8660,8660,8660,8660,8660,8660,8660,8660,8660,8660,8660,8660,8660,8660,8660,8660,8660,8660,8660,
8660,8660,8660,8660,8660,8660,8660,8660,8660,8660,8660,8660,8660,8660,8660,8660,8660,8660,8660,8660,8660,8660,8660,8660,8660,8660,8660,8660,8660,8660,8660,8660,8660,8660,8660,8660,8660,8660,8660,8660,8660,8660,8660,8660,8660,8660,8660,8660,8660,8660,8660,8660,8660,8660,8660,8660,8660,8660,8660,8660,8660,8660,8660,8660,8660,8660,8660,8660,8660,8660,8660,8660,8660,8660,8660,8660,8660,8660,8660,8660,8660,8660,8660,8660,8660,8660,8660,8660,8660,8660,8660,8660,8660,8660,8660,8660,8660,8660,8660,8660,8660,8660,8660,8660,8660,8660,8660,8660,8660,8660,8660,8660,8660,8660,8660,8660,8660,8660,8660,8660,8660,8660,8660,8660,8660,8660,8660,8660,8660,8660,8660,8660,8660,8660,8660,8660,8660,8660,8660,8660,8660,8660,8660,8660,8660,8660,8660,8660,8660,8660,8660,8660,8660,8660,8660,8660,8660,8660,8660,8660,8660,8660,8660,8660,8660,8660,8660,8660,8660,8660,8660,8660,8660,8660,8660,8660,8660,8660,8660,8660,8660,8660,8660,8660,8660,8660,8660,8660,8660,8660,8660,8660,8660,8660,8660,8660,8660,8660,8660,8660,8660,8660,8660,8660,8660,8660,8660,8660,8660,8660,8660,8660,8660,8660,8660,8660,8660,8660,8660,8660,8660,8660,8660,8660,8660,8660,8660,8660,8660,8660,8660,8660,8660,8660,8660,8660,8660,8660,8660,8660,8660,8660,8660,8660,8660,8660,8660,8660,8660,8660,
8660,8660,8660,8660,8660,8660,8660,8660,8660,8660,8660,8660,8660,8660,8660,8660,8660,8660,8660,8660,8660,8660,8660,8660,8660,8660,8660,8660,8660,8660,8660,8660,8660,8660,8660,8660,8660,8660,8660,8660,8660,8660,8660,8660,8660,8660,8660,8660,8660,8660,8660,8660,8660,8660,8660,8660,8660,8660,8660,8660,8660,8660,8660,8660,8660,8660,8660,8660,8660,8660,8660,8660,8660,8660,8660,8660,8660,8660,8660,8660,8660,8660,8660,8660,8660,8660,8660,8660,8660,8660,8660,8660,8660,8660,8660,8660,8660,8660,8660,8660,8660,8660,8660,8660,8660,8660,8660,8660,8660,8660,8660,8660,8660,8660,8660,8660,8660,8660,8660,8660,8660,8660,8660,8660,8660,8660,8660,8660,8660,8660,8660,8660,8660,8660,8660,8660,8660,8660,8660,8660,8660,8660,8660,8660,8660,8660,8660,8660,8660,8660,8660,8660,8660,8660,8660,8660,8660,8660,8660,8660,8660,8660,8660,8660,8660,8660,8660,8660,8660,8660,8660,8660,8660,8660,8660,8660,8660,8660,8660,8660,8660,8660,8660,8660,8660,8660,8660,8660,8660,8660,8660,8660,8660,8660,8660,8660,8660,8660,8660,8660,8660,8660,8660,8660,8660,8660,8660,8660,8660,8660,8660,8660,8660,8660,8660,8660,8660,8660,8660,8660,8660,8660,8660,8660,8660,8660,8660,8660,8660,8660,8660,8660,8660,8660,8660,8660,8660,8660,8660,8660,8660,8660,8660,8660,8660,8660,8660,8660,8660,8660,
8660,8660,8660,8660,8660,8660,8660,8660,8660,8660,8660,8660,8660,8660,8660,8660,8660,8660,8660,8660,8660,8660,8660,8660,8660,8660,8660,8660,8660,8660,8660,8660,8660,8660,8660,8660,8660,8660,8660,8660,8660,8660,8660,8660,8660,8660,8660,8660,8660,8660,8660,8660,8660,8660,8660,8660,8660,8660,8660,8660,8660,8660,8660,8660,8660,8660,8660,8660,8660,8660,8660,8660,8660,8660,8660,8660,8660,8660,8660,8660,8660,8660,8660,8660,8660,8660,8660,8660,8660,8660,8660,8660,8660,8660,8660,8660,8660,8660,8660,8660,8660,8660,8660,8660,8660,8660,8660,8660,8660,8660,8660,8660,8660,8660,8660,8660,8660,8660,8660,8660,8660,8660,8660,8660,8660,8660,8660,8660,8660,8660,8660,8660,8660,8660,8660,8660,8660,8660,8660,8660,8660,8660,8660,8660,8660,8660,8660,8660,8660,8660,8660,8660,8660,8660,8660,8660,8660,8660,8660,8660,8660,8660,8660,8660,8660,8660,8660,8660,8660,8660,8660,8660,8660,8660,8660,8660,8660,8660,8660,8660,8660,8660,8660,8660,8660,8660,8660,8660,8660,8660,8660,8660,8660,8660,8660,8660,8660,8660,8660,8660,8660,8660,8660,8660,8660,8660,8660,8660,8660,8660,8660,8660,8660,8660,8660,8660,8660,8660,8660,8660,8660,8660,8660,8660,8660,8660,8660,8660,8660,8660,8660,8660,8660,8660,8660,8660,8660,8660,8660,8660,8660,8660,8660,8660,8660,8660,8660,8660,8660,8660,
8660,8660,8660,8660,8660,8660,8660,8660,8660,8660,8660,8660,8660,8660,8660,8660,8660,8660,8660,8660,8660,8660,8660,8660,8660,8660,8660,8660,8660,8660,8660,8660,8660,8660,8660,8660,8660,8660,8660,8660,8660,8660,8660,8660,8660,8660,8660,8660,8660,8660,8660,8660,8660,8660,8660,8660,8660,8660,8660,8660,8660,8660,8660,8660,8660,8660,8660,8660,8660,8660,8660,8660,8660,8660,8660,8660,8660,8660,8660,8660,8660,8660,8660,8660,8660,8660,8660,8660,8660,8660,8660,8660,8660,8660,8660,8660,8660,8660,8660,8660,8660,8660,8660,8660,8660,8660,8660,8660,8660,8660,8660,8660,8660,8660,8660,8660,8660,8660,8660,8660,8660,8660,8660,8660,8660,8660,8660,8660,8660,8660,8660,8660,8660,8660,8660,8660,8660,8660,8660,8660,8660,8660,8660,8660,8660,8660,8660,8660,8660,8660,8660,8660,8660,8660,8660,8660,8660,8660,8660,8660,8660,8660,8660,8660,8660,8660,8660,8660,8660,8660,8660,8660,8660,8660,8660,8660,8660,8660,8660,8660,8660,8660,8660,8660,8660,8660,8660,8660,8660,8660,8660,8660,8660,8660,8660,8660,8660,8660,8660,8660,8660,8660,8660,8660,8660,8660,8660,8660,8660,8660,8660,8660,8660,8660,8660,8660,8660,8660,8660,8660,8660,8660,8660,8660,8660,8660,8660,8660,8660,8660,8660,8660,8660,8660,8660,8660,8660,8660,8660,8660,8660,8660,8660,8660,8660,8660,8660,8660,8660,8660,
8660,8660,8660,8660,8660,8660,8660,8660,8660,8660,8660,8660,8660,8660,8660,8660,8660,8660,8660,8660,8660,8660,8660,8660,8660,8660,8660,8660,8660,8660,8660,8660,8660,8660,8660,8660,8660,8660,8660,8660,8660,8660,8660,8660,8660,8660,8660,8660,8660,8660,8660,8660,8660,8660,8660,8660,8660,8660,8660,8660,8660,8660,8660,8660,8660,8660,8660,8660,8660,8660,8660,8660,8660,8660,8660,8660,8660,8660,8660,8660,8660,8660,8660,8660,8660,8660,8660,8660,8660,8660,8660,8660,8660,8660,8660,8660,8660,8660,8660,8660,8660,8660,8660,8660,8660,8660,8660,8660,8660,8660,8660,8660,8660,8660,8660,8660,8660,8660,8660,8660,8660,8660,8660,8660,8660,8660,8660,8660,8660,8660,8660,8660,8660,8660,8660,8660,8660,8660,8660,8660,8660,8660,8660,8660,8660,8660,8660,8660,8660,8660,8660,8660,8660,8660,8660,8660,8660,8660,8660,8660,8660,8660,8660,8660,8660,8660,8660,8660,8660,8660,8660,8660,8660,8660,8660,8660,8660,8660,8660,8660,8660,8660,8660,8660,8660,8660,8660,8660,8660,8660,8660,8660,8660,8660,8660,8660,8660,8660,8660,8660,8660,8660,8660,8660,8660,8660,8660,8660,8660,8660,8660,8660,8660,8660,8660,8660,8660,8660,8660,8660,8660,8660,8660,8660,8660,8660,8660,8660,8660,8660,8660,8660,8660,8660,8660,8660,8660,8660,8660,8660,8660,8660,8660,8660,8660,8660,8660,8660,8660,8660,
8660,8660,8660,8660,8660,8660,8660,8660,8660,8660,8660,8660,8660,8660,8660,8660,8660,8660,8660,8660,8660,8660,8660,8660,8660,8660,8660,8660,8660,8660,8660,8660,8660,8660,8660,8660,8660,8660,8660,8660,8660,8660,8660,8660,8660,8660,8660,8660,8660,8660,8660,8660,8660,8660,8660,8660,8660,8660,8660,8660,8660,8660,8660,8660,8660,8660,8660,8660,8660,8660,8660,8660,8660,8660,8660,8660,8660,8660,8660,8660,8660,8660,8660,8660,8660,8660,8660,8660,8660,8660,8660,8660,8660,8660,8660,8660,8660,8660,8660,8660,8660,8660,8660,8660,8660,8660,8660,8660,8660,8660,8660,8660,8660,8660,8660,8660,8660,8660,8660,8660,8660,8660,8660,8660,8660,8660,8660,8660,8660,8660,8660,8660,8660,8660,8660,8660,8660,8660,8660,8660,8660,8660,8660,8660,8660,8660,8660,8660,8660,8660,8660,8660,8660,8660,8660,8660,8660,8660,8660,8660,8660,8660,8660,8660,8660,8660,8660,8660,8660,8660,8660,8660,8660,8660,8660,8660,8660,8660,8660,8660,8660,8660,8660,8660,8660,8660,8660,8660,8660,8660,8660,8660,8660,8660,8660,8660,8660,8660,8660,8660,8660,8660,8660,8660,8660,8660,8660,8660,8660,8660,8660,8660,8660,8660,8660,8660,8660,8660,8660,8660,8660,8660,8660,8660,8660,8660,8660,8660,8660,8660,8660,8660,8660,8660,8660,8660,8660,8660,8660,8660,8660,8660,8660,8660,8660,8660,8660,8660,8660,8660,
8660,8660,8660,8660,8660,8660,8660,8660,8660,8660,8660,8660,8660,8660,8660,8660,8660,8660,8660,8660,8660,8660,8660,8660,8660,8660,8660,8660,8660,8660,8660,8660,8660,8660,8660,8660,8660,8660,8660,8660,8660,8660,8660,8660,8660,8660,8660,8660,8660,8660,8660,8660,8660,8660,8660,8660,8660,8660,8660,8660,8660,8660,8660,8660,8660,8660,8660,8660,8660,8660,8660,8660,8660,8660,8660,8660,8660,8660,8660,8660,8660,8660,8660,8660,8660,8660,8660,8660,8660,8660,8660,8660,8660,8660,8660,8660,8660,8660,8660,8660,8660,8660,8660,8660,8660,8660,8660,8660,8660,8660,8660,8660,8660,8660,8660,8660,8660,8660,8660,8660,8660,8660,8660,8660,8660,8660,8660,8660,8660,8660,8660,8660,8660,8660,8660,8660,8660,8660,8660,8660,8660,8660,8660,8660,8660,8660,8660,8660,8660,8660,8660,8660,8660,8660,8660,8660,8660,8660,8660,8660,8660,8660,8660,8660,8660,8660,8660,8660,8660,8660,8660,8660,8660,8660,8660,8660,8660,8660,8660,8660,8660,8660,8660,8660,8660,8660,8660,8660,8660,8660,8660,8660,8660,8660,8660,8660,8660,8660,8660,8660,8660,8660,8660,8660,8660,8660,8660,8660,8660,8660,8660,8660,8660,8660,8660,8660,8660,8660,8660,8660,8660,8660,8660,8660,8660,8660,8660,8660,8660,8660,8660,8660,8660,8660,8660,8660,8660,8660,8660,8660,8660,8660,8660,8660,8660,8660,8660,8660,8660,8660,
8660,8660,8660,8660,8660,8660,8660,8660,8660,8660,8660,8660,8660,8660,8660,8660,8660,8660,8660,8660,8660,8660,8660,8660,8660,8660,8660,8660,8660,8660,8660,8660,8660,8660,8660,8660,8660,8660,8660,8660,8660,8660,8660,8660,8660,8660,8660,8660,8660,8660,8660,8660,8660,8660,8660,8660,8660,8660,8660,8660,8660,8660,8660,8660,8660,8660,8660,8660,8660,8660,8660,8660,8660,8660,8660,8660,8660,8660,8660,8660,8660,8660,8660,8660,8660,8660,8660,8660,8660,8660,8660,8660,8660,8660,8660,8660,8660,8660,8660,8660,8660,8660,8660,8660,8660,8660,8660,8660,8660,8660,8660,8660,8660,8660,8660,8660,8660,8660,8660,8660,8660,8660,8660,8660,8660,8660,8660,8660,8660,8660,8660,8660,8660,8660,8660,8660,8660,8660,8660,8660,8660,8660,8660,8660,8660,8660,8660,8660,8660,8660,8660,8660,8660,8660,8660,8660,8660,8660,8660,8660,8660,8660,8660,8660,8660,8660,8660,8660,8660,8660,8660,8660,8660,8660,8660,8660,8660,8660,8660,8660,8660,8660,8660,8660,8660,8660,8660,8660,8660,8660,8660,8660,8660,8660,8660,8660,8660,8660,8660,8660,8660,8660,8660,8660,8660,8660,8660,8660,8660,8660,8660,8660,8660,8660,8660,8660,8660,8660,8660,8660,8660,8660,8660,8660,8660,8660,8660,8660,8660,8660,8660,8660,8660,8660,8660,8660,8660,8660,8660,8660,8660,8660,8660,8660,8660,8660,8660,8660,8660,8660,
8660,8660,8660,8660,8660,8660,8660,8660,8660,8660,8660,8660,8660,8660,8660,8660,8660,8660,8660,8660,8660,8660,8660,8660,8660,8660,8660,8660,8660,8660,8660,8660,8660,8660,8660,8660,8660,8660,8660,8660,8660,8660,8660,8660,8660,8660,8660,8660,8660,8660,8660,8660,8660,8660,8660,8660,8660,8660,8660,8660,8660,8660,8660,8660,8660,8660,8660,8660,8660,8660,8660,8660,8660,8660,8660,8660,8660,8660,8660,8660,8660,8660,8660,8660,8660,8660,8660,8660,8660,8660,8660,8660,8660,8660,8660,8660,8660,8660,8660,8660,8660,8660,8660,8660,8660,8660,8660,8660,8660,8660,8660,8660,8660,8660,8660,8660,8660,8660,8660,8660,8660,8660,8660,8660,8660,8660,8660,8660,8660,8660,8660,8660,8660,8660,8660,8660,8660,8660,8660,8660,8660,8660,8660,8660,8660,8660,8660,8660,8660,8660,8660,8660,8660,8660,8660,8660,8660,8660,8660,8660,8660,8660,8660,8660,8660,8660,8660,8660,8660,8660,8660,8660,8660,8660,8660,8660,8660,8660,8660,8660,8660,8660,8660,8660,8660,8660,8660,8660,8660,8660,8660,8660,8660,8660,8660,8660,8660,8660,8660,8660,8660,8660,8660,8660,8660,8660,8660,8660,8660,8660,8660,8660,8660,8660,8660,8660,8660,8660,8660,8660,8660,8660,8660,8660,8660,8660,8660,8660,8660,8660,8660,8660,8660,8660,8660,8660,8660,8660,8660,8660,8660,8660,8660,8660,8660,8660,8660,8660,8660,8660,
8660,8660,8660,8660,8660,8660,8660,8660,8660,8660,8660,8660,8660,8660,8660,8660,8660,8660,8660,8660,8660,8660,8660,8660,8660,8660,8660,8660,8660,8660,8660,8660,8660,8660,8660,8660,8660,8660,8660,8660,8660,8660,8660,8660,8660,8660,8660,8660,8660,8660,8660,8660,8660,8660,8660,8660,8660,8660,8660,8660,8660,8660,8660,8660,8660,8660,8660,8660,8660,8660,8660,8660,8660,8660,8660,8660,8660,8660,8660,8660,8660,8660,8660,8660,8660,8660,8660,8660,8660,8660,8660,8660,8660,8660,8660,8660,8660,8660,8660,8660,8660,8660,8660,8660,8660,8660,8660,8660,8660,8660,8660,8660,8660,8660,8660,8660,8660,8660,8660,8660,8660,8660,8660,8660,8660,8660,8660,8660,8660,8660,8660,8660,8660,8660,8660,8660,8660,8660,8660,8660,8660,8660,8660,8660,8660,8660,8660,8660,8660,8660,8660,8660,8660,8660,8660,8660,8660,8660,8660,8660,8660,8660,8660,8660,8660,8660,8660,8660,8660,8660,8660,8660,8660,8660,8660,8660,8660,8660,8660,8660,8660,8660,8660,8660,8660,8660,8660,8660,8660,8660,8660,8660,8660,8660,8660,8660,8660,8660,8660,8660,8660,8660,8660,8660,8660,8660,8660,8660,8660,8660,8660,8660,8660,8660,8660,8660,8660,8660,8660,8660,8660,8660,8660,8660,8660,8660,8660,8660,8660,8660,8660,8660,8660,8660,8660,8660,8660,8660,8660,8660,8660,8660,8660,8660,8660,8660,8660,8660,8660,8660,
8660,8660,8660,8660,8660,8660,8660,8660,8660,8660,8660,8660,8660,8660,8660,8660,8660,8660,8660,8660,8660,8660,8660,8660,8660,8660,8660,8660,8660,8660,8660,8660,8660,8660,8660,8660,8660,8660,8660,8660,8660,8660,8660,8660,8660,8660,8660,8660,8660,8660,8660,8660,8660,8660,8660,8660,8660,8660,8660,8660,8660,8660,8660,8660,8660,8660,8660,8660,8660,8660,8660,8660,8660,8660,8660,8660,8660,8660,8660,8660,8660,8660,8660,8660,8660,8660,8660,8660,8660,8660,8660,8660,8660,8660,8660,8660,8660,8660,8660,8660,8660,8660,8660,8660,8660,8660,8660,8660,8660,8660,8660,8660,8660,8660,8660,8660,8660,8660,8660,8660,8660,8660,8660,8660,8660,8660,8660,8660,8660,8660,8660,8660,8660,8660,8660,8660,8660,8660,8660,8660,8660,8660,8660,8660,8660,8660,8660,8660,8660,8660,8660,8660,8660,8660,8660,8660,8660,8660,8660,8660,8660,8660,8660,8660,8660,8660,8660,8660,8660,8660,8660,8660,8660,8660,8660,8660,8660,8660,8660,8660,8660,8660,8660,8660,8660,8660,8660,8660,8660,8660,8660,8660,8660,8660,8660,8660,8660,8660,8660,8660,8660,8660,8660,8660,8660,8660,8660,8660,8660,8660,8660,8660,8660,8660,8660,8660,8660,8660,8660,8660,8660,8660,8660,8660,8660,8660,8660,8660,8660,8660,8660,8660,8660,8660,8660,8660,8660,8660,8660,8660,8660,8660,8660,8660,8660,8660,8660,8660,8660,8660,
8660,8660,8660,8660,8660,8660,8660,8660,8660,8660,8660,8660,8660,8660,8660,8660,8660,8660,8660,8660,8660,8660,8660,8660,8660,8660,8660,8660,8660,8660,8660,8660,8660,8660,8660,8660,8660,8660,8660,8660,8660,8660,8660,8660,8660,8660,8660,8660,8660,8660,8660,8660,8660,8660,8660,8660,8660,8660,8660,8660,8660,8660,8660,8660,8660,8660,8660,8660,8660,8660,8660,8660,8660,8660,8660,8660,8660,8660,8660,8660,8660,8660,8660,8660,8660,8660,8660,8660,8660,8660,8660,8660,8660,8660,8660,8660,8660,8660,8660,8660,8660,8660,8660,8660,8660,8660,8660,8660,8660,8660,8660,8660,8660,8660,8660,8660,8660,8660,8660,8660,8660,8660,8660,8660,8660,8660,8660,8660,8660,8660,8660,8660,8660,8660,8660,8660,8660,8660,8660,8660,8660,8660,8660,8660,8660,8660,8660,8660,8660,8660,8660,8660,8660,8660,8660,8660,8660,8660,8660,8660,8660,8660,8660,8660,8660,8660,8660,8660,8660,8660,8660,8660,8660,8660,8660,8660,8660,8660,8660,8660,8660,8660,8660,8660,8660,8660,8660,8660,8660,8660,8660,8660,8660,8660,8660,8660,8660,8660,8660,8660,8660,8660,8660,8660,8660,8660,8660,8660,8660,8660,8660,8660,8660,8660,8660,8660,8660,8660,8660,8660,8660,8660,8660,8660,8660,8660,8660,8660,8660,8660,8660,8660,8660,8660,8660,8660,8660,8660,8660,8660,8660,8660,8660,8660,8660,8660,8660,8660,8660,8660,
8660,8660,8660,8660,8660,8660,8660,8660,8660,8660,8660,8660,8660,8660,8660,8660,8660,8660,8660,8660,8660,8660,8660,8660,8660,8660,8660,8660,8660,8660,8660,8660,8660,8660,8660,8660,8660,8660,8660,8660,8660,8660,8660,8660,8660,8660,8660,8660,8660,8660,8660,8660,8660,8660,8660,8660,8660,8660,8660,8660,8660,8660,8660,8660,8660,8660,8660,8660,8660,8660,8660,8660,8660,8660,8660,8660,8660,8660,8660,8660,8660,8660,8660,8660,8660,8660,8660,8660,8660,8660,8660,8660,8660,8660,8660,8660,8660,8660,8660,8660,8660,8660,8660,8660,8660,8660,8660,8660,8660,8660,8660,8660,8660,8660,8660,8660,8660,8660,8660,8660,8660,8660,8660,8660,8660,8660,8660,8660,8660,8660,8660,8660,8660,8660,8660,8660,8660,8660,8660,8660,8660,8660,8660,8660,8660,8660,8660,8660,8660,8660,8660,8660,8660,8660,8660,8660,8660,8660,8660,8660,8660,8660,8660,8660,8660,8660,8660,8660,8660,8660,8660,8660,8660,8660,8660,8660,8660,8660,8660,8660,8660,8660,8660,8660,8660,8660,8660,8660,8660,8660,8660,8660,8660,8660,8660,8660,8660,8660,8660,8660,8660,8660,8660,8660,8660,8660,8660,8660,8660,8660,8660,8660,8660,8660,8660,8660,8660,8660,8660,8660,8660,8660,8660,8660,8660,8660,8660,8660,8660,8660,8660,8660,8660,8660,8660,8660,8660,8660,8660,8660,8660,8660,8660,8660,8660,8660,8660,8660,8660,8660,
8660,8660,8660,8660,8660,8660,8660,8660,8660,8660,8660,8660,8660,8660,8660,8660,8660,8660,8660,8660,8660,8660,8660,8660,8660,8660,8660,8660,8660,8660,8660,8660,8660,8660,8660,8660,8660,8660,8660,8660,8660,8660,8660,8660,8660,8660,8660,8660,8660,8660,8660,8660,8660,8660,8660,8660,8660,8660,8660,8660,8660,8660,8660,8660,8660,8660,8660,8660,8660,8660,8660,8660,8660,8660,8660,8660,8660,8660,8660,8660,8660,8660,8660,8660,8660,8660,8660,8660,8660,8660,8660,8660,8660,8660,8660,8660,8660,8660,8660,8660,8660,8660,8660,8660,8660,8660,8660,8660,8660,8660,8660,8660,8660,8660,8660,8660,8660,8660,8660,8660,8660,8660,8660,8660,8660,8660,8660,8660,8660,8660,8660,8660,8660,8660,8660,8660,8660,8660,8660,8660,8660,8660,8660,8660,8660,8660,8660,8660,8660,8660,8660,8660,8660,8660,8660,8660,8660,8660,8660,8660,8660,8660,8660,8660,8660,8660,8660,8660,8660,8660,8660,8660,8660,8660,8660,8660,8660,8660,8660,8660,8660,8660,8660,8660,8660,8660,8660,8660,8660,8660,8660,8660,8660,8660,8660,8660,8660,8660,8660,8660,8660,8660,8660,8660,8660,8660,8660,8660,8660,8660,8660,8660,8660,8660,8660,8660,8660,8660,8660,8660,8660,8660,8660,8660,8660,8660,8660,8660,8660,8660,8660,8660,8660,8660,8660,8660,8660,8660,8660,8660,8660,8660,8660,8660,8660,8660,8660,8660,8660,8660,
8660,8660,8660,8660,8660,8660,8660,8660,8660,8660,8660,8660,8660,8660,8660,8660,8660,8660,8660,8660,8660,8660,8660,8660,8660,8660,8660,8660,8660,8660,8660,8660,8660,8660,8660,8660,8660,8660,8660,8660,8660,8660,8660,8660,8660,8660,8660,8660,8660,8660,8660,8660,8660,8660,8660,8660,8660,8660,8660,8660,8660,8660,8660,8660,8660,8660,8660,8660,8660,8660,8660,8660,8660,8660,8660,8660,8660,8660,8660,8660,8660,8660,8660,8660,8660,8660,8660,8660,8660,8660,8660,8660,8660,8660,8660,8660,8660,8660,8660,8660,8660,8660,8660,8660,8660,8660,8660,8660,8660,8660,8660,8660,8660,8660,8660,8660,8660,8660,8660,8660,8660,8660,8660,8660,8660,8660,8660,8660,8660,8660,8660,8660,8660,8660,8660,8660,8660,8660,8660,8660,8660,8660,8660,8660,8660,8660,8660,8660,8660,8660,8660,8660,8660,8660,8660,8660,8660,8660,8660,8660,8660,8660,8660,8660,8660,8660,8660,8660,8660,8660,8660,8660,8660,8660,8660,8660,8660,8660,8660,8660,8660,8660,8660,8660,8660,8660,8660,8660,8660,8660,8660,8660,8660,8660,8660,8660,8660,8660,8660,8660,8660,8660,8660,8660,8660,8660,8660,8660,8660,8660,8660,8660,8660,8660,8660,8660,8660,8660,8660,8660,8660,8660,8660,8660,8660,8660,8660,8660,8660,8660,8660,8660,8660,8660,8660,8660,8660,8660,8660,8660,8660,8660,8660,8660,8660,8660,8660,8660,8660,8660,
8660,8660,8660,8660,8660,8660,8660,8660,8660,8660,8660,8660,8660,8660,8660,8660,8660,8660,8660,8660,8660,8660,8660,8660,8660,8660,8660,8660,8660,8660,8660,8660,8660,8660,8660,8660,8660,8660,8660,8660,8660,8660,8660,8660,8660,8660,8660,8660,8660,8660,8660,8660,8660,8660,8660,8660,8660,8660,8660,8660,8660,8660,8660,8660,8660,8660,8660,8660,8660,8660,8660,8660,8660,8660,8660,8660,8660,8660,8660,8660,8660,8660,8660,8660,8660,8660,8660,8660,8660,8660,8660,8660,8660,8660,8660,8660,8660,8660,8660,8660,8660,8660,8660,8660,8660,8660,8660,8660,8660,8660,8660,8660,8660,8660,8660,8660,8660,8660,8660,8660,8660,8660,8660,8660,8660,8660,8660,8660,8660,8660,8660,8660,8660,8660,8660,8660,8660,8660,8660,8660,8660,8660,8660,8660,8660,8660,8660,8660,8660,8660,8660,8660,8660,8660,8660,8660,8660,8660,8660,8660,8660,8660,8660,8660,8660,8660,8660,8660,8660,8660,8660,8660,8660,8660,8660,8660,8660,8660,8660,8660,8660,8660,8660,8660,8660,8660,8660,8660,8660,8660,8660,8660,8660,8660,8660,8660,8660,8660,8660,8660,8660,8660,8660,8660,8660,8660,8660,8660,8660,8660,8660,8660,8660,8660,8660,8660,8660,8660,8660,8660,8660,8660,8660,8660,8660,8660,8660,8660,8660,8660,8660,8660,8660,8660,8660,8660,8660,8660,8660,8660,8660,8660,8660,8660,8660,8660,8660,8660,8660,8660,
8660,8660,8660,8660,8660,8660,8660,8660,8660,8660,8660,8660,8660,8660,8660,8660,8660,8660,8660,8660,8660,8660,8660,8660,8660,8660,8660,8660,8660,8660,8660,8660,8660,8660,8660,8660,8660,8660,8660,8660,8660,8660,8660,8660,8660,8660,8660,8660,8660,8660,8660,8660,8660,8660,8660,8660,8660,8660,8660,8660,8660,8660,8660,8660,8660,8660,8660,8660,8660,8660,8660,8660,8660,8660,8660,8660,8660,8660,8660,8660,8660,8660,8660,8660,8660,8660,8660,8660,8660,8660,8660,8660,8660,8660,8660,8660,8660,8660,8660,8660,8660,8660,8660,8660,8660,8660,8660,8660,8660,8660,8660,8660,8660,8660,8660,8660,8660,8660,8660,8660,8660,8660,8660,8660,8660,8660,8660,8660,8660,8660,8660,8660,8660,8660,8660,8660,8660,8660,8660,8660,8660,8660,8660,8660,8660,8660,8660,8660,8660,8660,8660,8660,8660,8660,8660,8660,8660,8660,8660,8660,8660,8660,8660,8660,8660,8660,8660,8660,8660,8660,8660,8660,8660,8660,8660,8660,8660,8660,8660,8660,8660,8660,8660,8660,8660,8660,8660,8660,8660,8660,8660,8660,8660,8660,8660,8660,8660,8660,8660,8660,8660,8660,8660,8660,8660,8660,8660,8660,8660,8660,8660,8660,8660,8660,8660,8660,8660,8660,8660,8660,8660,8660,8660,8660,8660,8660,8660,8660,8660,8660,8660,8660,8660,8660,8660,8660,8660,8660,8660,8660,8660,8660,8660,8660,8660,8660,8660,8660,8660,8660,
8660,8660,8660,8660,8660,8660,8660,8660,8660,8660,8660,8660,8660,8660,8660,8660,8660,8660,8660,8660,8660,8660,8660,8660,8660,8660,8660,8660,8660,8660,8660,8660,8660,8660,8660,8660,8660,8660,8660,8660,8660,8660,8660,8660,8660,8660,8660,8660,8660,8660,8660,8660,8660,8660,8660,8660,8660,8660,8660,8660,8660,8660,8660,8660,8660,8660,8660,8660,8660,8660,8660,8660,8660,8660,8660,8660,8660,8660,8660,8660,8660,8660,8660,8660,8660,8660,8660,8660,8660,8660,8660,8660,8660,8660,8660,8660,8660,8660,8660,8660,8660,8660,8660,8660,8660,8660,8660,8660,8660,8660,8660,8660,8660,8660,8660,8660,8660,8660,8660,8660,8660,8660,8660,8660,8660,8660,8660,8660,8660,8660,8660,8660,8660,8660,8660,8660,8660,8660,8660,8660,8660,8660,8660,8660,8660,8660,8660,8660,8660,8660,8660,8660,8660,8660,8660,8660,8660,8660,8660,8660,8660,8660,8660,8660,8660,8660,8660,8660,8660,8660,8660,8660,8660,8660,8660,8660,8660,8660,8660,8660,8660,8660,8660,8660,8660,8660,8660,8660,8660,8660,8660,8660,8660,8660,8660,8660,8660,8660,8660,8660,8660,8660,8660,8660,8660,8660,8660,8660,8660,8660,8660,8660,8660,8660,8660,8660,8660,8660,8660,8660,8660,8660,8660,8660,8660,8660,8660,8660,8660,8660,8660,8660,8660,8660,8660,8660,8660,8660,8660,8660,8660,8660,8660,8660,8660,8660,8660,8660,8660,8660,
8660,8660,8660,8660,8660,8660,8660,8660,8660,8660,8660,8660,8660,8660,8660,8660,8660,8660,8660,8660,8660,8660,8660,8660,8660,8660,8660,8660,8660,8660,8660,8660,8660,8660,8660,8660,8660,8660,8660,8660,8660,8660,8660,8660,8660,8660,8660,8660,8660,8660,8660,8660,8660,8660,8660,8660,8660,8660,8660,8660,8660,8660,8660,8660,8660,8660,8660,8660,8660,8660,8660,8660,8660,8660,8660,8660,8660,8660,8660,8660,8660,8660,8660,8660,8660,8660,8660,8660,8660,8660,8660,8660,8660,8660,8660,8660,8660,8660,8660,8660,8660,8660,8660,8660,8660,8660,8660,8660,8660,8660,8660,8660,8660,8660,8660,8660,8660,8660,8660,8660,8660,8660,8660,8660,8660,8660,8660,8660,8660,8660,8660,8660,8660,8660,8660,8660,8660,8660,8660,8660,8660,8660,8660,8660,8660,8660,8660,8660,8660,8660,8660,8660,8660,8660,8660,8660,8660,8660,8660,8660,8660,8660,8660,8660,8660,8660,8660,8660,8660,8660,8660,8660,8660,8660,8660,8660,8660,8660,8660,8660,8660,8660,8660,8660,8660,8660,8660,8660,8660,8660,8660,8660,8660,8660,8660,8660,8660,8660,8660,8660,8660,8660,8660,8660,8660,8660,8660,8660,8660,8660,8660,8660,8660,8660,8660,8660,8660,8660,8660,8660,8660,8660,8660,8660,8660,8660,8660,8660,8660,8660,8660,8660,8660,8660,8660,8660,8660,8660,8660,8660,8660,8660,8660,8660,8660,8660,8660,8660,8660,8660,
8660,8660,8660,8660,8660,8660,8660,8660,8660,8660,8660,8660,8660,8660,8660,8660,8660,8660,8660,8660,8660,8660,8660,8660,8660,8660,8660,8660,8660,8660,8660,8660,8660,8660,8660,8660,8660,8660,8660,8660,8660,8660,8660,8660,8660,8660,8660,8660,8660,8660,8660,8660,8660,8660,8660,8660,8660,8660,8660,8660,8660,8660,8660,8660,8660,8660,8660,8660,8660,8660,8660,8660,8660,8660,8660,8660,8660,8660,8660,8660,8660,8660,8660,8660,8660,8660,8660,8660,8660,8660,8660,8660,8660,8660,8660,8660,8660,8660,8660,8660,8660,8660,8660,8660,8660,8660,8660,8660,8660,8660,8660,8660,8660,8660,8660,8660,8660,8660,8660,8660,8660,8660,8660,8660,8660,8660,8660,8660,8660,8660,8660,8660,8660,8660,8660,8660,8660,8660,8660,8660,8660,8660,8660,8660,8660,8660,8660,8660,8660,8660,8660,8660,8660,8660,8660,8660,8660,8660,8660,8660,8660,8660,8660,8660,8660,8660,8660,8660,8660,8660,8660,8660,8660,8660,8660,8660,8660,8660,8660,8660,8660,8660,8660,8660,8660,8660,8660,8660,8660,8660,8660,8660,8660,8660,8660,8660,8660,8660,8660,8660,8660,8660,8660,8660,8660,8660,8660,8660,8660,8660,8660,8660,8660,8660,8660,8660,8660,8660,8660,8660,8660,8660,8660,8660,8660,8660,8660,8660,8660,8660,8660,8660,8660,8660,8660,8660,8660,8660,8660,8660,8660,8660,8660,8660,8660,8660,8660,8660,8660,8660,
8660,8660,8660,8660,8660,8660,8660,8660,8660,8660,8660,8660,8660,8660,8660,8660,8660,8660,8660,8660,8660,8660,8660,8660,8660,8660,8660,8660,8660,8660,8660,8660,8660,8660,8660,8660,8660,8660,8660,8660,8660,8660,8660,8660,8660,8660,8660,8660,8660,8660,8660,8660,8660,8660,8660,8660,8660,8660,8660,8660,8660,8660,8660,8660,8660,8660,8660,8660,8660,8660,8660,8660,8660,8660,8660,8660,8660,8660,8660,8660,8660,8660,8660,8660,8660,8660,8660,8660,8660,8660,8660,8660,8660,8660,8660,8660,8660,8660,8660,8660,8660,8660,8660,8660,8660,8660,8660,8660,8660,8660,8660,8660,8660,8660,8660,8660,8660,8660,8660,8660,8660,8660,8660,8660,8660,8660,8660,8660,8660,8660,8660,8660,8660,8660,8660,8660,8660,8660,8660,8660,8660,8660,8660,8660,8660,8660,8660,8660,8660,8660,8660,8660,8660,8660,8660,8660,8660,8660,8660,8660,8660,8660,8660,8660,8660,8660,8660,8660,8660,8660,8660,8660,8660,8660,8660,8660,8660,8660,8660,8660,8660,8660,8660,8660,8660,8660,8660,8660,8660,8660,8660,8660,8660,8660,8660,8660,8660,8660,8660,8660,8660,8660,8660,8660,8660,8660,8660,8660,8660,8660,8660,8660,8660,8660,8660,8660,8660,8660,8660,8660,8660,8660,8660,8660,8660,8660,8660,8660,8660,8660,8660,8660,8660,8660,8660,8660,8660,8660,8660,8660,8660,8660,8660,8660,8660,8660,8660,8660,8660,8660,
8660,8660,8660,8660,8660,8660,8660,8660,8660,8660,8660,8660,8660,8660,8660,8660,8660,8660,8660,8660,8660,8660,8660,8660,8660,8660,8660,8660,8660,8660,8660,8660,8660,8660,8660,8660,8660,8660,8660,8660,8660,8660,8660,8660,8660,8660,8660,8660,8660,8660,8660,8660,8660,8660,8660,8660,8660,8660,8660,8660,8660,8660,8660,8660,8660,8660,8660,8660,8660,8660,8660,8660,8660,8660,8660,8660,8660,8660,8660,8660,8660,8660,8660,8660,8660,8660,8660,8660,8660,8660,8660,8660,8660,8660,8660,8660,8660,8660,8660,8660,8660,8660,8660,8660,8660,8660,8660,8660,8660,8660,8660,8660,8660,8660,8660,8660,8660,8660,8660,8660,8660,8660,8660,8660,8660,8660,8660,8660,8660,8660,8660,8660,8660,8660,8660,8660,8660,8660,8660,8660,8660,8660,8660,8660,8660,8660,8660,8660,8660,8660,8660,8660,8660,8660,8660,8660,8660,8660,8660,8660,8660,8660,8660,8660,8660,8660,8660,8660,8660,8660,8660,8660,8660,8660,8660,8660,8660,8660,8660,8660,8660,8660,8660,8660,8660,8660,8660,8660,8660,8660,8660,8660,8660,8660,8660,8660,8660,8660,8660,8660,8660,8660,8660,8660,8660,8660,8660,8660,8660,8660,8660,8660,8660,8660,8660,8660,8660,8660,8660,8660,8660,8660,8660,8660,8660,8660,8660,8660,8660,8660,8660,8660,8660,8660,8660,8660,8660,8660,8660,8660,8660,8660,8660,8660,8660,8660,8660,8660,8660,8660,
8660,8660,8660,8660,8660,8660,8660,8660,8660,8660,8660,8660,8660,8660,8660,8660,8660,8660,8660,8660,8660,8660,8660,8660,8660,8660,8660,8660,8660,8660,8660,8660,8660,8660,8660,8660,8660,8660,8660,8660,8660,8660,8660,8660,8660,8660,8660,8660,8660,8660,8660,8660,8660,8660,8660,8660,8660,8660,8660,8660,8660,8660,8660,8660,8660,8660,8660,8660,8660,8660,8660,8660,8660,8660,8660,8660,8660,8660,8660,8660,8660,8660,8660,8660,8660,8660,8660,8660,8660,8660,8660,8660,8660,8660,8660,8660,8660,8660,8660,8660,8660,8660,8660,8660,8660,8660,8660,8660,8660,8660,8660,8660,8660,8660,8660,8660,8660,8660,8660,8660,8660,8660,8660,8660,8660,8660,8660,8660,8660,8660,8660,8660,8660,8660,8660,8660,8660,8660,8660,8660,8660,8660,8660,8660,8660,8660,8660,8660,8660,8660,8660,8660,8660,8660,8660,8660,8660,8660,8660,8660,8660,8660,8660,8660,8660,8660,8660,8660,8660,8660,8660,8660,8660,8660,8660,8660,8660,8660,8660,8660,8660,8660,8660,8660,8660,8660,8660,8660,8660,8660,8660,8660,8660,8660,8660,8660,8660,8660,8660,8660,8660,8660,8660,8660,8660,8660,8660,8660,8660,8660,8660,8660,8660,8660,8660,8660,8660,8660,8660,8660,8660,8660,8660,8660,8660,8660,8660,8660,8660,8660,8660,8660,8660,8660,8660,8660,8660,8660,8660,8660,8660,8660,8660,8660,8660,8660,8660,8660,8660,8660,
8660,8660,8660,8660,8660,8660,8660,8660,8660,8660,8660,8660,8660,8660,8660,8660,8660,8660,8660,8660,8660,8660,8660,8660,8660,8660,8660,8660,8660,8660,8660,8660,8660,8660,8660,8660,8660,8660,8660,8660,8660,8660,8660,8660,8660,8660,8660,8660,8660,8660,8660,8660,8660,8660,8660,8660,8660,8660,8660,8660,8660,8660,8660,8660,8660,8660,8660,8660,8660,8660,8660,8660,8660,8660,8660,8660,8660,8660,8660,8660,8660,8660,8660,8660,8660,8660,8660,8660,8660,8660,8660,8660,8660,8660,8660,8660,8660,8660,8660,8660,8660,8660,8660,8660,8660,8660,8660,8660,8660,8660,8660,8660,8660,8660,8660,8660,8660,8660,8660,8660,8660,8660,8660,8660,8660,8660,8660,8660,8660,8660,8660,8660,8660,8660,8660,8660,8660,8660,8660,8660,8660,8660,8660,8660,8660,8660,8660,8660,8660,8660,8660,8660,8660,8660,8660,8660,8660,8660,8660,8660,8660,8660,8660,8660,8660,8660,8660,8660,8660,8660,8660,8660,8660,8660,8660,8660,8660,8660,8660,8660,8660,8660,8660,8660,8660,8660,8660,8660,8660,8660,8660,8660,8660,8660,8660,8660,8660,8660,8660,8660,8660,8660,8660,8660,8660,8660,8660,8660,8660,8660,8660,8660,8660,8660,8660,8660,8660,8660,8660,8660,8660,8660,8660,8660,8660,8660,8660,8660,8660,8660,8660,8660,8660,8660,8660,8660,8660,8660,8660,8660,8660,8660,8660,8660,8660,8660,8660,8660,8660,8660,
8660,8660,8660,8660,8660,8660,8660,8660,8660,8660,8660,8660,8660,8660,8660,8660,8660,8660,8660,8660,8660,8660,8660,8660,8660,8660,8660,8660,8660,8660,8660,8660,8660,8660,8660,8660,8660,8660,8660,8660,8660,8660,8660,8660,8660,8660,8660,8660,8660,8660,8660,8660,8660,8660,8660,8660,8660,8660,8660,8660,8660,8660,8660,8660,8660,8660,8660,8660,8660,8660,8660,8660,8660,8660,8660,8660,8660,8660,8660,8660,8660,8660,8660,8660,8660,8660,8660,8660,8660,8660,8660,8660,8660,8660,8660,8660,8660,8660,8660,8660,8660,8660,8660,8660,8660,8660,8660,8660,8660,8660,8660,8660,8660,8660,8660,8660,8660,8660,8660,8660,8660,8660,8660,8660,8660,8660,8660,8660,8660,8660,8660,8660,8660,8660,8660,8660,8660,8660,8660,8660,8660,8660,8660,8660,8660,8660,8660,8660,8660,8660,8660,8660,8660,8660,8660,8660,8660,8660,8660,8660,8660,8660,8660,8660,8660,8660,8660,8660,8660,8660,8660,8660,8660,8660,8660,8660,8660,8660,8660,8660,8660,8660,8660,8660,8660,8660,8660,8660,8660,8660,8660,8660,8660,8660,8660,8660,8660,8660,8660,8660,8660,8660,8660,8660,8660,8660,8660,8660,8660,8660,8660,8660,8660,8660,8660,8660,8660,8660,8660,8660,8660,8660,8660,8660,8660,8660,8660,8660,8660,8660,8660,8660,8660,8660,8660,8660,8660,8660,8660,8660,8660,8660,8660,8660,8660,8660,8660,8660,8660,8660,
8660,8660,8660,8660,8660,8660,8660,8660,8660,8660,8660,8660,8660,8660,8660,8660,8660,8660,8660,8660,8660,8660,8660,8660,8660,8660,8660,8660,8660,8660,8660,8660,8660,8660,8660,8660,8660,8660,8660,8660,8660,8660,8660,8660,8660,8660,8660,8660,8660,8660,8660,8660,8660,8660,8660,8660,8660,8660,8660,8660,8660,8660,8660,8660,8660,8660,8660,8660,8660,8660,8660,8660,8660,8660,8660,8660,8660,8660,8660,8660,8660,8660,8660,8660,8660,8660,8660,8660,8660,8660,8660,8660,8660,8660,8660,8660,8660,8660,8660,8660,8660,8660,8660,8660,8660,8660,8660,8660,8660,8660,8660,8660,8660,8660,8660,8660,8660,8660,8660,8660,8660,8660,8660,8660,8660,8660,8660,8660,8660,8660,8660,8660,8660,8660,8660,8660,8660,8660,8660,8660,8660,8660,8660,8660,8660,8660,8660,8660,8660,8660,8660,8660,8660,8660,8660,8660,8660,8660,8660,8660,8660,8660,8660,8660,8660,8660,8660,8660,8660,8660,8660,8660,8660,8660,8660,8660,8660,8660,8660,8660,8660,8660,8660,8660,8660,8660,8660,8660,8660,8660,8660,8660,8660,8660,8660,8660,8660,8660,8660,8660,8660,8660,8660,8660,8660,8660,8660,8660,8660,8660,8660,8660,8660,8660,8660,8660,8660,8660,8660,8660,8660,8660,8660,8660,8660,8660,8660,8660,8660,8660,8660,8660,8660,8660,8660,8660,8660,8660,8660,8660,8660,8660,8660,8660,8660,8660,8660,8660,8660,8660,
8660,8660,8660,8660,8660,8660,8660,8660,8660,8660,8660,8660,8660,8660,8660,8660,8660,8660,8660,8660,8660,8660,8660,8660,8660,8660,8660,8660,8660,8660,8660,8660,8660,8660,8660,8660,8660,8660,8660,8660,8660,8660,8660,8660,8660,8660,8660,8660,8660,8660,8660,8660,8660,8660,8660,8660,8660,8660,8660,8660,8660,8660,8660,8660,8660,8660,8660,8660,8660,8660,8660,8660,8660,8660,8660,8660,8660,8660,8660,8660,8660,8660,8660,8660,8660,8660,8660,8660,8660,8660,8660,8660,8660,8660,8660,8660,8660,8660,8660,8660,8660,8660,8660,8660,8660,8660,8660,8660,8660,8660,8660,8660,8660,8660,8660,8660,8660,8660,8660,8660,8660,8660,8660,8660,8660,8660,8660,8660,8660,8660,8660,8660,8660,8660,8660,8660,8660,8660,8660,8660,8660,8660,8660,8660,8660,8660,8660,8660,8660,8660,8660,8660,8660,8660,8660,8660,8660,8660,8660,8660,8660,8660,8660,8660,8660,8660,8660,8660,8660,8660,8660,8660,8660,8660,8660,8660,8660,8660,8660,8660,8660,8660,8660,8660,8660,8660,8660,8660,8660,8660,8660,8660,8660,8660,8660,8660,8660,8660,8660,8660,8660,8660,8660,8660,8660,8660,8660,8660,8660,8660,8660,8660,8660,8660,8660,8660,8660,8660,8660,8660,8660,8660,8660,8660,8660,8660,8660,8660,8660,8660,8660,8660,8660,8660,8660,8660,8660,8660,8660,8660,8660,8660,8660,8660,8660,8660,8660,8660,8660,8660,
8660,8660,8660,8660,8660,8660,8660,8660,8660,8660,8660,8660,8660,8660,8660,8660,8660,8660,8660,8660,8660,8660,8660,8660,8660,8660,8660,8660,8660,8660,8660,8660,8660,8660,8660,8660,8660,8660,8660,8660,8660,8660,8660,8660,8660,8660,8660,8660,8660,8660,8660,8660,8660,8660,8660,8660,8660,8660,8660,8660,8660,8660,8660,8660,8660,8660,8660,8660,8660,8660,8660,8660,8660,8660,8660,8660,8660,8660,8660,8660,8660,8660,8660,8660,8660,8660,8660,8660,8660,8660,8660,8660,8660,8660,8660,8660,8660,8660,8660,8660,8660,8660,8660,8660,8660,8660,8660,8660,8660,8660,8660,8660,8660,8660,8660,8660,8660,8660,8660,8660,8660,8660,8660,8660,8660,8660,8660,8660,8660,8660,8660,8660,8660,8660,8660,8660,8660,8660,8660,8660,8660,8660,8660,8660,8660,8660,8660,8660,8660,8660,8660,8660,8660,8660,8660,8660,8660,8660,8660,8660,8660,8660,8660,8660,8660,8660,8660,8660,8660,8660,8660,8660,8660,8660,8660,8660,8660,8660,8660,8660,8660,8660,8660,8660,8660,8660,8660,8660,8660,8660,8660,8660,8660,8660,8660,8660,8660,8660,8660,8660,8660,8660,8660,8660,8660,8660,8660,8660,8660,8660,8660,8660,8660,8660,8660,8660,8660,8660,8660,8660,8660,8660,8660,8660,8660,8660,8660,8660,8660,8660,8660,8660,8660,8660,8660,8660,8660,8660,8660,8660,8660,8660,8660,8660,8660,8660,8660,8660,8660,8660,
8660,8660,8660,8660,8660,8660,8660,8660,8660,8660,8660,8660,8660,8660,8660,8660,8660,8660,8660,8660,8660,8660,8660,8660,8660,8660,8660,8660,8660,8660,8660,8660,8660,8660,8660,8660,8660,8660,8660,8660,8660,8660,8660,8660,8660,8660,8660,8660,8660,8660,8660,8660,8660,8660,8660,8660,8660,8660,8660,8660,8660,8660,8660,8660,8660,8660,8660,8660,8660,8660,8660,8660,8660,8660,8660,8660,8660,8660,8660,8660,8660,8660,8660,8660,8660,8660,8660,8660,8660,8660,8660,8660,8660,8660,8660,8660,8660,8660,8660,8660,8660,8660,8660,8660,8660,8660,8660,8660,8660,8660,8660,8660,8660,8660,8660,8660,8660,8660,8660,8660,8660,8660,8660,8660,8660,8660,8660,8660,8660,8660,8660,8660,8660,8660,8660,8660,8660,8660,8660,8660,8660,8660,8660,8660,8660,8660,8660,8660,8660,8660,8660,8660,8660,8660,8660,8660,8660,8660,8660,8660,8660,8660,8660,8660,8660,8660,8660,8660,8660,8660,8660,8660,8660,8660,8660,8660,8660,8660,8660,8660,8660,8660,8660,8660,8660,8660,8660,8660,8660,8660,8660,8660,8660,8660,8660,8660,8660,8660,8660,8660,8660,8660,8660,8660,8660,8660,8660,8660,8660,8660,8660,8660,8660,8660,8660,8660,8660,8660,8660,8660,8660,8660,8660,8660,8660,8660,8660,8660,8660,8660,8660,8660,8660,8660,8660,8660,8660,8660,8660,8660,8660,8660,8660,8660,8660,8660,8660,8660,8660,8660,
8660,8660,8660,8660,8660,8660,8660,8660,8660,8660,8660,8660,8660,8660,8660,8660,8660,8660,8660,8660,8660,8660,8660,8660,8660,8660,8660,8660,8660,8660,8660,8660,8660,8660,8660,8660,8660,8660,8660,8660,8660,8660,8660,8660,8660,8660,8660,8660,8660,8660,8660,8660,8660,8660,8660,8660,8660,8660,8660,8660,8660,8660,8660,8660,8660,8660,8660,8660,8660,8660,8660,8660,8660,8660,8660,8660,8660,8660,8660,8660,8660,8660,8660,8660,8660,8660,8660,8660,8660,8660,8660,8660,8660,8660,8660,8660,8660,8660,8660,8660,8660,8660,8660,8660,8660,8660,8660,8660,8660,8660,8660,8660,8660,8660,8660,8660,8660,8660,8660,8660,8660,8660,8660,8660,8660,8660,8660,8660,8660,8660,8660,8660,8660,8660,8660,8660,8660,8660,8660,8660,8660,8660,8660,8660,8660,8660,8660,8660,8660,8660,8660,8660,8660,8660,8660,8660,8660,8660,8660,8660,8660,8660,8660,8660,8660,8660,8660,8660,8660,8660,8660,8660,8660,8660,8660,8660,8660,8660,8660,8660,8660,8660,8660,8660,8660,8660,8660,8660,8660,8660,8660,8660,8660,8660,8660,8660,8660,8660,8660,8660,8660,8660,8660,8660,8660,8660,8660,8660,8660,8660,8660,8660,8660,8660,8660,8660,8660,8660,8660,8660,8660,8660,8660,8660,8660,8660,8660,8660,8660,8660,8660,8660,8660,8660,8660,8660,8660,8660,8660,8660,8660,8660,8660,8660,8660,8660,8660,8660,8660,8660,
8660,8660,8660,8660,8660,8660,8660,8660,8660,8660,8660,8660,8660,8660,8660,8660,8660,8660,8660,8660,8660,8660,8660,8660,8660,8660,8660,8660,8660,8660,8660,8660,8660,8660,8660,8660,8660,8660,8660,8660,8660,8660,8660,8660,8660,8660,8660,8660,8660,8660,8660,8660,8660,8660,8660,8660,8660,8660,8660,8660,8660,8660,8660,8660,8660,8660,8660,8660,8660,8660,8660,8660,8660,8660,8660,8660,8660,8660,8660,8660,8660,8660,8660,8660,8660,8660,8660,8660,8660,8660,8660,8660,8660,8660,8660,8660,8660,8660,8660,8660,8660,8660,8660,8660,8660,8660,8660,8660,8660,8660,8660,8660,8660,8660,8660,8660,8660,8660,8660,8660,8660,8660,8660,8660,8660,8660,8660,8660,8660,8660,8660,8660,8660,8660,8660,8660,8660,8660,8660,8660,8660,8660,8660,8660,8660,8660,8660,8660,8660,8660,8660,8660,8660,8660,8660,8660,8660,8660,8660,8660,8660,8660,8660,8660,8660,8660,8660,8660,8660,8660,8660,8660,8660,8660,8660,8660,8660,8660,8660,8660,8660,8660,8660,8660,8660,8660,8660,8660,8660,8660,8660,8660,8660,8660,8660,8660,8660,8660,8660,8660,8660,8660,8660,8660,8660,8660,8660,8660,8660,8660,8660,8660,8660,8660,8660,8660,8660,8660,8660,8660,8660,8660,8660,8660,8660,8660,8660,8660,8660,8660,8660,8660,8660,8660,8660,8660,8660,8660,8660,8660,8660,8660,8660,8660,8660,8660,8660,8660,8660,8660,
8660,8660,8660,8660,8660,8660,8660,8660,8660,8660,8660,8660,8660,8660,8660,8660,8660,8660,8660,8660,8660,8660,8660,8660,8660,8660,8660,8660,8660,8660,8660,8660,8660,8660,8660,8660,8660,8660,8660,8660,8660,8660,8660,8660,8660,8660,8660,8660,8660,8660,8660,8660,8660,8660,8660,8660,8660,8660,8660,8660,8660,8660,8660,8660,8660,8660,8660,8660,8660,8660,8660,8660,8660,8660,8660,8660,8660,8660,8660,8660,8660,8660,8660,8660,8660,8660,8660,8660,8660,8660,8660,8660,8660,8660,8660,8660,8660,8660,8660,8660,8660,8660,8660,8660,8660,8660,8660,8660,8660,8660,8660,8660,8660,8660,8660,8660,8660,8660,8660,8660,8660,8660,8660,8660,8660,8660,8660,8660,8660,8660,8660,8660,8660,8660,8660,8660,8660,8660,8660,8660,8660,8660,8660,8660,8660,8660,8660,8660,8660,8660,8660,8660,8660,8660,8660,8660,8660,8660,8660,8660,8660,8660,8660,8660,8660,8660,8660,8660,8660,8660,8660,8660,8660,8660,8660,8660,8660,8660,8660,8660,8660,8660,8660,8660,8660,8660,8660,8660,8660,8660,8660,8660,8660,8660,8660,8660,8660,8660,8660,8660,8660,8660,8660,8660,8660,8660,8660,8660,8660,8660,8660,8660,8660,8660,8660,8660,8660,8660,8660,8660,8660,8660,8660,8660,8660,8660,8660,8660,8660,8660,8660,8660,8660,8660,8660,8660,8660,8660,8660,8660,8660,8660,8660,8660,8660,8660,8660,8660,8660,8660,
8660,8660,8660,8660,8660,8660,8660,8660,8660,8660,8660,8660,8660,8660,8660,8660,8660,8660,8660,8660,8660,8660,8660,8660,8660,8660,8660,8660,8660,8660,8660,8660,8660,8660,8660,8660,8660,8660,8660,8660,8660,8660,8660,8660,8660,8660,8660,8660,8660,8660,8660,8660,8660,8660,8660,8660,8660,8660,8660,8660,8660,8660,8660,8660,8660,8660,8660,8660,8660,8660,8660,8660,8660,8660,8660,8660,8660,8660,8660,8660,8660,8660,8660,8660,8660,8660,8660,8660,8660,8660,8660,8660,8660,8660,8660,8660,8660,8660,8660,8660,8660,8660,8660,8660,8660,8660,8660,8660,8660,8660,8660,8660,8660,8660,8660,8660,8660,8660,8660,8660,8660,8660,8660,8660,8660,8660,8660,8660,8660,8660,8660,8660,8660,8660,8660,8660,8660,8660,8660,8660,8660,8660,8660,8660,8660,8660,8660,8660,8660,8660,8660,8660,8660,8660,8660,8660,8660,8660,8660,8660,8660,8660,8660,8660,8660,8660,8660,8660,8660,8660,8660,8660,8660,8660,8660,8660,8660,8660,8660,8660,8660,8660,8660,8660,8660,8660,8660,8660,8660,8660,8660,8660,8660,8660,8660,8660,8660,8660,8660,8660,8660,8660,8660,8660,8660,8660,8660,8660,8660,8660,8660,8660,8660,8660,8660,8660,8660,8660,8660,8660,8660,8660,8660,8660,8660,8660,8660,8660,8660,8660,8660,8660,8660,8660,8660,8660,8660,8660,8660,8660,8660,8660,8660,8660,8660,8660,8660,8660,8660,8660,
8660,8660,8660,8660,8660,8660,8660,8660,8660,8660,8660,8660,8660,8660,8660,8660,8660,8660,8660,8660,8660,8660,8660,8660,8660,8660,8660,8660,8660,8660,8660,8660,8660,8660,8660,8660,8660,8660,8660,8660,8660,8660,8660,8660,8660,8660,8660,8660,8660,8660,8660,8660,8660,8660,8660,8660,8660,8660,8660,8660,8660,8660,8660,8660,8660,8660,8660,8660,8660,8660,8660,8660,8660,8660,8660,8660,8660,8660,8660,8660,8660,8660,8660,8660,8660,8660,8660,8660,8660,8660,8660,8660,8660,8660,8660,8660,8660,8660,8660,8660,8660,8660,8660,8660,8660,8660,8660,8660,8660,8660,8660,8660,8660,8660,8660,8660,8660,8660,8660,8660,8660,8660,8660,8660,8660,8660,8660,8660,8660,8660,8660,8660,8660,8660,8660,8660,8660,8660,8660,8660,8660,8660,8660,8660,8660,8660,8660,8660,8660,8660,8660,8660,8660,8660,8660,8660,8660,8660,8660,8660,8660,8660,8660,8660,8660,8660,8660,8660,8660,8660,8660,8660,8660,8660,8660,8660,8660,8660,8660,8660,8660,8660,8660,8660,8660,8660,8660,8660,8660,8660,8660,8660,8660,8660,8660,8660,8660,8660,8660,8660,8660,8660,8660,8660,8660,8660,8660,8660,8660,8660,8660,8660,8660,8660,8660,8660,8660,8660,8660,8660,8660,8660,8660,8660,8660,8660,8660,8660,8660,8660,8660,8660,8660,8660,8660,8660,8660,8660,8660,8660,8660,8660,8660,8660,8660,8660,8660,8660,8660,8660,
8660,8660,8660,8660,8660,8660,8660,8660,8660,8660,8660,8660,8660,8660,8660,8660,8660,8660,8660,8660,8660,8660,8660,8660,8660,8660,8660,8660,8660,8660,8660,8660,8660,8660,8660,8660,8660,8660,8660,8660,8660,8660,8660,8660,8660,8660,8660,8660,8660,8660,8660,8660,8660,8660,8660,8660,8660,8660,8660,8660,8660,8660,8660,8660,8660,8660,8660,8660,8660,8660,8660,8660,8660,8660,8660,8660,8660,8660,8660,8660,8660,8660,8660,8660,8660,8660,8660,8660,8660,8660,8660,8660,8660,8660,8660,8660,8660,8660,8660,8660,8660,8660,8660,8660,8660,8660,8660,8660,8660,8660,8660,8660,8660,8660,8660,8660,8660,8660,8660,8660,8660,8660,8660,8660,8660,8660,8660,8660,8660,8660,8660,8660,8660,8660,8660,8660,8660,8660,8660,8660,8660,8660,8660,8660,8660,8660,8660,8660,8660,8660,8660,8660,8660,8660,8660,8660,8660,8660,8660,8660,8660,8660,8660,8660,8660,8660,8660,8660,8660,8660,8660,8660,8660,8660,8660,8660,8660,8660,8660,8660,8660,8660,8660,8660,8660,8660,8660,8660,8660,8660,8660,8660,8660,8660,8660,8660,8660,8660,8660,8660,8660,8660,8660,8660,8660,8660,8660,8660,8660,8660,8660,8660,8660,8660,8660,8660,8660,8660,8660,8660,8660,8660,8660,8660,8660,8660,8660,8660,8660,8660,8660,8660,8660,8660,8660,8660,8660,8660,8660,8660,8660,8660,8660,8660,8660,8660,8660,8660,8660,8660,
8660,8660,8660,8660,8660,8660,8660,8660,8660,8660,8660,8660,8660,8660,8660,8660,8660,8660,8660,8660,8660,8660,8660,8660,8660,8660,8660,8660,8660,8660,8660,8660,8660,8660,8660,8660,8660,8660,8660,8660,8660,8660,8660,8660,8660,8660,8660,8660,8660,8660,8660,8660,8660,8660,8660,8660,8660,8660,8660,8660,8660,8660,8660,8660,8660,8660,8660,8660,8660,8660,8660,8660,8660,8660,8660,8660,8660,8660,8660,8660,8660,8660,8660,8660,8660,8660,8660,8660,8660,8660,8660,8660,8660,8660,8660,8660,8660,8660,8660,8660,8660,8660,8660,8660,8660,8660,8660,8660,8660,8660,8660,8660,8660,8660,8660,8660,8660,8660,8660,8660,8660,8660,8660,8660,8660,8660,8660,8660,8660,8660,8660,8660,8660,8660,8660,8660,8660,8660,8660,8660,8660,8660,8660,8660,8660,8660,8660,8660,8660,8660,8660,8660,8660,8660,8660,8660,8660,8660,8660,8660,8660,8660,8660,8660,8660,8660,8660,8660,8660,8660,8660,8660,8660,8660,8660,8660,8660,8660,8660,8660,8660,8660,8660,8660,8660,8660,8660,8660,8660,8660,8660,8660,8660,8660,8660,8660,8660,8660,8660,8660,8660,8660,8660,8660,8660,8660,8660,8660,8660,8660,8660,8660,8660,8660,8660,8660,8660,8660,8660,8660,8660,8660,8660,8660,8660,8660,8660,8660,8660,8660,8660,8660,8660,8660,8660,8660,8660,8660,8660,8660,8660,8660,8660,8660,8660,8660,8660,8660,8660,8660,
8660,8660,8660,8660,8660,8660,8660,8660,8660,8660,8660,8660,8660,8660,8660,8660,8660,8660,8660,8660,8660,8660,8660,8660,8660,8660,8660,8660,8660,8660,8660,8660,8660,8660,8660,8660,8660,8660,8660,8660,8660,8660,8660,8660,8660,8660,8660,8660,8660,8660,8660,8660,8660,8660,8660,8660,8660,8660,8660,8660,8660,8660,8660,8660,8660,8660,8660,8660,8660,8660,8660,8660,8660,8660,8660,8660,8660,8660,8660,8660,8660,8660,8660,8660,8660,8660,8660,8660,8660,8660,8660,8660,8660,8660,8660,8660,8660,8660,8660,8660,8660,8660,8660,8660,8660,8660,8660,8660,8660,8660,8660,8660,8660,8660,8660,8660,8660,8660,8660,8660,8660,8660,8660,8660,8660,8660,8660,8660,8660,8660,8660,8660,8660,8660,8660,8660,8660,8660,8660,8660,8660,8660,8660,8660,8660,8660,8660,8660,8660,8660,8660,8660,8660,8660,8660,8660,8660,8660,8660,8660,8660,8660,8660,8660,8660,8660,8660,8660,8660,8660,8660,8660,8660,8660,8660,8660,8660,8660,8660,8660,8660,8660,8660,8660,8660,8660,8660,8660,8660,8660,8660,8660,8660,8660,8660,8660,8660,8660,8660,8660,8660,8660,8660,8660,8660,8660,8660,8660,8660,8660,8660,8660,8660,8660,8660,8660,8660,8660,8660,8660,8660,8660,8660,8660,8660,8660,8660,8660,8660,8660,8660,8660,8660,8660,8660,8660,8660,8660,8660,8660,8660,8660,8660,8660,8660,8660,8660,8660,8660,8660,
8660,8660,8660,8660,8660,8660,8660,8660,8660,8660,8660,8660,8660,8660,8660,8660,8660,8660,8660,8660,8660,8660,8660,8660,8660,8660,8660,8660,8660,8660,8660,8660,8660,8660,8660,8660,8660,8660,8660,8660,8660,8660,8660,8660,8660,8660,8660,8660,8660,8660,8660,8660,8660,8660,8660,8660,8660,8660,8660,8660,8660,8660,8660,8660,8660,8660,8660,8660,8660,8660,8660,8660,8660,8660,8660,8660,8660,8660,8660,8660,8660,8660,8660,8660,8660,8660,8660,8660,8660,8660,8660,8660,8660,8660,8660,8660,8660,8660,8660,8660,8660,8660,8660,8660,8660,8660,8660,8660,8660,8660,8660,8660,8660,8660,8660,8660,8660,8660,8660,8660,8660,8660,8660,8660,8660,8660,8660,8660,8660,8660,8660,8660,8660,8660,8660,8660,8660,8660,8660,8660,8660,8660,8660,8660,8660,8660,8660,8660,8660,8660,8660,8660,8660,8660,8660,8660,8660,8660,8660,8660,8660,8660,8660,8660,8660,8660,8660,8660,8660,8660,8660,8660,8660,8660,8660,8660,8660,8660,8660,8660,8660,8660,8660,8660,8660,8660,8660,8660,8660,8660,8660,8660,8660,8660,8660,8660,8660,8660,8660,8660,8660,8660,8660,8660,8660,8660,8660,8660,8660,8660,8660,8660,8660,8660,8660,8660,8660,8660,8660,8660,8660,8660,8660,8660,8660,8660,8660,8660,8660,8660,8660,8660,8660,8660,8660,8660,8660,8660,8660,8660,8660,8660,8660,8660,8660,8660,8660,8660,8660,8660,
8660,8660,8660,8660,8660,8660,8660,8660,8660,8660,8660,8660,8660,8660,8660,8660,8660,8660,8660,8660,8660,8660,8660,8660,8660,8660,8660,8660,8660,8660,8660,8660,8660,8660,8660,8660,8660,8660,8660,8660,8660,8660,8660,8660,8660,8660,8660,8660,8660,8660,8660,8660,8660,8660,8660,8660,8660,8660,8660,8660,8660,8660,8660,8660,8660,8660,8660,8660,8660,8660,8660,8660,8660,8660,8660,8660,8660,8660,8660,8660,8660,8660,8660,8660,8660,8660,8660,8660,8660,8660,8660,8660,8660,8660,8660,8660,8660,8660,8660,8660,8660,8660,8660,8660,8660,8660,8660,8660,8660,8660,8660,8660,8660,8660,8660,8660,8660,8660,8660,8660,8660,8660,8660,8660,8660,8660,8660,8660,8660,8660,8660,8660,8660,8660,8660,8660,8660,8660,8660,8660,8660,8660,8660,8660,8660,8660,8660,8660,8660,8660,8660,8660,8660,8660,8660,8660,8660,8660,8660,8660,8660,8660,8660,8660,8660,8660,8660,8660,8660,8660,8660,8660,8660,8660,8660,8660,8660,8660,8660,8660,8660,8660,8660,8660,8660,8660,8660,8660,8660,8660,8660,8660,8660,8660,8660,8660,8660,8660,8660,8660,8660,8660,8660,8660,8660,8660,8660,8660,8660,8660,8660,8660,8660,8660,8660,8660,8660,8660,8660,8660,8660,8660,8660,8660,8660,8660,8660,8660,8660,8660,8660,8660,8660,8660,8660,8660,8660,8660,8660,8660,8660,8660,8660,8660,8660,8660,8660,8660,8660,8660,
8660,8660,8660,8660,8660,8660,8660,8660,8660,8660,8660,8660,8660,8660,8660,8660,8660,8660,8660,8660,8660,8660,8660,8660,8660,8660,8660,8660,8660,8660,8660,8660,8660,8660,8660,8660,8660,8660,8660,8660,8660,8660,8660,8660,8660,8660,8660,8660,8660,8660,8660,8660,8660,8660,8660,8660,8660,8660,8660,8660,8660,8660,8660,8660,8660,8660,8660,8660,8660,8660,8660,8660,8660,8660,8660,8660,8660,8660,8660,8660,8660,8660,8660,8660,8660,8660,8660,8660,8660,8660,8660,8660,8660,8660,8660,8660,8660,8660,8660,8660,8660,8660,8660,8660,8660,8660,8660,8660,8660,8660,8660,8660,8660,8660,8660,8660,8660,8660,8660,8660,8660,8660,8660,8660,8660,8660,8660,8660,8660,8660,8660,8660,8660,8660,8660,8660,8660,8660,8660,8660,8660,8660,8660,8660,8660,8660,8660,8660,8660,8660,8660,8660,8660,8660,8660,8660,8660,8660,8660,8660,8660,8660,8660,8660,8660,8660,8660,8660,8660,8660,8660,8660,8660,8660,8660,8660,8660,8660,8660,8660,8660,8660,8660,8660,8660,8660,8660,8660,8660,8660,8660,8660,8660,8660,8660,8660,8660,8660,8660,8660,8660,8660,8660,8660,8660,8660,8660,8660,8660,8660,8660,8660,8660,8660,8660,8660,8660,8660,8660,8660,8660,8660,8660,8660,8660,8660,8660,8660,8660,8660,8660,8660,8660,8660,8660,8660,8660,8660,8660,8660,8660,8660,8660,8660,8660,8660,8660,8660,8660,8660,
8660,8660,8660,8660,8660,8660,8660,8660,8660,8660,8660,8660,8660,8660,8660,8660,8660,8660,8660,8660,8660,8660,8660,8660,8660,8660,8660,8660,8660,8660,8660,8660,8660,8660,8660,8660,8660,8660,8660,8660,8660,8660,8660,8660,8660,8660,8660,8660,8660,8660,8660,8660,8660,8660,8660,8660,8660,8660,8660,8660,8660,8660,8660,8660,8660,8660,8660,8660,8660,8660,8660,8660,8660,8660,8660,8660,8660,8660,8660,8660,8660,8660,8660,8660,8660,8660,8660,8660,8660,8660,8660,8660,8660,8660,8660,8660,8660,8660,8660,8660,8660,8660,8660,8660,8660,8660,8660,8660,8660,8660,8660,8660,8660,8660,8660,8660,8660,8660,8660,8660,8660,8660,8660,8660,8660,8660,8660,8660,8660,8660,8660,8660,8660,8660,8660,8660,8660,8660,8660,8660,8660,8660,8660,8660,8660,8660,8660,8660,8660,8660,8660,8660,8660,8660,8660,8660,8660,8660,8660,8660,8660,8660,8660,8660,8660,8660,8660,8660,8660,8660,8660,8660,8660,8660,8660,8660,8660,8660,8660,8660,8660,8660,8660,8660,8660,8660,8660,8660,8660,8660,8660,8660,8660,8660,8660,8660,8660,8660,8660,8660,8660,8660,8660,8660,8660,8660,8660,8660,8660,8660,8660,8660,8660,8660,8660,8660,8660,8660,8660,8660,8660,8660,8660,8660,8660,8660,8660,8660,8660,8660,8660,8660,8660,8660,8660,8660,8660,8660,8660,8660,8660,8660,8660,8660,8660,8660,8660,8660,8660,8660,
8660,8660,8660,8660,8660,8660,8660,8660,8660,8660,8660,8660,8660,8660,8660,8660,8660,8660,8660,8660,8660,8660,8660,8660,8660,8660,8660,8660,8660,8660,8660,8660,8660,8660,8660,8660,8660,8660,8660,8660,8660,8660,8660,8660,8660,8660,8660,8660,8660,8660,8660,8660,8660,8660,8660,8660,8660,8660,8660,8660,8660,8660,8660,8660,8660,8660,8660,8660,8660,8660,8660,8660,8660,8660,8660,8660,8660,8660,8660,8660,8660,8660,8660,8660,8660,8660,8660,8660,8660,8660,8660,8660,8660,8660,8660,8660,8660,8660,8660,8660,8660,8660,8660,8660,8660,8660,8660,8660,8660,8660,8660,8660,8660,8660,8660,8660,8660,8660,8660,8660,8660,8660,8660,8660,8660,8660,8660,8660,8660,8660,8660,8660,8660,8660,8660,8660,8660,8660,8660,8660,8660,8660,8660,8660,8660,8660,8660,8660,8660,8660,8660,8660,8660,8660,8660,8660,8660,8660,8660,8660,8660,8660,8660,8660,8660,8660,8660,8660,8660,8660,8660,8660,8660,8660,8660,8660,8660,8660,8660,8660,8660,8660,8660,8660,8660,8660,8660,8660,8660,8660,8660,8660,8660,8660,8660,8660,8660,8660,8660,8660,8660,8660,8660,8660,8660,8660,8660,8660,8660,8660,8660,8660,8660,8660,8660,8660,8660,8660,8660,8660,8660,8660,8660,8660,8660,8660,8660,8660,8660,8660,8660,8660,8660,8660,8660,8660,8660,8660,8660,8660,8660,8660,8660,8660,8660,8660,8660,8660,8660,8660,
8660,8660,8660,8660,8660,8660,8660,8660,8660,8660,8660,8660,8660,8660,8660,8660,8660,8660,8660,8660,8660,8660,8660,8660,8660,8660,8660,8660,8660,8660,8660,8660,8660,8660,8660,8660,8660,8660,8660,8660,8660,8660,8660,8660,8660,8660,8660,8660,8660,8660,8660,8660,8660,8660,8660,8660,8660,8660,8660,8660,8660,8660,8660,8660,8660,8660,8660,8660,8660,8660,8660,8660,8660,8660,8660,8660,8660,8660,8660,8660,8660,8660,8660,8660,8660,8660,8660,8660,8660,8660,8660,8660,8660,8660,8660,8660,8660,8660,8660,8660,8660,8660,8660,8660,8660,8660,8660,8660,8660,8660,8660,8660,8660,8660,8660,8660,8660,8660,8660,8660,8660,8660,8660,8660,8660,8660,8660,8660,8660,8660,8660,8660,8660,8660,8660,8660,8660,8660,8660,8660,8660,8660,8660,8660,8660,8660,8660,8660,8660,8660,8660,8660,8660,8660,8660,8660,8660,8660,8660,8660,8660,8660,8660,8660,8660,8660,8660,8660,8660,8660,8660,8660,8660,8660,8660,8660,8660,8660,8660,8660,8660,8660,8660,8660,8660,8660,8660,8660,8660,8660,8660,8660,8660,8660,8660,8660,8660,8660,8660,8660,8660,8660,8660,8660,8660,8660,8660,8660,8660,8660,8660,8660,8660,8660,8660,8660,8660,8660,8660,8660,8660,8660,8660,8660,8660,8660,8660,8660,8660,8660,8660,8660,8660,8660,8660,8660,8660,8660,8660,8660,8660,8660,8660,8660,8660,8660,8660,8660,8660,8660,
8660,8660,8660,8660,8660,8660,8660,8660,8660,8660,8660,8660,8660,8660,8660,8660,8660,8660,8660,8660,8660,8660,8660,8660,8660,8660,8660,8660,8660,8660,8660,8660,8660,8660,8660,8660,8660,8660,8660,8660,8660,8660,8660,8660,8660,8660,8660,8660,8660,8660,8660,8660,8660,8660,8660,8660,8660,8660,8660,8660,8660,8660,8660,8660,8660,8660,8660,8660,8660,8660,8660,8660,8660,8660,8660,8660,8660,8660,8660,8660,8660,8660,8660,8660,8660,8660,8660,8660,8660,8660,8660,8660,8660,8660,8660,8660,8660,8660,8660,8660,8660,8660,8660,8660,8660,8660,8660,8660,8660,8660,8660,8660,8660,8660,8660,8660,8660,8660,8660,8660,8660,8660,8660,8660,8660,8660,8660,8660,8660,8660,8660,8660,8660,8660,8660,8660,8660,8660,8660,8660,8660,8660,8660,8660,8660,8660,8660,8660,8660,8660,8660,8660,8660,8660,8660,8660,8660,8660,8660,8660,8660,8660,8660,8660,8660,8660,8660,8660,8660,8660,8660,8660,8660,8660,8660,8660,8660,8660,8660,8660,8660,8660,8660,8660,8660,8660,8660,8660,8660,8660,8660,8660,8660,8660,8660,8660,8660,8660,8660,8660,8660,8660,8660,8660,8660,8660,8660,8660,8660,8660,8660,8660,8660,8660,8660,8660,8660,8660,8660,8660,8660,8660,8660,8660,8660,8660,8660,8660,8660,8660,8660,8660,8660,8660,8660,8660,8660,8660,8660,8660,8660,8660,8660,8660,8660,8660,8660,8660,8660,8660,
8660,8660,8660,8660,8660,8660,8660,8660,8660,8660,8660,8660,8660,8660,8660,8660,8660,8660,8660,8660,8660,8660,8660,8660,8660,8660,8660,8660,8660,8660,8660,8660,8660,8660,8660,8660,8660,8660,8660,8660,8660,8660,8660,8660,8660,8660,8660,8660,8660,8660,8660,8660,8660,8660,8660,8660,8660,8660,8660,8660,8660,8660,8660,8660,8660,8660,8660,8660,8660,8660,8660,8660,8660,8660,8660,8660,8660,8660,8660,8660,8660,8660,8660,8660,8660,8660,8660,8660,8660,8660,8660,8660,8660,8660,8660,8660,8660,8660,8660,8660,8660,8660,8660,8660,8660,8660,8660,8660,8660,8660,8660,8660,8660,8660,8660,8660,8660,8660,8660,8660,8660,8660,8660,8660,8660,8660,8660,8660,8660,8660,8660,8660,8660,8660,8660,8660,8660,8660,8660,8660,8660,8660,8660,8660,8660,8660,8660,8660,8660,8660,8660,8660,8660,8660,8660,8660,8660,8660,8660,8660,8660,8660,8660,8660,8660,8660,8660,8660,8660,8660,8660,8660,8660,8660,8660,8660,8660,8660,8660,8660,8660,8660,8660,8660,8660,8660,8660,8660,8660,8660,8660,8660,8660,8660,8660,8660,8660,8660,8660,8660,8660,8660,8660,8660,8660,8660,8660,8660,8660,8660,8660,8660,8660,8660,8660,8660,8660,8660,8660,8660,8660,8660,8660,8660,8660,8660,8660,8660,8660,8660,8660,8660,8660,8660,8660,8660,8660,8660,8660,8660,8660,8660,8660,8660,8660,8660,8660,8660,8660,8660,
8660,8660,8660,8660,8660,8660,8660,8660,8660,8660,8660,8660,8660,8660,8660,8660,8660,8660,8660,8660,8660,8660,8660,8660,8660,8660,8660,8660,8660,8660,8660,8660,8660,8660,8660,8660,8660,8660,8660,8660,8660,8660,8660,8660,8660,8660,8660,8660,8660,8660,8660,8660,8660,8660,8660,8660,8660,8660,8660,8660,8660,8660,8660,8660,8660,8660,8660,8660,8660,8660,8660,8660,8660,8660,8660,8660,8660,8660,8660,8660,8660,8660,8660,8660,8660,8660,8660,8660,8660,8660,8660,8660,8660,8660,8660,8660,8660,8660,8660,8660,8660,8660,8660,8660,8660,8660,8660,8660,8660,8660,8660,8660,8660,8660,8660,8660,8660,8660,8660,8660,8660,8660,8660,8660,8660,8660,8660,8660,8660,8660,8660,8660,8660,8660,8660,8660,8660,8660,8660,8660,8660,8660,8660,8660,8660,8660,8660,8660,8660,8660,8660,8660,8660,8660,8660,8660,8660,8660,8660,8660,8660,8660,8660,8660,8660,8660,8660,8660,8660,8660,8660,8660,8660,8660,8660,8660,8660,8660,8660,8660,8660,8660,8660,8660,8660,8660,8660,8660,8660,8660,8660,8660,8660,8660,8660,8660,8660,8660,8660,8660,8660,8660,8660,8660,8660,8660,8660,8660,8660,8660,8660,8660,8660,8660,8660,8660,8660,8660,8660,8660,8660,8660,8660,8660,8660,8660,8660,8660,8660,8660,8660,8660,8660,8660,8660,8660,8660,8660,8660,8660,8660,8660,8660,8660,8660,8660,8660,8660,8660,8660,
8660,8660,8660,8660,8660,8660,8660,8660,8660,8660,8660,8660,8660,8660,8660,8660,8660,8660,8660,8660,8660,8660,8660,8660,8660,8660,8660,8660,8660,8660,8660,8660,8660,8660,8660,8660,8660,8660,8660,8660,8660,8660,8660,8660,8660,8660,8660,8660,8660,8660,8660,8660,8660,8660,8660,8660,8660,8660,8660,8660,8660,8660,8660,8660,8660,8660,8660,8660,8660,8660,8660,8660,8660,8660,8660,8660,8660,8660,8660,8660,8660,8660,8660,8660,8660,8660,8660,8660,8660,8660,8660,8660,8660,8660,8660,8660,8660,8660,8660,8660,8660,8660,8660,8660,8660,8660,8660,8660,8660,8660,8660,8660,8660,8660,8660,8660,8660,8660,8660,8660,8660,8660,8660,8660,8660,8660,8660,8660,8660,8660,8660,8660,8660,8660,8660,8660,8660,8660,8660,8660,8660,8660,8660,8660,8660,8660,8660,8660,8660,8660,8660,8660,8660,8660,8660,8660,8660,8660,8660,8660,8660,8660,8660,8660,8660,8660,8660,8660,8660,8660,8660,8660,8660,8660,8660,8660,8660,8660,8660,8660,8660,8660,8660,8660,8660,8660,8660,8660,8660,8660,8660,8660,8660,8660,8660,8660,8660,8660,8660,8660,8660,8660,8660,8660,8660,8660,8660,8660,8660,8660,8660,8660,8660,8660,8660,8660,8660,8660,8660,8660,8660,8660,8660,8660,8660,8660,8660,8660,8660,8660,8660,8660,8660,8660,8660,8660,8660,8660,8660,8660,8660,8660,8660,8660,8660,8660,8660,8660,8660,8660,
8660,8660,8660,8660,8660,8660,8660,8660,8660,8660,8660,8660,8660,8660,8660,8660,8660,8660,8660,8660,8660,8660,8660,8660,8660,8660,8660,8660,8660,8660,8660,8660,8660,8660,8660,8660,8660,8660,8660,8660,8660,8660,8660,8660,8660,8660,8660,8660,8660,8660,8660,8660,8660,8660,8660,8660,8660,8660,8660,8660,8660,8660,8660,8660,8660,8660,8660,8660,8660,8660,8660,8660,8660,8660,8660,8660,8660,8660,8660,8660,8660,8660,8660,8660,8660,8660,8660,8660,8660,8660,8660,8660,8660,8660,8660,8660,8660,8660,8660,8660,8660,8660,8660,8660,8660,8660,8660,8660,8660,8660,8660,8660,8660,8660,8660,8660,8660,8660,8660,8660,8660,8660,8660,8660,8660,8660,8660,8660,8660,8660,8660,8660,8660,8660,8660,8660,8660,8660,8660,8660,8660,8660,8660,8660,8660,8660,8660,8660,8660,8660,8660,8660,8660,8660,8660,8660,8660,8660,8660,8660,8660,8660,8660,8660,8660,8660,8660,8660,8660,8660,8660,8660,8660,8660,8660,8660,8660,8660,8660,8660,8660,8660,8660,8660,8660,8660,8660,8660,8660,8660,8660,8660,8660,8660,8660,8660,8660,8660,8660,8660,8660,8660,8660,8660,8660,8660,8660,8660,8660,8660,8660,8660,8660,8660,8660,8660,8660,8660,8660,8660,8660,8660,8660,8660,8660,8660,8660,8660,8660,8660,8660,8660,8660,8660,8660,8660,8660,8660,8660,8660,8660,8660,8660,8660,8660,8660,8660,8660,8660,8660,
8660,8660,8660,8660,8660,8660,8660,8660,8660,8660,8660,8660,8660,8660,8660,8660,8660,8660,8660,8660,8660,8660,8660,8660,8660,8660,8660,8660,8660,8660,8660,8660,8660,8660,8660,8660,8660,8660,8660,8660,8660,8660,8660,8660,8660,8660,8660,8660,8660,8660,8660,8660,8660,8660,8660,8660,8660,8660,8660,8660,8660,8660,8660,8660,8660,8660,8660,8660,8660,8660,8660,8660,8660,8660,8660,8660,8660,8660,8660,8660,8660,8660,8660,8660,8660,8660,8660,8660,8660,8660,8660,8660,8660,8660,8660,8660,8660,8660,8660,8660,8660,8660,8660,8660,8660,8660,8660,8660,8660,8660,8660,8660,8660,8660,8660,8660,8660,8660,8660,8660,8660,8660,8660,8660,8660,8660,8660,8660,8660,8660,8660,8660,8660,8660,8660,8660,8660,8660,8660,8660,8660,8660,8660,8660,8660,8660,8660,8660,8660,8660,8660,8660,8660,8660,8660,8660,8660,8660,8660,8660,8660,8660,8660,8660,8660,8660,8660,8660,8660,8660,8660,8660,8660,8660,8660,8660,8660,8660,8660,8660,8660,8660,8660,8660,8660,8660,8660,8660,8660,8660,8660,8660,8660,8660,8660,8660,8660,8660,8660,8660,8660,8660,8660,8660,8660,8660,8660,8660,8660,8660,8660,8660,8660,8660,8660,8660,8660,8660,8660,8660,8660,8660,8660,8660,8660,8660,8660,8660,8660,8660,8660,8660,8660,8660,8660,8660,8660,8660,8660,8660,8660,8660,8660,8660,8660,8660,8660,8660,8660,8660,
8660,8660,8660,8660,8660,8660,8660,8660,8660,8660,8660,8660,8660,8660,8660,8660,8660,8660,8660,8660,8660,8660,8660,8660,8660,8660,8660,8660,8660,8660,8660,8660,8660,8660,8660,8660,8660,8660,8660,8660,8660,8660,8660,8660,8660,8660,8660,8660,8660,8660,8660,8660,8660,8660,8660,8660,8660,8660,8660,8660,8660,8660,8660,8660,8660,8660,8660,8660,8660,8660,8660,8660,8660,8660,8660,8660,8660,8660,8660,8660,8660,8660,8660,8660,8660,8660,8660,8660,8660,8660,8660,8660,8660,8660,8660,8660,8660,8660,8660,8660,8660,8660,8660,8660,8660,8660,8660,8660,8660,8660,8660,8660,8660,8660,8660,8660,8660,8660,8660,8660,8660,8660,8660,8660,8660,8660,8660,8660,8660,8660,8660,8660,8660,8660,8660,8660,8660,8660,8660,8660,8660,8660,8660,8660,8660,8660,8660,8660,8660,8660,8660,8660,8660,8660,8660,8660,8660,8660,8660,8660,8660,8660,8660,8660,8660,8660,8660,8660,8660,8660,8660,8660,8660,8660,8660,8660,8660,8660,8660,8660,8660,8660,8660,8660,8660,8660,8660,8660,8660,8660,8660,8660,8660,8660,8660,8660,8660,8660,8660,8660,8660,8660,8660,8660,8660,8660,8660,8660,8660,8660,8660,8660,8660,8660,8660,8660,8660,8660,8660,8660,8660,8660,8660,8660,8660,8660,8660,8660,8660,8660,8660,8660,8660,8660,8660,8660,8660,8660,8660,8660,8660,8660,8660,8660,8660,8660,8660,8660,8660,8660,
8660,8660,8660,8660,8660,8660,8660,8660,8660,8660,8660,8660,8660,8660,8660,8660,8660,8660,8660,8660,8660,8660,8660,8660,8660,8660,8660,8660,8660,8660,8660,8660,8660,8660,8660,8660,8660,8660,8660,8660,8660,8660,8660,8660,8660,8660,8660,8660,8660,8660,8660,8660,8660,8660,8660,8660,8660,8660,8660,8660,8660,8660,8660,8660,8660,8660,8660,8660,8660,8660,8660,8660,8660,8660,8660,8660,8660,8660,8660,8660,8660,8660,8660,8660,8660,8660,8660,8660,8660,8660,8660,8660,8660,8660,8660,8660,8660,8660,8660,8660,8660,8660,8660,8660,8660,8660,8660,8660,8660,8660,8660,8660,8660,8660,8660,8660,8660,8660,8660,8660,8660,8660,8660,8660,8660,8660,8660,8660,8660,8660,8660,8660,8660,8660,8660,8660,8660,8660,8660,8660,8660,8660,8660,8660,8660,8660,8660,8660,8660,8660,8660,8660,8660,8660,8660,8660,8660,8660,8660,8660,8660,8660,8660,8660,8660,8660,8660,8660,8660,8660,8660,8660,8660,8660,8660,8660,8660,8660,8660,8660,8660,8660,8660,8660,8660,8660,8660,8660,8660,8660,8660,8660,8660,8660,8660,8660,8660,8660,8660,8660,8660,8660,8660,8660,8660,8660,8660,8660,8660,8660,8660,8660,8660,8660,8660,8660,8660,8660,8660,8660,8660,8660,8660,8660,8660,8660,8660,8660,8660,8660,8660,8660,8660,8660,8660,8660,8660,8660,8660,8660,8660,8660,8660,8660,8660,8660,8660,8660,8660,8660,
8660,8660,8660,8660,8660,8660,8660,8660,8660,8660,8660,8660,8660,8660,8660,8660,8660,8660,8660,8660,8660,8660,8660,8660,8660,8660,8660,8660,8660,8660,8660,8660,8660,8660,8660,8660,8660,8660,8660,8660,8660,8660,8660,8660,8660,8660,8660,8660,8660,8660,8660,8660,8660,8660,8660,8660,8660,8660,8660,8660,8660,8660,8660,8660,8660,8660,8660,8660,8660,8660,8660,8660,8660,8660,8660,8660,8660,8660,8660,8660,8660,8660,8660,8660,8660,8660,8660,8660,8660,8660,8660,8660,8660,8660,8660,8660,8660,8660,8660,8660,8660,8660,8660,8660,8660,8660,8660,8660,8660,8660,8660,8660,8660,8660,8660,8660,8660,8660,8660,8660,8660,8660,8660,8660,8660,8660,8660,8660,8660,8660,8660,8660,8660,8660,8660,8660,8660,8660,8660,8660,8660,8660,8660,8660,8660,8660,8660,8660,8660,8660,8660,8660,8660,8660,8660,8660,8660,8660,8660,8660,8660,8660,8660,8660,8660,8660,8660,8660,8660,8660,8660,8660,8660,8660,8660,8660,8660,8660,8660,8660,8660,8660,8660,8660,8660,8660,8660,8660,8660,8660,8660,8660,8660,8660,8660,8660,8660,8660,8660,8660,8660,8660,8660,8660,8660,8660,8660,8660,8660,8660,8660,8660,8660,8660,8660,8660,8660,8660,8660,8660,8660,8660,8660,8660,8660,8660,8660,8660,8660,8660,8660,8660,8660,8660,8660,8660,8660,8660,8660,8660,8660,8660,8660,8660,8660,8660,8660,8660,8660,8660,
8660,8660,8660,8660,8660,8660,8660,8660,8660,8660,8660,8660,8660,8660,8660,8660,8660,8660,8660,8660,8660,8660,8660,8660,8660,8660,8660,8660,8660,8660,8660,8660,8660,8660,8660,8660,8660,8660,8660,8660,8660,8660,8660,8660,8660,8660,8660,8660,8660,8660,8660,8660,8660,8660,8660,8660,8660,8660,8660,8660,8660,8660,8660,8660,8660,8660,8660,8660,8660,8660,8660,8660,8660,8660,8660,8660,8660,8660,8660,8660,8660,8660,8660,8660,8660,8660,8660,8660,8660,8660,8660,8660,8660,8660,8660,8660,8660,8660,8660,8660,8660,8660,8660,8660,8660,8660,8660,8660,8660,8660,8660,8660,8660,8660,8660,8660,8660,8660,8660,8660,8660,8660,8660,8660,8660,8660,8660,8660,8660,8660,8660,8660,8660,8660,8660,8660,8660,8660,8660,8660,8660,8660,8660,8660,8660,8660,8660,8660,8660,8660,8660,8660,8660,8660,8660,8660,8660,8660,8660,8660,8660,8660,8660,8660,8660,8660,8660,8660,8660,8660,8660,8660,8660,8660,8660,8660,8660,8660,8660,8660,8660,8660,8660,8660,8660,8660,8660,8660,8660,8660,8660,8660,8660,8660,8660,8660,8660,8660,8660,8660,8660,8660,8660,8660,8660,8660,8660,8660,8660,8660,8660,8660,8660,8660,8660,8660,8660,8660,8660,8660,8660,8660,8660,8660,8660,8660,8660,8660,8660,8660,8660,8660,8660,8660,8660,8660,8660,8660,8660,8660,8660,8660,8660,8660,8660,8660,8660,8660,8660,8660,
8660,8660,8660,8660,8660,8660,8660,8660,8660,8660,8660,8660,8660,8660,8660,8660,8660,8660,8660,8660,8660,8660,8660,8660,8660,8660,8660,8660,8660,8660,8660,8660,8660,8660,8660,8660,8660,8660,8660,8660,8660,8660,8660,8660,8660,8660,8660,8660,8660,8660,8660,8660,8660,8660,8660,8660,8660,8660,8660,8660,8660,8660,8660,8660,8660,8660,8660,8660,8660,8660,8660,8660,8660,8660,8660,8660,8660,8660,8660,8660,8660,8660,8660,8660,8660,8660,8660,8660,8660,8660,8660,8660,8660,8660,8660,8660,8660,8660,8660,8660,8660,8660,8660,8660,8660,8660,8660,8660,8660,8660,8660,8660,8660,8660,8660,8660,8660,8660,8660,8660,8660,8660,8660,8660,8660,8660,8660,8660,8660,8660,8660,8660,8660,8660,8660,8660,8660,8660,8660,8660,8660,8660,8660,8660,8660,8660,8660,8660,8660,8660,8660,8660,8660,8660,8660,8660,8660,8660,8660,8660,8660,8660,8660,8660,8660,8660,8660,8660,8660,8660,8660,8660,8660,8660,8660,8660,8660,8660,8660,8660,8660,8660,8660,8660,8660,8660,8660,8660,8660,8660,8660,8660,8660,8660,8660,8660,8660,8660,8660,8660,8660,8660,8660,8660,8660,8660,8660,8660,8660,8660,8660,8660,8660,8660,8660,8660,8660,8660,8660,8660,8660,8660,8660,8660,8660,8660,8660,8660,8660,8660,8660,8660,8660,8660,8660,8660,8660,8660,8660,8660,8660,8660,8660,8660,8660,8660,8660,8660,8660,8660,
8660,8660,8660,8660,8660,8660,8660,8660,8660,8660,8660,8660,8660,8660,8660,8660,8660,8660,8660,8660,8660,8660,8660,8660,8660,8660,8660,8660,8660,8660,8660,8660,8660,8660,8660,8660,8660,8660,8660,8660,8660,8660,8660,8660,8660,8660,8660,8660,8660,8660,8660,8660,8660,8660,8660,8660,8660,8660,8660,8660,8660,8660,8660,8660,8660,8660,8660,8660,8660,8660,8660,8660,8660,8660,8660,8660,8660,8660,8660,8660,8660,8660,8660,8660,8660,8660,8660,8660,8660,8660,8660,8660,8660,8660,8660,8660,8660,8660,8660,8660,8660,8660,8660,8660,8660,8660,8660,8660,8660,8660,8660,8660,8660,8660,8660,8660,8660,8660,8660,8660,8660,8660,8660,8660,8660,8660,8660,8660,8660,8660,8660,8660,8660,8660,8660,8660,8660,8660,8660,8660,8660,8660,8660,8660,8660,8660,8660,8660,8660,8660,8660,8660,8660,8660,8660,8660,8660,8660,8660,8660,8660,8660,8660,8660,8660,8660,8660,8660,8660,8660,8660,8660,8660,8660,8660,8660,8660,8660,8660,8660,8660,8660,8660,8660,8660,8660,8660,8660,8660,8660,8660,8660,8660,8660,8660,8660,8660,8660,8660,8660,8660,8660,8660,8660,8660,8660,8660,8660,8660,8660,8660,8660,8660,8660,8660,8660,8660,8660,8660,8660,8660,8660,8660,8660,8660,8660,8660,8660,8660,8660,8660,8660,8660,8660,8660,8660,8660,8660,8660,8660,8660,8660,8660,8660,8660,8660,8660,8660,8660,8660,
8660,8660,8660,8660,8660,8660,8660,8660,8660,8660,8660,8660,8660,8660,8660,8660,8660,8660,8660,8660,8660,8660,8660,8660,8660,8660,8660,8660,8660,8660,8660,8660,8660,8660,8660,8660,8660,8660,8660,8660,8660,8660,8660,8660,8660,8660,8660,8660,8660,8660,8660,8660,8660,8660,8660,8660,8660,8660,8660,8660,8660,8660,8660,8660,8660,8660,8660,8660,8660,8660,8660,8660,8660,8660,8660,8660,8660,8660,8660,8660,8660,8660,8660,8660,8660,8660,8660,8660,8660,8660,8660,8660,8660,8660,8660,8660,8660,8660,8660,8660,8660,8660,8660,8660,8660,8660,8660,8660,8660,8660,8660,8660,8660,8660,8660,8660,8660,8660,8660,8660,8660,8660,8660,8660,8660,8660,8660,8660,8660,8660,8660,8660,8660,8660,8660,8660,8660,8660,8660,8660,8660,8660,8660,8660,8660,8660,8660,8660,8660,8660,8660,8660,8660,8660,8660,8660,8660,8660,8660,8660,8660,8660,8660,8660,8660,8660,8660,8660,8660,8660,8660,8660,8660,8660,8660,8660,8660,8660,8660,8660,8660,8660,8660,8660,8660,8660,8660,8660,8660,8660,8660,8660,8660,8660,8660,8660,8660,8660,8660,8660,8660,8660,8660,8660,8660,8660,8660,8660,8660,8660,8660,8660,8660,8660,8660,8660,8660,8660,8660,8660,8660,8660,8660,8660,8660,8660,8660,8660,8660,8660,8660,8660,8660,8660,8660,8660,8660,8660,8660,8660,8660,8660,8660,8660,8660,8660,8660,8660,8660,8660,
8660,8660,8660,8660,8660,8660,8660,8660,8660,8660,8660,8660,8660,8660,8660,8660,8660,8660,8660,8660,8660,8660,8660,8660,8660,8660,8660,8660,8660,8660,8660,8660,8660,8660,8660,8660,8660,8660,8660,8660,8660,8660,8660,8660,8660,8660,8660,8660,8660,8660,8660,8660,8660,8660,8660,8660,8660,8660,8660,8660,8660,8660,8660,8660,8660,8660,8660,8660,8660,8660,8660,8660,8660,8660,8660,8660,8660,8660,8660,8660,8660,8660,8660,8660,8660,8660,8660,8660,8660,8660,8660,8660,8660,8660,8660,8660,8660,8660,8660,8660,8660,8660,8660,8660,8660,8660,8660,8660,8660,8660,8660,8660,8660,8660,8660,8660,8660,8660,8660,8660,8660,8660,8660,8660,8660,8660,8660,8660,8660,8660,8660,8660,8660,8660,8660,8660,8660,8660,8660,8660,8660,8660,8660,8660,8660,8660,8660,8660,8660,8660,8660,8660,8660,8660,8660,8660,8660,8660,8660,8660,8660,8660,8660,8660,8660,8660,8660,8660,8660,8660,8660,8660,8660,8660,8660,8660,8660,8660,8660,8660,8660,8660,8660,8660,8660,8660,8660,8660,8660,8660,8660,8660,8660,8660,8660,8660,8660,8660,8660,8660,8660,8660,8660,8660,8660,8660,8660,8660,8660,8660,8660,8660,8660,8660,8660,8660,8660,8660,8660,8660,8660,8660,8660,8660,8660,8660,8660,8660,8660,8660,8660,8660,8660,8660,8660,8660,8660,8660,8660,8660,8660,8660,8660,8660,8660,8660,8660,8660,8660,8660,
8660,8660,8660,8660,8660,8660,8660,8660,8660,8660,8660,8660,8660,8660,8660,8660,8660,8660,8660,8660,8660,8660,8660,8660,8660,8660,8660,8660,8660,8660,8660,8660,8660,8660,8660,8660,8660,8660,8660,8660,8660,8660,8660,8660,8660,8660,8660,8660,8660,8660,8660,8660,8660,8660,8660,8660,8660,8660,8660,8660,8660,8660,8660,8660,8660,8660,8660,8660,8660,8660,8660,8660,8660,8660,8660,8660,8660,8660,8660,8660,8660,8660,8660,8660,8660,8660,8660,8660,8660,8660,8660,8660,8660,8660,8660,8660,8660,8660,8660,8660,8660,8660,8660,8660,8660,8660,8660,8660,8660,8660,8660,8660,8660,8660,8660,8660,8660,8660,8660,8660,8660,8660,8660,8660,8660,8660,8660,8660,8660,8660,8660,8660,8660,8660,8660,8660,8660,8660,8660,8660,8660,8660,8660,8660,8660,8660,8660,8660,8660,8660,8660,8660,8660,8660,8660,8660,8660,8660,8660,8660,8660,8660,8660,8660,8660,8660,8660,8660,8660,8660,8660,8660,8660,8660,8660,8660,8660,8660,8660,8660,8660,8660,8660,8660,8660,8660,8660,8660,8660,8660,8660,8660,8660,8660,8660,8660,8660,8660,8660,8660,8660,8660,8660,8660,8660,8660,8660,8660,8660,8660,8660,8660,8660,8660,8660,8660,8660,8660,8660,8660,8660,8660,8660,8660,8660,8660,8660,8660,8660,8660,8660,8660,8660,8660,8660,8660,8660,8660,8660,8660,8660,8660,8660,8660,8660,8660,8660,8660,8660,8660,
8660,8660,8660,8660,8660,8660,8660,8660,8660,8660,8660,8660,8660,8660,8660,8660,8660,8660,8660,8660,8660,8660,8660,8660,8660,8660,8660,8660,8660,8660,8660,8660,8660,8660,8660,8660,8660,8660,8660,8660,8660,8660,8660,8660,8660,8660,8660,8660,8660,8660,8660,8660,8660,8660,8660,8660,8660,8660,8660,8660,8660,8660,8660,8660,8660,8660,8660,8660,8660,8660,8660,8660,8660,8660,8660,8660,8660,8660,8660,8660,8660,8660,8660,8660,8660,8660,8660,8660,8660,8660,8660,8660,8660,8660,8660,8660,8660,8660,8660,8660,8660,8660,8660,8660,8660,8660,8660,8660,8660,8660,8660,8660,8660,8660,8660,8660,8660,8660,8660,8660,8660,8660,8660,8660,8660,8660,8660,8660,8660,8660,8660,8660,8660,8660,8660,8660,8660,8660,8660,8660,8660,8660,8660,8660,8660,8660,8660,8660,8660,8660,8660,8660,8660,8660,8660,8660,8660,8660,8660,8660,8660,8660,8660,8660,8660,8660,8660,8660,8660,8660,8660,8660,8660,8660,8660,8660,8660,8660,8660,8660,8660,8660,8660,8660,8660,8660,8660,8660,8660,8660,8660,8660,8660,8660,8660,8660,8660,8660,8660,8660,8660,8660,8660,8660,8660,8660,8660,8660,8660,8660,8660,8660,8660,8660,8660,8660,8660,8660,8660,8660,8660,8660,8660,8660,8660,8660,8660,8660,8660,8660,8660,8660,8660,8660,8660,8660,8660,8660,8660,8660,8660,8660,8660,8660,8660,8660,8660,8660,8660,8660,
8660,8660,8660,8660,8660,8660,8660,8660,8660,8660,8660,8660,8660,8660,8660,8660,8660,8660,8660,8660,8660,8660,8660,8660,8660,8660,8660,8660,8660,8660,8660,8660,8660,8660,8660,8660,8660,8660,8660,8660,8660,8660,8660,8660,8660,8660,8660,8660,8660,8660,8660,8660,8660,8660,8660,8660,8660,8660,8660,8660,8660,8660,8660,8660,8660,8660,8660,8660,8660,8660,8660,8660,8660,8660,8660,8660,8660,8660,8660,8660,8660,8660,8660,8660,8660,8660,8660,8660,8660,8660,8660,8660,8660,8660,8660,8660,8660,8660,8660,8660,8660,8660,8660,8660,8660,8660,8660,8660,8660,8660,8660,8660,8660,8660,8660,8660,8660,8660,8660,8660,8660,8660,8660,8660,8660,8660,8660,8660,8660,8660,8660,8660,8660,8660,8660,8660,8660,8660,8660,8660,8660,8660,8660,8660,8660,8660,8660,8660,8660,8660,8660,8660,8660,8660,8660,8660,8660,8660,8660,8660,8660,8660,8660,8660,8660,8660,8660,8660,8660,8660,8660,8660,8660,8660,8660,8660,8660,8660,8660,8660,8660,8660,8660,8660,8660,8660,8660,8660,8660,8660,8660,8660,8660,8660,8660,8660,8660,8660,8660,8660,8660,8660,8660,8660,8660,8660,8660,8660,8660,8660,8660,8660,8660,8660,8660,8660,8660,8660,8660,8660,8660,8660,8660,8660,8660,8660,8660,8660,8660,8660,8660,8660,8660,8660,8660,8660,8660,8660,8660,8660,8660,8660,8660,8660,8660,8660,8660,8660,8660,8660,
8660,8660,8660,8660,8660,8660,8660,8660,8660,8660,8660,8660,8660,8660,8660,8660,8660,8660,8660,8660,8660,8660,8660,8660,8660,8660,8660,8660,8660,8660,8660,8660,8660,8660,8660,8660,8660,8660,8660,8660,8660,8660,8660,8660,8660,8660,8660,8660,8660,8660,8660,8660,8660,8660,8660,8660,8660,8660,8660,8660,8660,8660,8660,8660,8660,8660,8660,8660,8660,8660,8660,8660,8660,8660,8660,8660,8660,8660,8660,8660,8660,8660,8660,8660,8660,8660,8660,8660,8660,8660,8660,8660,8660,8660,8660,8660,8660,8660,8660,8660,8660,8660,8660,8660,8660,8660,8660,8660,8660,8660,8660,8660,8660,8660,8660,8660,8660,8660,8660,8660,8660,8660,8660,8660,8660,8660,8660,8660,8660,8660,8660,8660,8660,8660,8660,8660,8660,8660,8660,8660,8660,8660,8660,8660,8660,8660,8660,8660,8660,8660,8660,8660,8660,8660,8660,8660,8660,8660,8660,8660,8660,8660,8660,8660,8660,8660,8660,8660,8660,8660,8660,8660,8660,8660,8660,8660,8660,8660,8660,8660,8660,8660,8660,8660,8660,8660,8660,8660,8660,8660,8660,8660,8660,8660,8660,8660,8660,8660,8660,8660,8660,8660,8660,8660,8660,8660,8660,8660,8660,8660,8660,8660,8660,8660,8660,8660,8660,8660,8660,8660,8660,8660,8660,8660,8660,8660,8660,8660,8660,8660,8660,8660,8660,8660,8660,8660,8660,8660,8660,8660,8660,8660,8660,8660,8660,8660,8660,8660,8660,8660,
8660,8660,8660,8660,8660,8660,8660,8660,8660,8660,8660,8660,8660,8660,8660,8660,8660,8660,8660,8660,8660,8660,8660,8660,8660,8660,8660,8660,8660,8660,8660,8660,8660,8660,8660,8660,8660,8660,8660,8660,8660,8660,8660,8660,8660,8660,8660,8660,8660,8660,8660,8660,8660,8660,8660,8660,8660,8660,8660,8660,8660,8660,8660,8660,8660,8660,8660,8660,8660,8660,8660,8660,8660,8660,8660,8660,8660,8660,8660,8660,8660,8660,8660,8660,8660,8660,8660,8660,8660,8660,8660,8660,8660,8660,8660,8660,8660,8660,8660,8660,8660,8660,8660,8660,8660,8660,8660,8660,8660,8660,8660,8660,8660,8660,8660,8660,8660,8660,8660,8660,8660,8660,8660,8660,8660,8660,8660,8660,8660,8660,8660,8660,8660,8660,8660,8660,8660,8660,8660,8660,8660,8660,8660,8660,8660,8660,8660,8660,8660,8660,8660,8660,8660,8660,8660,8660,8660,8660,8660,8660,8660,8660,8660,8660,8660,8660,8660,8660,8660,8660,8660,8660,8660,8660,8660,8660,8660,8660,8660,8660,8660,8660,8660,8660,8660,8660,8660,8660,8660,8660,8660,8660,8660,8660,8660,8660,8660,8660,8660,8660,8660,8660,8660,8660,8660,8660,8660,8660,8660,8660,8660,8660,8660,8660,8660,8660,8660,8660,8660,8660,8660,8660,8660,8660,8660,8660,8660,8660,8660,8660,8660,8660,8660,8660,8660,8660,8660,8660,8660,8660,8660,8660,8660,8660,8660,8660,8660,8660,8660,8660,
8660,8660,8660,8660,8660,8660,8660,8660,8660,8660,8660,8660,8660,8660,8660,8660,8660,8660,8660,8660,8660,8660,8660,8660,8660,8660,8660,8660,8660,8660,8660,8660,8660,8660,8660,8660,8660,8660,8660,8660,8660,8660,8660,8660,8660,8660,8660,8660,8660,8660,8660,8660,8660,8660,8660,8660,8660,8660,8660,8660,8660,8660,8660,8660,8660,8660,8660,8660,8660,8660,8660,8660,8660,8660,8660,8660,8660,8660,8660,8660,8660,8660,8660,8660,8660,8660,8660,8660,8660,8660,8660,8660,8660,8660,8660,8660,8660,8660,8660,8660,8660,8660,8660,8660,8660,8660,8660,8660,8660,8660,8660,8660,8660,8660,8660,8660,8660,8660,8660,8660,8660,8660,8660,8660,8660,8660,8660,8660,8660,8660,8660,8660,8660,8660,8660,8660,8660,8660,8660,8660,8660,8660,8660,8660,8660,8660,8660,8660,8660,8660,8660,8660,8660,8660,8660,8660,8660,8660,8660,8660,8660,8660,8660,8660,8660,8660,8660,8660,8660,8660,8660,8660,8660,8660,8660,8660,8660,8660,8660,8660,8660,8660,8660,8660,8660,8660,8660,8660,8660,8660,8660,8660,8660,8660,8660,8660,8660,8660,8660,8660,8660,8660,8660,8660,8660,8660,8660,8660,8660,8660,8660,8660,8660,8660,8660,8660,8660,8660,8660,8660,8660,8660,8660,8660,8660,8660,8660,8660,8660,8660,8660,8660,8660,8660,8660,8660,8660,8660,8660,8660,8660,8660,8660,8660,8660,8660,8660,8660,8660,8660,
8660,8660,8660,8660,8660,8660,8660,8660,8660,8660,8660,8660,8660,8660,8660,8660,8660,8660,8660,8660,8660,8660,8660,8660,8660,8660,8660,8660,8660,8660,8660,8660,8660,8660,8660,8660,8660,8660,8660,8660,8660,8660,8660,8660,8660,8660,8660,8660,8660,8660,8660,8660,8660,8660,8660,8660,8660,8660,8660,8660,8660,8660,8660,8660,8660,8660,8660,8660,8660,8660,8660,8660,8660,8660,8660,8660,8660,8660,8660,8660,8660,8660,8660,8660,8660,8660,8660,8660,8660,8660,8660,8660,8660,8660,8660,8660,8660,8660,8660,8660,8660,8660,8660,8660,8660,8660,8660,8660,8660,8660,8660,8660,8660,8660,8660,8660,8660,8660,8660,8660,8660,8660,8660,8660,8660,8660,8660,8660,8660,8660,8660,8660,8660,8660,8660,8660,8660,8660,8660,8660,8660,8660,8660,8660,8660,8660,8660,8660,8660,8660,8660,8660,8660,8660,8660,8660,8660,8660,8660,8660,8660,8660,8660,8660,8660,8660,8660,8660,8660,8660,8660,8660,8660,8660,8660,8660,8660,8660,8660,8660,8660,8660,8660,8660,8660,8660,8660,8660,8660,8660,8660,8660,8660,8660,8660,8660,8660,8660,8660,8660,8660,8660,8660,8660,8660,8660,8660,8660,8660,8660,8660,8660,8660,8660,8660,8660,8660,8660,8660,8660,8660,8660,8660,8660,8660,8660,8660,8660,8660,8660,8660,8660,8660,8660,8660,8660,8660,8660,8660,8660,8660,8660,8660,8660,8660,8660,8660,8660,8660,8660,
8660,8660,8660,8660,8660,8660,8660,8660,8660,8660,8660,8660,8660,8660,8660,8660,8660,8660,8660,8660,8660,8660,8660,8660,8660,8660,8660,8660,8660,8660,8660,8660,8660,8660,8660,8660,8660,8660,8660,8660,8660,8660,8660,8660,8660,8660,8660,8660,8660,8660,8660,8660,8660,8660,8660,8660,8660,8660,8660,8660,8660,8660,8660,8660,8660,8660,8660,8660,8660,8660,8660,8660,8660,8660,8660,8660,8660,8660,8660,8660,8660,8660,8660,8660,8660,8660,8660,8660,8660,8660,8660,8660,8660,8660,8660,8660,8660,8660,8660,8660,8660,8660,8660,8660,8660,8660,8660,8660,8660,8660,8660,8660,8660,8660,8660,8660,8660,8660,8660,8660,8660,8660,8660,8660,8660,8660,8660,8660,8660,8660,8660,8660,8660,8660,8660,8660,8660,8660,8660,8660,8660,8660,8660,8660,8660,8660,8660,8660,8660,8660,8660,8660,8660,8660,8660,8660,8660,8660,8660,8660,8660,8660,8660,8660,8660,8660,8660,8660,8660,8660,8660,8660,8660,8660,8660,8660,8660,8660,8660,8660,8660,8660,8660,8660,8660,8660,8660,8660,8660,8660,8660,8660,8660,8660,8660,8660,8660,8660,8660,8660,8660,8660,8660,8660,8660,8660,8660,8660,8660,8660,8660,8660,8660,8660,8660,8660,8660,8660,8660,8660,8660,8660,8660,8660,8660,8660,8660,8660,8660,8660,8660,8660,8660,8660,8660,8660,8660,8660,8660,8660,8660,8660,8660,8660,8660,8660,8660,8660,8660,8660,
8660,8660,8660,8660,8660,8660,8660,8660,8660,8660,8660,8660,8660,8660,8660,8660,8660,8660,8660,8660,8660,8660,8660,8660,8660,8660,8660,8660,8660,8660,8660,8660,8660,8660,8660,8660,8660,8660,8660,8660,8660,8660,8660,8660,8660,8660,8660,8660,8660,8660,8660,8660,8660,8660,8660,8660,8660,8660,8660,8660,8660,8660,8660,8660,8660,8660,8660,8660,8660,8660,8660,8660,8660,8660,8660,8660,8660,8660,8660,8660,8660,8660,8660,8660,8660,8660,8660,8660,8660,8660,8660,8660,8660,8660,8660,8660,8660,8660,8660,8660,8660,8660,8660,8660,8660,8660,8660,8660,8660,8660,8660,8660,8660,8660,8660,8660,8660,8660,8660,8660,8660,8660,8660,8660,8660,8660,8660,8660,8660,8660,8660,8660,8660,8660,8660,8660,8660,8660,8660,8660,8660,8660,8660,8660,8660,8660,8660,8660,8660,8660,8660,8660,8660,8660,8660,8660,8660,8660,8660,8660,8660,8660,8660,8660,8660,8660,8660,8660,8660,8660,8660,8660,8660,8660,8660,8660,8660,8660,8660,8660,8660,8660,8660,8660,8660,8660,8660,8660,8660,8660,8660,8660,8660,8660,8660,8660,8660,8660,8660,8660,8660,8660,8660,8660,8660,8660,8660,8660,8660,8660,8660,8660,8660,8660,8660,8660,8660,8660,8660,8660,8660,8660,8660,8660,8660,8660,8660,8660,8660,8660,8660,8660,8660,8660,8660,8660,8660,8660,8660,8660,8660,8660,8660,8660,8660,8660,8660,8660,8660,8660,
8660,8660,8660,8660,8660,8660,8660,8660,8660,8660,8660,8660,8660,8660,8660,8660,8660,8660,8660,8660,8660,8660,8660,8660,8660,8660,8660,8660,8660,8660,8660,8660,8660,8660,8660,8660,8660,8660,8660,8660,8660,8660,8660,8660,8660,8660,8660,8660,8660,8660,8660,8660,8660,8660,8660,8660,8660,8660,8660,8660,8660,8660,8660,8660,8660,8660,8660,8660,8660,8660,8660,8660,8660,8660,8660,8660,8660,8660,8660,8660,8660,8660,8660,8660,8660,8660,8660,8660,8660,8660,8660,8660,8660,8660,8660,8660,8660,8660,8660,8660,8660,8660,8660,8660,8660,8660,8660,8660,8660,8660,8660,8660,8660,8660,8660,8660,8660,8660,8660,8660,8660,8660,8660,8660,8660,8660,8660,8660,8660,8660,8660,8660,8660,8660,8660,8660,8660,8660,8660,8660,8660,8660,8660,8660,8660,8660,8660,8660,8660,8660,8660,8660,8660,8660,8660,8660,8660,8660,8660,8660,8660,8660,8660,8660,8660,8660,8660,8660,8660,8660,8660,8660,8660,8660,8660,8660,8660,8660,8660,8660,8660,8660,8660,8660,8660,8660,8660,8660,8660,8660,8660,8660,8660,8660,8660,8660,8660,8660,8660,8660,8660,8660,8660,8660,8660,8660,8660,8660,8660,8660,8660,8660,8660,8660,8660,8660,8660,8660,8660,8660,8660,8660,8660,8660,8660,8660,8660,8660,8660,8660,8660,8660,8660,8660,8660,8660,8660,8660,8660,8660,8660,8660,8660,8660,8660,8660,8660,8660,8660,8660
</data>
 </layer>
 <objectgroup id="9" name="bg props">
  <object id="1" gid="13121" x="1430" y="1864" width="32" height="32"/>
  <object id="2" gid="13121" x="488" y="1948" width="32" height="32"/>
  <object id="3" gid="13121" x="830.667" y="1452" width="32" height="32"/>
  <object id="4" gid="13121" x="581.333" y="1418.67" width="32" height="32"/>
  <object id="5" gid="13121" x="704" y="1334.67" width="32" height="32"/>
  <object id="6" gid="13121" x="994" y="2388" width="32" height="32"/>
  <object id="7" gid="13121" x="1025" y="1887" width="32" height="32"/>
  <object id="8" gid="13121" x="1335" y="1613" width="32" height="32"/>
  <object id="9" gid="13121" x="1051" y="1569" width="32" height="32"/>
  <object id="10" gid="13121" x="1393" y="2227" width="32" height="32"/>
  <object id="11" gid="13121" x="1776" y="2229" width="32" height="32"/>
  <object id="12" gid="13121" x="2382.67" y="2370.67" width="32" height="32"/>
  <object id="13" gid="13121" x="2636" y="2132" width="32" height="32"/>
  <object id="14" gid="13121" x="2433.33" y="1894.67" width="32" height="32"/>
  <object id="15" gid="13121" x="2204" y="1956" width="32" height="32"/>
  <object id="16" gid="13121" x="2610.67" y="2328" width="32" height="32"/>
  <object id="17" gid="13121" x="2197.33" y="2382.67" width="32" height="32"/>
  <object id="18" gid="13121" x="2254.67" y="1761.33" width="32" height="32"/>
  <object id="19" gid="13121" x="2312" y="1857" width="32" height="32"/>
  <object id="20" gid="13121" x="2125" y="1815" width="32" height="32"/>
  <object id="21" gid="13121" x="2526" y="2413" width="32" height="32"/>
  <object id="22" gid="13121" x="2278" y="2450" width="32" height="32"/>
  <object id="23" gid="13121" x="2644" y="1967" width="32" height="32"/>
  <object id="24" gid="13121" x="2706" y="2254" width="32" height="32"/>
  <object id="31" gid="12702" x="1439.33" y="930" width="96" height="128"/>
  <object id="37" gid="13121" x="732" y="2593.33" width="32" height="32"/>
  <object id="38" gid="13121" x="517.333" y="3188" width="32" height="32"/>
  <object id="39" gid="13121" x="1222.67" y="3392" width="32" height="32"/>
  <object id="40" gid="13121" x="1262.67" y="2628" width="32" height="32"/>
  <object id="41" gid="13121" x="1605.33" y="2578.67" width="32" height="32"/>
  <object id="42" gid="13121" x="2200" y="3196" width="32" height="32"/>
  <object id="43" gid="13121" x="1980" y="2524" width="32" height="32"/>
  <object id="44" gid="13121" x="50.6667" y="2664" width="32" height="32"/>
  <object id="45" gid="13121" x="70.6667" y="2050.67" width="32" height="32"/>
  <object id="46" gid="13121" x="120" y="1510.67" width="32" height="32"/>
  <object id="47" gid="13121" x="340" y="1142.67" width="32" height="32"/>
  <object id="48" gid="13121" x="397.333" y="628" width="32" height="32"/>
  <object id="49" gid="13121" x="80" y="905.33" width="32" height="32"/>
  <object id="50" gid="13121" x="785.333" y="646.67" width="32" height="32"/>
  <object id="51" gid="13121" x="1220" y="1014.67" width="32" height="32"/>
  <object id="52" gid="13121" x="1710.67" y="524" width="32" height="32"/>
  <object id="53" gid="13121" x="1157.33" y="412" width="32" height="32"/>
  <object id="54" gid="13121" x="926.667" y="534.667" width="32" height="32"/>
  <object id="55" gid="13121" x="2024" y="1020" width="32" height="32"/>
  <object id="56" gid="13121" x="2340" y="1093.33" width="32" height="32"/>
  <object id="57" gid="13121" x="2438.67" y="633.33" width="32" height="32"/>
  <object id="58" gid="13121" x="2094.67" y="490.667" width="32" height="32"/>
  <object id="59" gid="13121" x="2060" y="998.67" width="32" height="32"/>
  <object id="60" gid="13121" x="1552" y="1010.67" width="32" height="32"/>
  <object id="61" gid="13121" x="2002" y="948" width="32" height="32"/>
  <object id="62" gid="13121" x="1386" y="819" width="32" height="32"/>
  <object id="63" gid="13121" x="1362" y="857" width="32" height="32"/>
  <object id="64" gid="13121" x="1668" y="1313.33" width="32" height="32"/>
  <object id="65" gid="13121" x="1552" y="1578.67" width="32" height="32"/>
  <object id="66" gid="13121" x="1454" y="2412" width="32" height="32"/>
  <object id="67" gid="13121" x="1578" y="2318" width="32" height="32"/>
  <object id="68" gid="13121" x="1370" y="2310" width="32" height="32"/>
  <object id="69" gid="13121" x="1512" y="1912" width="32" height="32"/>
  <object id="84" gid="12584" x="2546.67" y="648" width="160" height="288"/>
  <object id="85" gid="12591" x="2460" y="1262.67" width="96" height="288"/>
  <object id="234" gid="12591" x="5060" y="2693.64" width="96" height="288"/>
  <object id="235" gid="12584" x="6092.73" y="1353.09" width="160" height="288"/>
  <object id="236" gid="12585" x="7858.06" y="1195.52" width="96" height="288"/>
  <object id="237" gid="12589" x="6309.58" y="695.515" width="96" height="288"/>
  <object id="238" gid="12590" x="7536.85" y="2253.09" width="96" height="288"/>
  <object id="580" gid="12585" x="3899" y="2278" width="96" height="288"/>
  <object id="581" gid="12584" x="5476" y="2938" width="160" height="288"/>
  <object id="582" gid="12587" x="5355.03" y="1056.12" width="96" height="288"/>
  <object id="584" gid="12590" x="4024" y="1188" width="96" height="288"/>
  <object id="585" gid="12584" x="2424" y="1732" width="160" height="288"/>
  <object id="586" gid="12584" x="2496" y="2684" width="160" height="288"/>
  <object id="587" gid="12587" x="2402" y="3180" width="96" height="288"/>
  <object id="588" gid="12585" x="1093.33" y="2664" width="96" height="288"/>
  <object id="589" gid="12688" x="120" y="1340" width="128" height="192"/>
  <object id="590" gid="12688" x="1820" y="552" width="128" height="192"/>
  <object id="591" gid="12689" x="546" y="672" width="96" height="192"/>
 </objectgroup>
 <layer id="7" width="250" height="110">
  <data encoding="csv">
0,0,0,0,0,0,0,0,0,0,0,0,0,0,0,0,0,0,0,0,0,0,0,0,0,0,0,0,0,0,0,0,0,0,0,0,0,0,0,0,0,0,0,0,0,0,0,0,0,0,0,0,0,0,0,0,0,0,0,0,0,0,0,0,0,0,0,0,0,0,0,0,0,0,0,0,0,0,0,0,0,0,0,0,0,0,0,0,0,0,0,0,0,0,0,0,0,0,0,0,0,0,0,0,0,0,0,0,0,0,0,0,0,0,0,0,0,0,0,0,0,0,0,0,0,0,0,0,0,0,0,0,0,0,0,0,0,0,0,0,0,0,0,0,0,0,0,0,0,0,0,0,0,0,0,0,0,0,0,0,0,0,0,0,0,0,0,0,0,0,0,0,0,0,0,0,0,0,0,0,0,0,0,0,0,0,0,0,0,0,0,0,0,0,0,0,0,0,0,0,0,0,0,0,0,0,0,0,0,0,0,0,0,0,0,0,0,0,0,0,0,0,0,0,0,0,0,0,0,0,0,0,0,0,0,0,0,0,0,0,0,0,0,0,0,0,0,0,0,0,
0,0,0,0,0,0,0,0,0,0,0,0,0,0,0,0,0,0,0,0,0,0,0,0,0,0,0,0,0,0,0,0,0,0,0,0,0,0,0,0,0,0,0,0,0,0,0,0,0,0,0,0,0,0,0,0,0,0,0,0,0,0,0,0,0,0,0,0,0,0,0,0,0,0,0,0,0,0,0,0,0,0,0,0,0,0,0,0,0,0,0,0,0,0,0,0,0,0,0,0,0,0,0,0,0,0,0,0,0,0,0,0,0,0,0,0,0,0,0,0,0,0,0,0,0,0,0,0,0,0,0,0,0,0,0,0,0,0,0,0,0,0,0,0,0,0,0,0,0,0,0,0,0,0,0,0,0,0,0,0,0,0,0,0,0,0,0,0,0,0,0,0,0,0,0,0,0,0,0,0,0,0,0,0,0,0,0,0,0,0,0,0,0,0,0,0,0,0,0,0,0,0,0,0,0,0,0,0,0,0,0,0,0,0,0,0,0,0,0,0,0,0,0,0,0,0,0,0,0,0,0,0,0,0,0,0,0,0,0,0,0,0,0,0,0,0,0,0,0,0,
0,0,0,0,0,0,0,0,0,0,0,0,0,0,0,0,0,0,0,0,0,0,0,0,0,0,0,0,0,0,0,0,0,0,0,0,0,0,0,0,0,0,0,0,0,0,0,0,0,0,0,0,0,0,0,0,0,0,0,0,0,0,0,0,0,0,0,0,0,0,0,0,0,0,0,0,0,0,0,0,0,0,0,0,0,0,0,0,0,0,0,0,0,0,0,0,0,0,0,0,0,0,0,0,0,0,0,0,0,0,0,0,0,0,0,0,0,0,0,0,0,0,0,0,0,0,0,0,0,0,0,0,0,0,0,0,0,0,0,0,0,0,0,0,0,0,0,0,0,0,0,0,0,0,0,0,0,0,0,0,0,0,0,0,0,0,0,0,0,0,0,0,0,0,0,0,0,0,0,0,0,0,0,0,0,0,0,0,0,0,0,0,0,0,0,0,0,0,0,0,0,0,0,0,0,0,0,0,0,0,0,0,0,0,0,0,0,0,0,0,0,0,0,0,0,0,0,0,0,0,0,0,0,0,0,0,0,0,0,0,0,0,0,0,0,0,0,0,0,0,
0,0,0,0,0,0,0,0,0,0,0,0,0,0,0,0,0,0,0,0,0,0,0,0,0,0,0,0,0,0,0,0,0,0,0,0,0,0,0,0,0,0,0,0,0,0,0,0,0,0,0,0,0,0,0,0,0,0,0,0,0,0,0,0,0,0,0,0,0,0,0,0,0,0,0,0,0,0,0,0,0,0,0,0,0,0,0,0,0,0,0,0,0,0,0,0,0,0,0,0,0,0,0,0,0,0,0,0,0,0,0,0,0,0,0,0,0,0,0,0,0,0,0,0,0,0,0,0,0,0,0,0,0,0,0,0,0,0,0,0,0,0,0,0,0,0,0,0,0,0,0,0,0,0,0,0,0,0,0,0,0,0,0,0,0,0,0,0,0,0,0,0,0,0,0,0,0,0,0,0,0,0,0,0,0,0,0,0,0,0,0,0,0,0,0,0,0,0,0,0,0,0,0,0,0,0,0,0,0,0,0,0,0,0,0,0,0,0,0,0,0,0,0,0,0,0,0,0,0,0,0,0,0,0,0,0,0,0,0,0,0,0,0,0,0,0,0,0,0,0,
0,0,0,0,0,0,0,0,0,0,0,0,0,0,0,0,0,0,0,0,0,0,0,0,0,0,0,0,0,0,0,0,0,0,0,0,0,0,0,0,0,0,0,0,0,0,0,0,0,0,0,0,0,0,0,0,0,0,0,0,0,0,0,0,0,0,0,0,0,0,0,0,0,0,0,0,0,0,0,0,0,0,0,0,0,0,0,0,0,0,0,0,0,0,0,0,0,0,0,0,0,0,0,0,0,0,0,0,0,0,0,0,0,0,0,0,0,0,0,0,0,0,0,0,0,0,0,0,0,0,0,0,0,0,0,0,0,0,0,0,0,0,0,0,0,0,0,0,0,0,0,0,0,0,0,0,0,0,0,0,0,0,0,0,0,0,0,0,0,0,0,0,0,0,0,0,0,0,0,0,0,0,0,0,0,0,0,0,0,0,0,0,0,0,0,0,0,0,0,0,0,0,0,0,0,0,0,0,0,0,0,0,0,0,0,0,0,0,0,0,0,0,0,0,0,0,0,0,0,0,0,0,0,0,0,0,0,0,0,0,0,0,0,0,0,0,0,0,0,0,
0,0,0,0,0,0,0,0,0,0,0,0,0,0,0,0,0,0,0,0,0,0,0,0,0,0,0,0,0,0,0,0,0,0,0,0,0,0,0,0,0,0,0,0,0,0,0,0,0,0,0,0,0,0,0,0,0,0,0,0,0,0,0,0,0,0,0,0,0,0,0,0,0,0,0,0,0,0,0,0,0,0,0,0,0,0,0,0,0,0,0,0,0,0,0,0,0,0,0,0,0,0,0,0,0,0,0,0,0,0,0,0,0,0,0,0,0,0,0,0,0,0,0,0,0,0,0,0,0,0,0,0,0,0,0,0,0,0,0,0,0,0,0,0,0,0,0,0,0,0,0,0,0,0,0,0,0,0,0,0,0,0,0,0,0,0,0,0,0,0,0,0,0,0,0,0,0,0,0,0,0,0,0,0,0,0,0,0,0,0,0,0,0,0,0,0,0,0,0,0,0,0,0,0,0,0,0,0,0,0,0,0,0,0,0,0,0,0,0,0,0,0,0,0,0,0,0,0,0,0,0,0,0,0,0,0,0,0,0,0,0,0,0,0,0,0,0,0,0,0,
0,0,0,0,0,0,0,0,0,0,0,0,0,0,0,0,0,0,0,0,0,0,0,0,0,0,0,0,0,0,0,0,0,0,0,0,0,0,0,0,0,0,0,0,0,0,0,0,0,0,0,0,0,0,0,0,0,0,0,0,0,0,0,0,0,0,0,0,0,0,0,0,0,0,0,0,0,0,0,0,0,0,0,0,0,0,0,0,0,0,0,0,0,0,0,0,0,0,0,0,0,0,0,0,0,0,0,0,0,0,0,0,0,0,0,0,0,0,0,0,0,0,0,0,0,0,0,0,0,0,0,0,0,0,0,0,0,0,0,0,0,0,0,0,0,0,0,0,0,0,0,0,0,0,0,0,0,0,0,0,0,0,0,0,0,0,0,0,0,0,0,0,0,0,0,0,0,0,0,0,0,0,0,0,0,0,0,0,0,0,0,0,0,0,0,0,0,0,0,0,0,0,0,0,0,0,0,0,0,0,0,0,0,0,0,0,0,0,0,0,0,0,0,0,0,0,0,0,0,0,0,0,0,0,0,0,0,0,0,0,0,0,0,0,0,0,0,0,0,0,
0,0,0,0,0,0,0,0,0,0,0,0,0,0,0,0,0,0,0,0,0,0,0,0,0,0,0,0,0,0,0,0,0,0,0,0,0,0,0,0,0,0,0,0,0,0,0,0,0,0,0,0,0,0,0,0,0,0,0,0,0,0,0,0,0,0,0,0,0,0,0,0,0,0,0,0,0,0,0,0,0,0,0,0,0,0,0,0,0,0,0,0,0,0,0,0,0,0,0,0,0,0,0,0,0,0,0,0,0,0,0,0,0,0,0,0,0,0,0,0,0,0,0,0,0,0,0,0,0,0,0,0,0,0,0,0,0,0,0,0,0,0,0,0,0,0,0,0,0,0,0,0,0,0,0,0,0,0,0,0,0,0,0,0,0,0,0,0,0,0,0,0,0,0,0,0,0,0,0,0,0,0,0,0,0,0,0,0,0,0,0,0,0,0,0,0,0,0,0,0,0,0,0,0,0,0,0,0,0,0,0,0,0,0,0,0,0,0,0,0,0,0,0,0,0,0,0,0,0,0,0,0,0,0,0,0,0,0,0,0,0,0,0,0,0,0,0,0,0,0,
0,0,0,0,0,0,0,0,0,0,0,0,0,0,0,0,0,0,0,0,0,0,0,0,0,0,0,0,0,0,0,0,0,0,0,0,0,0,0,0,0,0,0,0,0,0,0,0,0,0,0,0,0,0,0,0,0,0,0,0,0,0,0,0,0,0,0,0,0,0,0,0,0,0,0,0,0,0,0,0,0,0,0,0,0,0,0,0,0,0,0,0,0,0,0,0,0,0,0,0,0,0,0,0,0,0,0,0,0,0,0,0,0,0,0,0,0,0,0,0,0,0,0,0,0,0,0,0,0,0,0,0,0,0,0,0,0,0,0,0,0,0,0,0,0,0,0,0,0,0,0,0,0,0,0,0,0,0,0,0,0,0,0,0,0,0,0,0,0,0,0,0,0,0,0,0,0,0,0,0,0,0,0,0,0,0,0,0,0,0,0,0,0,0,0,0,0,0,0,0,0,0,0,0,0,0,0,0,0,0,0,0,0,0,0,0,0,0,0,0,0,0,0,0,0,0,0,0,0,0,0,0,0,0,0,0,0,0,0,0,0,0,0,0,0,0,0,0,0,0,
0,0,0,0,0,0,0,0,0,0,0,0,0,0,0,0,0,0,0,0,0,0,0,0,0,0,0,0,0,0,0,0,0,0,0,0,0,0,0,0,0,0,0,0,0,0,0,0,0,0,0,0,0,0,0,0,0,0,0,0,0,0,0,0,0,0,0,0,0,0,0,0,0,0,0,0,0,0,0,0,0,0,0,0,0,0,0,0,0,0,0,0,0,0,0,0,0,0,0,0,0,0,0,0,0,0,0,0,0,0,0,0,0,0,0,0,0,0,0,0,0,0,0,0,0,0,0,0,0,0,0,0,0,0,0,0,0,0,0,0,0,0,0,0,0,0,0,0,0,0,0,0,0,0,0,0,0,0,0,0,0,0,0,0,0,0,0,0,0,0,0,0,0,0,0,0,0,0,0,0,0,0,0,0,0,0,0,0,0,0,0,0,0,0,0,0,0,0,0,0,0,0,0,0,0,0,0,0,0,0,0,0,0,0,0,0,0,0,0,0,0,0,0,0,0,0,0,0,0,0,0,0,0,0,0,0,0,0,0,0,0,0,0,0,0,0,0,0,0,0,
0,0,0,0,0,0,0,0,0,0,0,0,0,0,0,0,0,0,0,0,0,0,0,0,0,0,0,0,0,0,0,0,0,0,0,0,0,0,0,0,0,0,0,0,0,0,0,0,0,0,0,0,0,0,0,0,0,0,0,0,0,0,0,0,0,0,0,0,0,0,0,0,0,0,0,0,0,0,0,0,0,0,0,0,0,0,0,0,0,0,0,0,0,0,0,0,0,0,0,0,0,0,0,0,0,0,0,0,0,0,0,0,0,0,0,0,0,0,0,0,0,0,0,0,0,0,0,0,0,0,0,0,0,0,0,0,0,0,0,0,0,0,0,0,0,0,0,0,0,0,0,0,0,0,0,0,0,0,0,0,0,0,0,0,0,0,0,0,0,0,0,0,0,0,0,0,0,0,0,0,0,0,0,0,0,0,0,0,0,0,0,0,0,0,0,0,0,0,0,0,0,0,0,0,0,0,0,0,0,0,0,0,0,0,0,0,0,0,0,0,0,0,0,0,0,0,0,0,0,0,0,0,0,0,0,0,0,0,0,0,0,0,0,0,0,0,0,0,0,0,
0,0,0,0,0,0,0,0,0,0,0,0,0,0,0,0,0,0,0,0,0,0,0,0,0,0,0,0,0,0,0,0,0,0,0,0,0,0,0,0,0,0,0,0,0,0,0,0,0,0,0,0,0,0,0,0,0,0,0,0,0,0,0,0,0,0,0,0,0,0,0,0,0,0,0,0,0,0,0,0,0,0,0,0,0,0,0,0,0,0,0,0,0,0,0,0,0,0,0,0,0,0,0,0,0,0,0,0,0,0,0,0,0,0,0,0,0,0,0,0,0,0,0,0,0,0,0,0,0,0,0,0,0,0,0,0,0,0,0,0,0,0,0,0,0,0,0,0,0,0,0,0,0,0,0,0,0,0,0,0,0,0,0,0,0,0,0,0,0,0,0,0,0,0,0,0,0,0,0,0,0,0,0,0,0,0,0,0,0,0,0,0,0,0,0,0,0,0,0,0,0,0,0,0,0,0,0,0,0,0,0,0,0,0,0,0,0,0,0,0,0,0,0,0,0,0,0,0,0,0,0,0,0,0,0,0,0,0,0,0,0,0,0,0,0,0,0,0,0,0,
0,0,0,0,0,0,0,0,0,0,0,0,0,0,0,0,0,0,0,0,0,0,0,0,0,0,0,0,0,0,0,0,0,0,0,0,0,0,0,0,0,0,0,0,0,0,0,0,0,0,0,0,0,0,0,0,0,0,0,0,0,0,0,0,0,0,0,0,0,0,0,0,0,0,0,0,0,0,0,0,0,0,0,0,0,0,0,0,0,0,0,0,0,0,0,0,0,0,0,0,0,0,0,0,0,0,0,0,0,0,0,0,0,0,0,0,0,0,0,0,0,0,0,0,0,0,0,0,0,0,0,0,0,0,0,0,0,0,0,0,0,0,0,0,0,0,0,0,0,0,0,0,0,0,0,0,0,0,0,0,0,0,0,0,0,0,0,0,0,0,0,0,0,0,0,0,0,0,0,0,0,0,0,0,0,0,0,0,0,0,0,0,0,0,0,0,0,0,0,0,0,0,0,0,0,0,0,0,0,0,0,0,0,0,0,0,0,0,0,0,0,0,0,0,0,0,0,0,0,0,0,0,0,0,0,0,0,0,0,0,0,0,0,0,0,0,0,0,0,0,
0,0,0,0,0,0,0,0,0,0,0,0,0,0,0,0,0,0,0,0,0,0,0,0,0,0,0,0,0,0,0,0,0,0,0,0,0,0,0,0,0,0,0,0,0,0,0,0,0,0,0,0,0,0,0,0,0,0,0,0,0,0,0,0,0,0,0,0,0,0,0,0,0,0,0,0,0,0,0,0,0,0,0,0,0,0,0,0,0,0,0,0,0,0,0,0,0,0,0,0,0,0,0,0,0,0,0,0,0,0,0,0,0,0,0,0,0,0,0,0,0,0,0,0,0,0,0,0,0,0,0,0,0,0,0,0,0,0,0,0,0,0,0,0,0,0,0,0,0,0,0,0,0,0,0,0,0,0,0,0,0,0,0,0,0,0,0,0,0,0,0,0,0,0,0,0,0,0,0,0,0,0,0,0,0,0,0,0,0,0,0,0,0,0,0,0,0,0,0,0,0,0,0,0,0,0,0,0,0,0,0,0,0,0,0,0,0,0,0,0,0,0,0,0,0,0,0,0,0,0,0,0,0,0,0,0,0,0,0,0,0,0,0,0,0,0,0,0,0,0,
0,0,0,0,0,0,0,0,0,0,0,0,0,0,0,0,0,0,0,0,0,0,0,0,0,0,0,0,0,0,0,0,0,0,0,0,0,0,0,0,0,0,0,0,0,0,0,0,0,0,0,0,0,0,0,0,0,0,0,0,0,0,0,0,0,0,0,0,0,0,0,0,0,0,0,0,0,0,0,0,0,0,0,0,0,0,0,0,0,0,0,0,0,0,0,0,0,0,0,0,0,0,0,0,0,0,0,0,0,0,0,0,0,0,0,0,0,0,0,0,0,0,0,0,0,0,0,0,0,0,0,0,0,0,0,0,0,0,0,0,0,0,0,0,0,0,0,0,0,0,0,0,0,0,0,0,0,0,0,0,0,0,0,0,0,0,0,0,0,0,0,0,0,0,0,0,0,0,0,0,0,0,0,0,0,0,0,0,0,0,0,0,0,0,0,0,0,0,0,0,0,0,0,0,0,0,0,0,0,0,0,0,0,0,0,0,0,0,0,0,0,0,0,0,0,0,0,0,0,0,0,0,0,0,0,0,0,0,0,0,0,0,0,0,0,0,0,0,0,0,
0,0,0,0,0,0,0,0,0,0,0,0,0,0,0,0,0,0,0,0,0,0,0,0,0,0,0,0,0,0,0,0,0,0,0,0,0,0,0,0,0,0,0,0,0,0,0,0,0,0,0,0,0,0,0,0,0,0,0,0,0,0,0,0,0,0,0,0,0,0,0,0,0,0,0,0,0,0,0,0,0,0,0,0,0,0,0,0,0,0,0,0,0,0,0,0,0,0,0,0,0,0,0,0,0,0,0,0,0,0,0,0,0,0,0,0,0,0,0,0,0,0,0,0,0,0,0,0,0,0,0,0,0,0,0,0,0,0,0,0,0,0,0,0,0,0,0,0,0,0,0,0,0,0,0,0,0,0,0,0,0,0,0,0,0,0,0,0,0,0,0,0,0,0,0,0,0,0,0,0,0,0,0,0,0,0,0,0,0,0,0,0,0,0,0,0,0,0,0,0,0,0,0,0,0,0,0,0,0,0,0,0,0,0,0,0,0,0,0,0,0,0,0,0,0,0,0,0,0,0,0,0,0,0,0,0,0,0,0,0,0,0,0,0,0,0,0,0,0,0,
0,0,0,0,0,0,0,0,0,0,0,0,0,0,0,0,0,0,0,0,0,0,0,0,0,0,0,0,0,0,0,0,0,0,0,0,0,0,0,0,0,0,0,0,0,0,0,0,0,0,0,0,0,0,0,0,0,0,0,0,0,0,0,0,0,0,0,0,0,0,0,0,0,0,0,0,0,0,0,0,0,0,0,0,0,0,0,0,0,0,0,0,0,0,0,0,0,0,0,0,0,0,0,0,0,0,0,0,0,0,0,0,0,0,0,0,0,0,0,0,0,0,0,0,0,0,0,0,0,0,0,0,0,0,0,0,0,0,0,0,0,0,0,0,0,0,0,0,0,0,0,0,0,0,0,0,0,0,0,0,0,0,0,0,0,0,0,0,0,0,0,0,0,0,0,0,0,0,0,0,0,0,0,0,0,0,0,0,0,0,0,0,0,0,0,0,0,0,0,0,0,0,0,0,0,0,0,0,0,0,0,0,0,0,0,0,0,0,0,0,0,0,0,0,0,0,0,0,0,0,0,0,0,0,0,0,0,0,0,0,0,0,0,0,0,0,0,0,0,0,
0,0,0,0,0,0,0,0,0,0,0,0,0,0,0,0,0,0,0,0,0,0,0,0,0,0,0,0,0,0,0,0,0,0,0,0,0,0,0,0,0,0,0,0,0,0,0,0,0,0,0,0,0,0,0,0,0,0,0,0,0,0,0,0,0,0,0,0,0,0,0,0,0,0,0,0,0,0,0,0,0,0,0,0,0,0,0,0,0,0,0,0,0,0,0,0,0,0,0,0,0,0,0,0,0,0,0,0,0,0,0,0,0,0,0,0,0,0,0,0,0,0,0,0,0,0,0,0,0,0,0,0,0,0,0,0,0,0,0,0,0,0,0,0,0,0,0,0,0,0,0,0,0,0,0,0,0,0,0,0,0,0,0,0,0,0,0,0,0,0,0,0,0,0,0,0,0,0,0,0,0,0,0,0,0,0,0,0,0,0,0,0,0,0,0,0,0,0,0,0,0,0,0,0,0,0,0,0,0,0,0,0,0,0,0,0,0,0,0,8830,8831,8832,8833,8834,8835,8836,0,0,0,0,0,0,0,0,0,0,0,0,0,0,0,0,0,0,0,0,0,0,0,0,
0,0,0,0,0,0,0,0,0,0,0,0,0,0,0,0,0,0,0,0,0,0,0,0,0,0,0,0,0,0,0,0,0,0,0,0,0,0,0,0,0,0,0,0,0,0,0,0,0,0,0,0,0,0,0,0,0,0,0,0,0,0,0,0,0,0,0,0,0,0,0,0,0,0,0,0,0,0,0,0,0,0,0,0,0,0,0,0,0,0,0,0,0,0,0,0,0,0,0,0,0,0,0,0,0,0,0,0,0,0,0,0,0,0,0,0,0,0,0,0,0,0,0,0,0,0,0,0,0,0,0,0,0,0,0,0,0,0,0,0,0,0,0,0,0,0,0,0,0,0,0,0,0,0,0,0,0,0,0,0,0,0,0,0,0,0,0,0,0,0,0,0,0,0,0,0,0,0,0,0,0,0,0,0,0,0,0,0,0,0,0,0,0,0,0,0,0,0,0,0,0,0,0,0,0,0,0,0,0,0,0,0,0,0,0,0,0,0,0,8894,8895,8896,8897,8898,8899,8900,0,0,0,0,0,0,0,0,0,0,0,0,0,0,0,0,0,0,0,0,0,0,0,0,
0,0,0,0,0,0,0,0,0,0,0,0,0,0,0,0,0,0,0,0,0,0,0,0,0,0,0,0,0,0,0,0,0,0,0,0,0,0,0,0,0,0,0,0,0,0,0,0,0,0,0,0,0,0,0,0,0,0,0,0,0,0,0,0,0,0,0,0,0,0,0,0,0,0,0,0,0,0,0,0,0,0,0,0,0,0,0,0,0,0,0,0,0,0,0,0,0,0,0,0,0,0,0,0,0,0,0,0,0,0,0,0,0,0,0,0,0,0,0,0,0,0,0,0,0,0,0,0,0,0,0,0,0,0,0,0,0,0,0,0,0,0,0,0,0,0,0,0,0,0,0,0,0,0,0,0,0,0,0,0,0,0,0,0,0,0,0,0,0,0,0,0,0,0,0,0,0,0,0,0,0,0,0,0,0,0,0,0,0,0,0,0,0,0,0,0,0,0,0,0,0,0,0,0,0,0,0,0,0,0,0,0,0,0,0,0,0,0,0,8958,8959,8960,8961,8962,8963,8964,0,0,0,0,0,0,0,0,0,0,0,0,0,0,0,0,0,0,0,0,0,0,0,0,
0,0,0,0,0,0,0,0,0,0,0,0,0,0,0,0,0,0,0,0,0,0,0,0,0,0,0,0,0,0,0,0,0,0,0,0,0,0,0,0,0,0,0,0,0,0,0,0,0,0,0,0,0,0,0,0,0,0,0,0,0,0,0,0,0,0,0,0,0,0,0,0,0,0,0,0,0,0,0,0,0,0,0,0,0,0,0,0,0,0,0,0,0,0,0,0,0,0,0,0,0,0,0,0,0,0,0,0,0,0,0,0,0,0,0,0,0,0,0,0,0,0,0,0,0,0,0,0,0,0,0,0,0,0,0,0,0,0,0,0,0,0,0,0,0,0,0,0,0,0,0,0,0,0,0,0,0,0,0,0,0,0,0,0,0,0,0,0,0,0,0,0,0,0,0,0,0,0,0,0,0,0,0,0,0,0,0,0,0,0,0,0,0,0,0,0,0,0,0,0,0,0,0,0,0,0,0,0,0,0,0,0,0,0,0,0,0,0,0,9022,9023,9024,9025,9026,9027,9028,0,0,0,0,0,0,0,0,0,0,0,0,0,0,0,0,0,0,0,0,0,0,0,0,
0,0,0,0,0,0,0,0,0,0,0,0,0,0,0,0,0,0,0,0,0,0,0,0,0,0,0,0,0,0,0,0,0,0,0,0,0,0,0,0,0,0,0,0,0,0,0,0,0,0,0,0,0,0,0,0,0,0,0,0,0,0,0,0,0,0,0,0,0,0,0,0,0,0,0,0,0,0,0,0,0,0,0,0,0,0,0,0,0,0,0,0,0,0,0,0,0,0,0,0,0,0,0,0,0,0,0,0,0,0,0,0,0,0,0,0,0,0,0,0,0,0,0,0,0,0,0,0,0,0,0,0,0,0,0,0,0,0,0,0,0,0,0,0,0,0,0,0,0,0,0,0,0,0,0,0,0,0,0,0,0,0,0,0,0,0,0,0,0,0,0,0,0,0,0,0,0,0,0,0,0,0,0,0,0,0,0,0,0,0,0,0,0,0,0,0,0,0,0,0,0,0,0,0,0,0,0,0,0,0,0,0,0,0,0,0,0,0,0,9086,9087,9088,9089,9090,9091,9092,0,0,0,0,0,0,0,0,0,0,0,0,0,0,0,0,0,0,0,0,0,0,0,0,
0,0,0,0,0,0,0,0,0,0,0,0,0,0,0,0,0,0,0,0,0,0,0,0,0,0,0,0,0,0,0,0,0,0,0,0,0,0,0,0,0,0,0,0,0,0,0,0,0,0,0,0,0,0,0,0,0,0,0,0,0,0,0,0,0,0,0,0,0,0,0,0,0,0,0,0,0,0,0,0,0,0,0,0,0,0,0,0,0,0,0,0,0,0,0,0,0,0,0,0,0,0,0,0,0,0,0,0,0,0,0,0,0,0,0,0,0,0,0,0,0,0,0,0,0,0,0,0,0,0,0,0,0,0,0,0,0,0,0,0,0,0,0,0,0,0,0,0,0,0,0,0,0,0,0,0,0,0,0,0,0,0,0,0,0,0,0,0,0,0,0,0,0,0,0,0,0,0,0,0,0,0,0,0,0,0,0,0,0,0,0,0,0,0,0,0,0,0,0,0,0,0,0,0,0,0,0,0,0,0,0,0,0,0,0,0,0,0,0,9150,9151,9152,9153,9154,9155,9156,0,0,0,0,0,0,0,0,0,0,0,0,0,0,0,0,0,0,0,0,0,0,0,0,
0,0,0,0,0,0,0,0,0,0,0,0,0,0,0,0,0,0,0,0,0,0,0,0,0,0,0,0,0,0,0,0,0,0,0,0,0,0,0,0,0,0,0,0,0,0,0,0,0,0,0,0,0,0,0,0,0,0,0,0,0,0,0,0,0,0,0,0,0,0,0,0,0,0,0,0,0,0,0,0,0,0,0,0,0,0,0,0,0,0,0,0,0,0,0,0,0,0,0,0,0,0,0,0,0,0,0,0,0,0,0,0,0,0,0,0,0,0,0,0,0,0,0,0,0,0,0,0,0,0,0,0,0,0,0,0,0,0,0,0,0,0,0,0,0,0,0,0,0,0,0,0,0,0,0,0,0,0,0,0,0,0,0,0,0,0,0,0,0,0,0,0,0,0,0,0,0,0,0,0,0,0,0,0,0,0,0,0,0,0,0,0,0,0,0,0,0,0,0,0,0,0,0,0,0,0,0,0,0,0,0,0,0,0,0,0,0,0,0,0,0,0,0,0,0,0,0,0,0,0,0,0,0,0,0,0,0,0,0,0,0,0,0,0,0,0,0,0,0,0,
0,0,0,0,0,0,0,0,0,0,0,0,0,0,0,0,0,0,0,0,0,0,0,0,0,0,0,0,0,0,0,0,0,0,0,0,0,0,0,0,0,0,0,0,0,0,0,0,0,0,0,0,0,0,0,0,0,0,0,0,0,0,0,0,0,0,0,0,0,0,0,0,0,0,0,0,0,0,0,0,0,0,0,0,0,0,0,0,0,0,0,0,0,0,0,0,0,0,0,0,0,0,0,0,0,0,0,0,0,0,0,0,0,0,0,0,0,0,0,0,0,0,0,0,0,0,0,0,0,0,0,0,0,0,0,0,0,0,0,0,0,0,0,0,0,0,0,0,0,0,0,0,0,0,0,0,0,0,0,0,0,0,0,0,0,0,0,0,0,0,0,0,0,0,0,0,0,0,0,0,0,0,0,0,0,0,0,0,0,0,0,0,0,0,0,0,0,0,0,0,0,0,0,0,0,0,0,0,0,0,0,0,0,0,0,0,0,0,0,0,0,0,0,0,0,0,0,0,0,0,0,0,0,0,0,0,0,0,0,0,0,0,0,0,0,0,0,0,0,0,
0,0,0,0,0,0,0,0,0,0,0,0,0,0,0,0,0,0,0,0,0,0,0,0,0,0,0,0,0,0,0,0,0,0,0,0,0,0,0,0,0,0,0,0,0,0,0,0,0,0,0,0,0,0,0,0,0,0,0,0,0,0,0,0,0,0,0,0,0,0,0,0,0,0,0,0,0,0,0,0,0,0,0,0,0,0,0,0,0,0,0,0,0,0,0,0,0,0,0,0,0,0,0,0,0,0,0,0,0,0,0,0,0,0,0,0,0,0,0,0,0,0,0,0,0,0,0,0,0,0,0,0,0,0,0,0,0,0,0,0,0,0,0,0,0,0,0,0,0,0,0,0,0,0,0,0,0,0,0,0,0,0,0,0,0,0,0,0,0,0,0,0,0,0,0,0,0,0,0,0,0,0,0,0,0,0,0,0,0,0,0,0,0,0,0,0,0,0,0,0,0,0,0,0,0,0,0,0,0,0,0,0,0,0,0,0,0,0,0,0,0,0,0,0,0,0,0,0,0,0,0,0,0,0,0,0,0,0,0,0,0,0,0,0,0,0,0,0,0,0,
0,0,0,0,0,0,0,0,0,0,0,0,0,0,0,0,0,0,0,0,0,0,0,0,0,0,0,0,0,0,0,0,0,0,0,0,0,0,0,0,0,0,0,0,0,0,0,0,0,0,0,0,0,0,0,0,0,0,0,0,0,0,0,0,0,0,0,0,0,0,0,0,0,0,0,0,0,0,0,0,0,0,0,0,0,0,0,0,0,0,0,0,0,0,0,0,0,0,0,0,0,0,0,0,0,0,0,0,0,0,0,0,0,0,0,0,0,0,0,0,0,0,0,0,0,0,0,0,0,0,0,0,0,0,0,0,0,0,0,0,0,0,0,0,0,0,0,0,0,0,0,0,0,0,0,0,0,0,0,0,0,0,0,0,0,0,0,0,0,0,0,0,0,0,0,0,0,0,0,0,0,0,0,0,0,0,0,0,0,0,0,0,0,0,0,0,0,0,0,0,0,0,0,0,0,0,0,0,0,0,0,0,0,0,0,0,0,0,0,0,0,0,0,0,0,0,0,0,0,0,0,0,0,0,0,0,0,0,0,0,0,0,0,0,0,0,0,0,0,0,
0,0,0,0,0,0,0,0,0,0,0,0,0,0,0,0,0,0,0,0,0,0,0,0,0,0,0,0,0,0,0,0,0,0,0,0,0,0,0,0,0,0,0,0,0,0,0,0,0,0,0,0,0,0,0,0,0,0,0,0,0,0,0,0,0,0,0,0,0,0,0,0,0,0,0,0,0,0,0,0,0,0,0,0,0,0,0,0,0,0,0,0,0,0,0,0,0,0,0,0,0,0,0,0,0,0,0,0,0,0,0,0,0,0,0,0,0,0,0,0,0,0,0,0,0,0,0,0,0,0,0,0,0,0,0,0,0,0,0,0,0,0,0,0,0,0,0,0,0,0,0,0,0,0,0,0,0,0,0,0,0,0,0,0,0,0,0,0,0,0,0,0,0,0,0,0,0,0,0,0,0,0,0,0,0,0,0,0,0,0,0,0,0,0,0,0,0,0,0,0,0,0,0,0,0,0,0,0,0,0,0,0,0,0,0,0,0,0,0,0,0,0,0,0,0,0,0,0,0,0,0,0,0,0,0,0,0,0,0,0,0,0,0,0,0,0,0,0,0,0,
0,0,0,0,0,0,0,0,0,0,0,0,0,0,0,0,0,0,0,0,0,0,0,0,0,0,0,0,0,0,0,0,0,0,0,0,0,0,0,0,0,0,0,0,0,0,0,0,0,0,0,0,0,0,0,0,0,0,0,0,0,0,0,0,0,0,0,0,0,0,0,0,0,0,0,0,0,0,0,0,0,0,0,0,0,0,0,0,0,0,0,0,0,0,0,0,0,0,0,0,0,0,0,0,0,0,0,0,0,0,0,0,0,0,0,0,0,0,0,0,0,0,0,0,0,0,0,0,0,0,0,0,0,0,0,0,0,0,0,0,0,0,0,0,0,0,0,0,0,0,0,0,0,0,0,0,0,0,0,0,0,0,0,0,0,0,0,0,0,0,0,0,0,0,0,0,0,0,0,0,0,0,0,0,0,0,0,0,0,0,0,0,0,0,0,0,0,0,0,0,0,0,0,0,0,0,0,0,0,0,0,0,0,0,0,0,0,0,0,0,0,0,0,0,0,0,0,0,0,0,0,0,0,0,0,0,0,0,0,0,0,0,0,0,0,0,0,0,0,0,
0,0,0,0,0,0,0,0,0,0,0,0,0,0,0,0,0,0,0,0,0,0,0,0,0,0,0,0,0,0,0,0,0,0,0,0,0,0,0,0,0,0,0,0,0,0,0,0,0,0,0,0,0,0,0,0,0,0,0,0,0,0,0,0,0,0,0,0,0,0,0,0,0,0,0,0,0,0,0,0,0,0,0,0,0,0,0,0,0,0,0,0,0,0,0,0,0,0,0,0,0,0,0,0,0,0,0,0,0,0,0,0,0,0,0,0,0,0,0,0,0,0,0,0,0,0,0,0,0,0,0,0,0,0,0,0,0,0,0,0,0,0,0,0,0,0,0,0,0,0,0,0,0,0,0,0,0,0,0,0,0,0,0,0,0,0,0,0,0,0,0,0,0,0,0,0,0,0,0,0,0,0,0,0,0,0,0,0,0,0,0,0,0,0,0,0,0,0,0,0,0,0,0,0,0,0,0,0,0,0,0,0,0,0,0,0,0,0,0,0,0,0,0,0,0,0,0,0,0,0,0,0,0,0,0,0,0,0,0,0,0,0,0,0,0,0,0,0,0,0,
0,0,0,0,0,0,0,0,0,0,0,0,0,0,0,0,0,0,0,0,0,0,0,0,0,0,0,0,0,0,0,0,0,0,0,0,0,0,0,0,0,0,0,0,0,0,0,0,0,0,0,0,0,0,0,0,0,0,0,0,0,0,0,0,0,0,0,0,0,0,0,0,0,0,0,0,0,0,0,0,0,0,0,0,0,0,0,0,0,0,0,0,0,0,0,0,0,0,0,0,0,0,0,0,0,0,0,0,0,0,0,0,0,0,0,0,0,0,0,0,0,0,0,0,0,0,0,0,0,0,0,0,0,0,0,0,0,0,0,0,0,0,0,0,0,0,0,0,0,0,0,0,0,0,0,0,0,0,0,0,0,0,0,0,0,0,0,0,0,0,0,0,0,0,0,0,0,0,0,0,0,0,0,0,0,0,0,0,0,0,0,0,0,0,0,0,0,0,0,0,0,0,0,0,0,0,0,0,0,0,0,0,0,0,0,0,0,0,0,0,0,0,0,0,0,0,0,0,0,0,0,0,0,0,0,0,0,0,0,0,0,0,0,0,0,0,0,0,0,0,
0,0,0,0,0,0,0,0,0,0,0,0,0,0,0,0,0,0,0,0,0,0,0,0,0,0,0,0,0,0,0,0,0,0,0,0,0,0,0,0,0,0,0,0,0,0,0,0,0,0,0,0,0,0,0,0,0,0,0,0,0,0,0,0,0,0,0,0,0,0,0,0,0,0,0,0,0,0,0,0,0,0,0,0,0,0,0,0,0,0,0,0,0,0,0,0,0,0,0,0,0,0,0,0,0,0,0,0,0,0,0,0,0,0,0,0,0,0,0,0,0,0,0,0,0,0,0,0,0,0,0,0,0,0,0,0,0,0,0,0,0,0,0,0,0,0,0,0,0,0,0,0,0,0,0,0,0,0,0,0,0,0,0,0,0,0,0,0,0,0,0,0,0,0,0,0,0,0,0,0,0,0,0,0,0,0,0,0,0,0,0,0,0,0,0,0,0,0,0,0,0,0,0,0,0,0,0,0,0,0,0,0,0,0,0,0,0,0,0,0,0,0,0,0,0,0,0,0,0,0,0,0,0,0,0,0,0,0,0,0,0,0,0,0,0,0,0,0,0,0,
0,0,0,0,0,0,0,0,0,0,0,0,0,0,0,0,0,0,0,0,0,0,0,0,0,0,0,0,0,0,0,0,0,0,0,0,0,0,0,0,0,0,0,0,0,0,0,0,0,0,0,0,0,0,0,0,0,0,0,0,0,0,0,0,0,0,0,0,0,0,0,0,0,0,0,0,0,0,0,0,0,0,0,0,0,0,0,0,0,0,0,0,0,0,0,0,0,0,0,0,0,0,0,0,0,0,0,0,0,0,0,0,0,0,0,0,0,0,0,0,0,0,0,0,0,0,0,0,0,0,0,0,0,0,0,0,0,0,0,0,0,0,0,0,0,0,0,0,0,0,0,0,0,0,0,0,0,0,0,0,0,0,0,0,0,0,0,0,0,0,0,0,0,0,0,0,0,0,0,0,0,0,0,0,0,0,0,0,0,0,0,0,0,0,0,0,0,0,0,0,0,0,0,0,0,0,0,0,0,0,0,0,0,0,0,0,0,0,0,0,0,0,0,0,0,0,0,0,0,0,0,0,0,0,0,0,0,0,0,0,0,0,0,0,0,0,0,0,0,0,
0,0,0,0,0,0,0,0,0,0,0,0,0,0,0,0,0,0,0,0,0,0,0,0,0,0,0,0,0,0,0,0,0,0,0,0,0,0,0,0,0,0,0,0,0,0,0,0,0,0,0,0,0,0,0,0,0,0,0,0,0,0,0,0,0,0,0,0,0,0,0,0,0,0,0,0,0,0,0,0,0,0,0,0,0,0,0,0,0,0,0,0,0,0,0,0,0,0,0,0,0,0,0,0,0,0,0,0,0,0,0,0,0,0,0,0,0,0,0,0,0,0,0,0,0,0,0,0,0,0,0,0,0,0,0,0,0,0,0,0,0,0,0,0,0,0,0,0,0,0,0,0,0,0,0,0,0,0,0,0,0,0,0,0,0,0,0,0,0,0,0,0,0,0,0,0,0,0,0,0,0,0,0,0,0,0,0,0,0,0,0,0,0,0,0,0,0,0,0,0,0,0,0,0,0,0,0,0,0,0,0,0,0,0,0,0,0,0,0,0,0,0,0,0,0,0,0,0,0,0,0,0,0,0,0,0,0,0,0,0,0,0,0,0,0,0,0,0,0,0,
0,0,0,0,0,0,0,0,0,0,0,0,0,0,0,0,0,0,0,0,0,0,0,0,0,0,0,0,0,0,0,0,0,0,0,0,0,0,0,0,0,0,0,0,0,0,0,0,0,0,0,0,0,0,0,0,0,0,0,0,0,0,0,0,0,0,0,0,0,0,0,0,0,0,0,0,0,0,0,0,0,0,0,0,0,0,0,0,0,0,0,0,0,0,0,0,0,0,0,0,0,0,0,0,0,0,0,0,0,0,0,0,0,0,0,0,0,0,0,0,0,0,0,0,0,0,0,0,0,0,0,0,0,0,0,0,0,0,0,0,0,0,0,0,0,0,0,0,0,0,0,0,0,0,0,0,0,0,0,0,0,0,0,0,0,0,0,0,0,0,0,0,0,0,0,0,0,0,0,0,0,0,0,0,0,0,0,0,0,0,0,0,0,0,0,0,0,0,0,0,0,0,0,0,0,0,0,0,0,0,0,0,0,0,0,0,0,0,0,0,0,0,0,0,0,0,0,0,0,0,0,0,0,0,0,0,0,0,0,0,0,0,0,0,0,0,0,0,0,0,
0,0,0,0,0,0,0,0,0,0,0,0,0,0,0,0,0,0,0,0,0,0,0,0,0,0,0,0,0,0,0,0,0,0,0,0,0,0,0,0,0,0,0,0,0,0,0,0,0,0,0,0,0,0,0,0,0,0,0,0,0,0,0,0,0,0,0,0,0,0,0,0,0,0,0,0,0,0,0,0,0,0,0,0,0,0,0,0,0,0,0,0,0,0,0,0,0,0,0,0,0,0,0,0,0,0,0,0,0,0,0,0,0,0,0,0,0,0,0,0,0,0,0,0,0,0,0,0,0,0,0,0,0,0,0,0,0,0,0,0,0,0,0,0,0,0,0,0,0,0,0,0,0,0,0,0,0,0,0,0,0,0,0,0,0,0,0,0,0,0,0,0,0,0,0,0,0,0,0,0,0,0,0,0,0,0,0,0,0,0,0,0,0,0,0,0,0,0,0,0,0,0,0,0,0,0,0,0,0,0,0,0,0,0,0,0,0,0,0,0,0,0,0,0,0,0,0,0,0,0,0,0,0,0,0,0,0,0,0,0,0,0,0,0,0,0,0,0,0,0,
0,0,0,0,0,0,0,0,0,0,0,0,0,0,0,0,0,0,0,0,0,0,0,0,0,0,0,0,0,0,0,0,0,0,0,0,0,0,0,0,0,0,0,0,0,0,0,0,0,0,0,0,0,0,0,0,0,0,0,0,0,0,0,0,0,0,0,0,0,0,0,0,0,0,0,0,0,0,0,0,0,0,0,0,0,0,0,0,0,0,0,0,0,0,0,0,0,0,0,0,0,0,0,0,0,0,0,0,0,0,0,0,0,0,0,0,0,0,0,0,0,0,0,0,0,0,0,0,0,0,0,0,0,0,0,0,0,0,0,0,0,0,0,0,0,0,0,0,0,0,0,0,0,0,0,0,0,0,0,0,0,0,0,0,0,0,0,0,0,0,0,0,0,0,0,0,0,0,0,0,0,0,0,0,0,0,0,0,0,0,0,0,0,0,0,0,0,0,0,0,0,0,0,0,0,0,0,0,0,0,0,0,0,0,0,0,0,0,0,0,0,0,0,0,0,0,0,0,0,0,0,0,0,0,0,0,0,0,0,0,0,0,0,0,0,0,0,0,0,0,
0,0,0,0,0,0,0,0,0,0,0,0,0,0,0,0,0,0,0,0,0,0,0,0,0,0,0,0,0,0,0,0,0,0,0,0,0,0,0,0,0,0,0,0,0,0,0,0,0,0,0,0,0,0,0,0,0,0,0,0,0,0,0,0,0,0,0,0,0,0,0,0,0,0,0,0,0,0,0,0,0,0,0,0,0,0,0,0,0,0,0,0,0,0,0,0,0,0,0,0,0,0,0,0,0,0,0,0,0,0,0,0,0,0,0,0,0,0,0,0,0,0,0,0,0,0,0,0,0,0,0,0,0,0,0,0,0,0,0,0,0,0,0,0,0,0,0,0,0,0,0,0,0,0,0,0,0,0,0,0,0,0,0,0,0,0,0,0,0,0,0,0,0,0,0,0,0,0,0,0,0,0,0,0,0,0,0,0,0,0,0,0,0,0,0,0,0,0,0,0,0,0,0,0,0,0,0,0,0,0,0,0,0,0,0,0,0,0,0,0,0,0,0,0,0,0,0,0,0,0,0,0,0,0,0,0,0,0,0,0,0,0,0,0,0,0,0,0,0,0,
0,0,0,0,0,0,0,0,0,0,0,0,0,0,0,0,0,0,0,0,0,0,0,0,0,0,0,0,0,0,0,0,0,0,0,0,0,0,0,0,0,0,0,0,0,0,0,0,0,0,0,0,0,0,0,0,0,0,0,0,0,0,0,0,0,0,0,0,0,0,0,0,0,0,0,0,0,0,0,0,0,0,0,0,0,0,0,0,0,0,0,0,0,0,0,0,0,0,0,0,0,0,0,0,0,0,0,0,0,0,0,0,0,0,0,0,0,0,0,0,0,0,0,0,0,0,0,0,0,0,0,0,0,0,0,0,0,0,0,0,0,0,0,0,0,0,0,0,0,0,0,0,0,0,0,0,0,0,0,0,0,0,0,0,0,0,0,0,0,0,0,0,0,0,0,0,0,0,0,0,0,0,0,0,0,0,0,0,0,0,0,0,0,0,0,0,0,0,0,0,0,0,0,0,0,0,0,0,0,0,0,0,0,0,0,0,0,0,0,0,0,0,0,0,0,0,0,0,0,0,0,0,0,0,0,0,0,0,0,0,0,0,0,0,0,0,0,0,0,0,
0,0,0,0,0,0,0,0,0,0,0,0,0,0,0,0,0,0,0,0,0,0,0,0,0,0,0,0,0,0,0,0,0,0,0,0,0,0,0,0,0,0,0,0,0,0,0,0,0,0,0,0,0,0,0,0,0,0,0,0,0,0,0,0,0,0,0,0,0,0,0,0,0,0,0,0,0,0,0,0,0,0,0,0,0,0,0,0,0,0,0,0,0,0,0,0,0,0,0,0,0,0,0,0,0,0,0,0,0,0,0,0,0,0,0,0,0,0,0,0,0,0,0,0,0,0,0,0,0,0,0,0,0,0,0,0,0,0,0,0,0,0,0,0,0,0,0,0,0,0,0,0,0,0,0,0,0,0,0,0,0,0,0,0,0,0,0,0,0,0,0,0,0,0,0,0,0,0,0,0,0,0,0,0,0,0,0,0,0,0,0,0,0,0,0,0,0,0,0,0,0,0,0,0,0,0,0,0,0,0,0,0,0,0,0,0,0,0,0,0,0,0,0,0,0,0,0,0,0,0,0,0,0,0,0,0,0,0,0,0,0,0,0,0,0,0,0,0,0,0,
0,0,0,0,0,0,0,0,0,0,0,0,0,0,0,0,0,0,0,0,0,0,0,0,0,0,0,0,0,0,0,0,0,0,0,0,0,0,0,0,0,0,0,0,0,0,0,0,0,0,0,0,0,0,0,0,0,0,0,0,0,0,0,0,0,0,0,0,0,0,0,0,0,0,0,0,0,0,0,0,0,0,0,0,0,0,0,0,0,0,0,0,0,0,0,0,0,0,0,0,0,0,0,0,0,0,0,0,0,0,0,0,0,0,0,0,0,0,0,0,0,0,0,0,0,0,0,0,0,0,0,0,0,0,0,0,0,0,0,0,0,0,0,0,0,0,0,0,0,0,0,0,0,0,0,0,0,0,0,0,0,0,0,0,0,0,0,0,0,0,0,0,0,0,0,0,0,0,0,0,0,0,0,0,0,0,0,0,0,0,0,0,0,0,0,0,0,0,0,0,0,0,0,0,0,0,0,0,0,0,0,0,0,0,0,0,0,0,0,0,0,0,0,0,0,0,0,0,0,0,0,0,0,0,0,0,0,0,0,0,0,0,0,0,0,0,0,0,0,0,
0,0,0,0,0,0,0,0,0,0,0,0,0,0,0,0,0,0,0,0,0,0,0,0,0,0,0,0,0,0,0,0,0,0,0,0,0,0,0,0,0,0,0,0,0,0,0,0,0,0,0,0,0,0,0,0,0,0,0,0,0,0,0,0,0,0,0,0,0,0,0,0,0,0,0,0,0,0,0,0,0,0,0,0,0,0,0,0,0,0,0,0,0,0,0,0,0,0,0,0,0,0,0,0,0,0,0,0,0,0,0,0,0,0,0,0,0,0,0,0,0,0,0,0,0,0,0,0,0,0,0,0,0,0,0,0,0,0,0,0,0,0,0,0,0,0,0,0,0,0,0,0,0,0,0,0,0,0,0,0,0,0,0,0,0,0,0,0,0,0,0,0,0,0,0,0,0,0,0,0,0,0,0,0,0,0,0,0,0,0,0,0,0,0,0,0,0,0,0,0,0,0,0,0,0,0,0,0,0,0,0,0,0,0,0,0,0,0,0,0,0,0,0,0,0,0,0,0,0,0,0,0,0,0,0,0,0,0,0,0,0,0,0,0,0,0,0,0,0,0,
0,0,0,0,0,0,0,0,0,0,0,0,0,0,0,0,0,0,0,0,0,0,0,0,0,0,0,0,0,0,0,0,0,0,0,0,0,0,0,0,0,0,0,0,0,0,0,0,0,0,0,0,0,0,0,0,0,0,0,0,0,0,0,0,0,0,0,0,0,0,0,0,0,0,0,0,0,0,0,0,0,0,0,0,0,0,0,0,0,0,0,0,0,0,0,0,0,0,0,0,0,0,0,0,0,0,0,0,0,0,0,0,0,0,0,0,0,0,0,0,0,0,0,0,0,0,0,0,0,0,0,0,0,0,0,0,0,0,0,0,0,0,0,0,0,0,0,0,0,0,0,0,0,0,0,0,0,0,0,0,0,0,0,0,0,0,0,0,0,0,0,0,0,0,0,0,0,0,0,0,0,0,0,0,0,0,0,0,0,0,0,0,0,0,0,0,0,0,0,0,0,0,0,0,0,0,0,0,0,0,0,0,0,0,0,0,0,0,0,0,0,0,0,0,0,0,0,0,0,0,0,0,0,0,0,0,0,0,0,0,0,0,0,0,0,0,0,0,0,0,
0,0,0,0,0,0,0,0,0,0,0,0,0,0,0,0,0,0,0,0,0,0,0,0,0,0,0,0,0,0,0,0,0,0,0,0,0,0,0,0,0,0,0,0,0,0,0,0,0,0,0,0,0,0,0,0,0,0,0,0,0,0,0,0,0,0,0,0,0,0,0,0,0,0,0,0,0,0,0,0,0,0,0,0,0,0,0,0,0,0,0,0,0,0,0,0,0,0,0,0,0,0,0,0,0,0,0,0,0,0,0,0,0,0,0,0,0,0,0,0,0,0,0,0,0,0,0,0,0,0,0,0,0,0,0,0,0,0,0,0,0,0,0,0,0,0,0,0,0,0,0,0,0,0,0,0,0,0,0,0,0,0,0,0,0,0,0,0,0,0,0,0,0,0,0,0,0,0,0,0,0,0,0,0,0,0,0,0,0,0,0,0,0,0,0,0,0,0,0,0,0,0,0,0,0,0,0,0,0,0,0,0,0,0,0,0,0,0,0,0,0,0,0,0,0,0,0,0,0,0,0,0,0,0,0,0,0,0,0,0,0,0,0,0,0,0,0,0,0,0,
0,0,0,0,0,0,0,0,0,0,0,0,0,0,0,0,0,0,0,0,0,0,0,0,0,0,0,0,0,0,0,0,0,0,0,0,0,0,0,0,0,0,0,0,0,0,0,0,0,0,0,0,0,0,0,0,0,0,0,0,0,0,0,0,0,0,0,0,0,0,0,0,0,0,0,0,0,0,0,0,0,0,0,0,0,0,0,0,0,0,0,0,0,0,0,0,0,0,0,0,0,0,0,0,0,0,0,0,0,0,0,0,0,0,0,0,0,0,0,0,0,0,0,0,0,0,0,0,0,0,0,0,0,0,0,0,0,0,0,0,0,0,0,0,0,0,0,0,0,0,0,0,0,0,0,0,0,0,0,0,0,0,0,0,0,0,0,0,0,0,0,0,0,0,0,0,0,0,0,0,0,0,0,0,0,0,0,0,0,0,0,0,0,0,0,0,0,0,0,0,0,0,0,0,0,0,0,0,0,0,0,0,0,0,0,0,0,0,0,0,0,0,0,0,0,0,0,0,0,0,0,0,0,0,0,0,0,0,0,0,0,0,0,0,0,0,0,0,0,0,
0,0,0,0,0,0,0,0,0,0,0,0,0,0,0,0,0,0,0,0,0,0,0,0,0,0,0,0,0,0,0,0,0,0,0,0,0,0,0,0,0,0,0,0,0,0,0,0,0,0,0,0,0,0,0,0,0,0,0,0,0,0,0,0,0,0,0,0,0,0,0,0,0,0,0,0,0,0,0,0,0,0,0,0,0,0,0,0,0,0,0,0,0,0,0,0,0,0,0,0,0,0,0,0,0,0,0,0,0,0,0,0,0,0,0,0,0,0,0,0,0,0,0,0,0,0,0,0,0,0,0,0,0,0,0,0,0,0,0,0,0,0,0,0,0,0,0,0,0,0,0,0,0,0,0,0,0,0,0,0,0,0,0,0,0,0,0,0,0,0,0,0,0,0,0,0,0,0,0,0,0,0,0,0,0,0,0,0,0,0,0,0,0,0,0,0,0,0,0,0,0,0,0,0,0,0,0,0,0,0,0,0,0,0,0,0,0,0,0,0,0,0,0,0,0,0,0,0,0,0,0,0,0,0,0,0,0,0,0,0,0,0,0,0,0,0,0,0,0,0,
0,0,0,0,0,0,0,0,0,0,0,0,0,0,0,0,0,0,0,0,0,0,0,0,0,0,0,0,0,0,0,0,0,0,0,0,0,0,0,0,0,0,0,0,0,0,0,0,0,0,0,0,0,0,0,0,0,0,0,0,0,0,0,0,0,0,0,0,0,0,0,0,0,0,0,0,0,0,0,0,0,0,0,0,0,0,0,0,0,0,0,0,0,0,0,0,0,0,0,0,0,0,0,0,0,0,0,0,0,0,0,0,0,0,0,0,0,0,0,0,0,0,0,0,0,0,0,0,0,0,0,0,0,0,0,0,0,0,0,0,0,0,0,0,0,0,0,0,0,0,0,0,0,0,0,0,0,0,0,0,0,0,0,0,0,0,0,0,0,0,0,0,0,0,0,0,0,0,0,0,0,0,0,0,0,0,0,0,0,0,0,0,0,0,0,0,0,0,0,0,0,0,0,0,0,0,0,0,0,0,0,0,0,0,0,0,0,0,0,0,0,0,0,0,0,0,0,0,0,0,0,0,0,0,0,0,0,0,0,0,0,0,0,0,0,0,0,0,0,0,
0,0,0,0,0,0,0,0,0,0,0,0,0,0,0,0,0,0,0,0,0,0,0,0,0,0,0,0,0,0,0,0,0,0,0,0,0,0,0,0,0,0,0,0,0,0,0,0,0,0,0,0,0,0,0,0,0,0,0,0,0,0,0,0,0,0,0,0,0,0,0,0,0,0,0,0,0,0,0,0,0,0,0,0,0,0,0,0,0,0,0,0,0,0,0,0,0,0,0,0,0,0,0,0,0,0,0,0,0,0,0,0,0,0,0,0,0,0,0,0,0,0,0,0,0,0,0,0,0,0,0,0,0,0,0,0,0,0,0,0,0,0,0,0,0,0,0,0,0,0,0,0,0,0,0,0,0,0,0,0,0,0,0,0,0,0,0,0,0,0,0,0,0,0,0,0,0,0,0,0,0,0,0,0,0,0,0,0,0,0,0,0,0,0,0,0,0,0,0,0,0,0,0,0,0,0,0,0,0,0,0,0,0,0,0,0,0,0,0,0,0,0,0,0,0,0,0,0,0,0,0,0,0,0,0,0,0,0,0,0,0,0,0,0,0,0,0,0,0,0,
0,0,0,0,0,0,0,0,0,0,0,0,0,0,0,0,0,0,0,0,0,0,0,0,0,0,0,0,0,0,0,0,0,0,0,0,0,0,0,0,0,0,0,0,0,0,0,0,0,0,0,0,0,0,0,0,0,0,0,0,0,0,0,0,0,0,0,0,0,0,0,0,0,0,0,0,0,0,0,0,0,0,0,0,0,0,0,0,0,0,0,0,0,0,0,0,0,0,0,0,0,0,0,0,0,0,0,0,0,0,0,0,0,0,0,0,0,0,0,0,0,0,0,0,0,0,0,0,0,0,0,0,0,0,0,0,0,0,0,0,0,0,0,0,0,0,0,0,0,0,0,0,0,0,0,0,0,0,0,0,0,0,0,0,0,0,0,0,0,0,0,0,0,0,0,0,0,0,0,0,0,0,0,0,0,0,0,0,0,0,0,0,0,0,0,0,0,0,0,0,0,0,0,0,0,0,0,0,0,0,0,0,0,0,0,0,0,0,0,0,0,0,0,0,0,0,0,0,0,0,0,0,0,0,0,0,0,0,0,0,0,0,0,0,0,0,0,0,0,0,
0,0,0,0,0,0,0,0,0,0,0,0,0,0,0,0,0,0,0,0,0,0,0,0,0,0,0,0,0,0,0,0,0,0,0,0,0,0,0,0,0,0,0,0,0,0,0,0,0,0,0,0,0,0,0,0,0,0,0,0,0,0,0,0,0,0,0,0,0,0,0,0,0,0,0,0,0,0,0,0,0,0,0,0,0,0,0,0,0,0,0,0,0,0,0,0,0,0,0,0,0,0,0,0,0,0,0,0,0,0,0,0,0,0,0,0,0,0,0,0,0,0,0,0,0,0,0,0,0,0,0,0,0,0,0,0,0,0,0,0,0,0,0,0,0,0,0,0,0,0,0,0,0,0,0,0,0,0,0,0,0,0,0,0,0,0,0,0,0,0,0,0,0,0,0,0,0,0,0,0,0,0,0,0,0,0,0,0,0,0,0,0,0,0,0,0,0,0,0,0,0,0,0,0,0,0,0,0,0,0,0,0,0,0,0,0,0,0,0,0,0,0,0,0,0,0,0,0,0,0,0,0,0,0,0,0,0,0,0,0,0,0,0,0,0,0,0,0,0,0,
0,0,0,0,0,0,0,0,0,0,0,0,0,0,0,0,0,0,0,0,0,0,0,0,0,0,0,0,0,0,0,0,0,0,0,0,0,0,0,0,0,0,0,0,0,0,0,0,0,0,0,0,0,0,0,0,0,0,0,0,0,0,0,0,0,0,0,0,0,0,0,0,0,0,0,0,0,0,0,0,0,0,0,0,0,0,0,0,0,0,0,0,0,0,0,0,0,0,0,0,0,0,0,0,0,0,0,0,0,0,0,0,0,0,0,0,0,0,0,0,0,0,0,0,0,0,0,0,0,0,0,0,0,0,0,0,0,0,0,0,0,0,0,0,0,0,0,0,0,0,0,0,0,0,0,0,0,0,0,0,0,0,0,0,0,0,0,0,0,0,0,0,0,0,0,0,0,0,0,0,0,0,0,0,0,0,0,0,0,0,0,0,0,0,0,0,0,0,0,0,0,0,0,0,0,0,0,0,0,0,0,0,0,0,0,0,0,0,0,0,0,0,0,0,0,0,0,0,0,0,0,0,0,0,0,0,0,0,0,0,0,0,0,0,0,0,0,0,0,0,
0,0,0,0,0,0,0,0,0,0,0,0,0,0,0,0,0,0,0,0,0,0,0,0,0,0,0,0,0,0,0,0,0,0,0,0,0,0,0,0,0,0,0,0,0,0,0,0,0,0,0,0,0,0,0,0,0,0,0,0,0,0,0,0,0,0,0,0,0,0,0,0,0,0,0,0,0,0,0,0,0,0,0,0,0,0,0,0,0,0,0,0,0,0,0,0,0,0,0,0,0,0,0,0,0,0,0,0,0,0,0,0,0,0,0,0,0,0,0,0,0,0,0,0,0,0,0,0,0,0,0,0,0,0,0,0,0,0,0,0,0,0,0,0,0,0,0,0,0,0,0,0,0,0,0,0,0,0,0,0,0,0,0,0,0,0,0,0,0,0,0,0,0,0,0,0,0,0,0,0,0,0,0,0,0,0,0,0,0,0,0,0,0,0,0,0,0,0,0,0,0,0,0,0,0,0,0,0,0,0,0,0,0,0,0,0,0,0,0,0,0,0,0,0,0,0,0,0,0,0,0,0,0,0,0,0,0,0,0,0,0,0,0,0,0,0,0,0,0,0,
0,0,0,0,0,0,0,0,0,0,0,0,0,0,0,0,0,0,0,0,0,0,0,0,0,0,0,0,0,0,0,0,0,0,0,0,0,0,0,0,0,0,0,0,0,0,0,0,0,0,0,0,0,0,0,0,0,0,0,0,0,0,0,0,0,0,0,0,0,0,0,0,0,0,0,0,0,0,0,0,0,0,0,0,0,0,0,0,0,0,0,0,0,0,0,0,0,0,0,0,0,0,0,0,0,0,0,0,0,0,0,0,0,0,0,0,0,0,0,0,0,0,0,0,0,0,0,0,0,0,0,0,0,0,0,0,0,0,0,0,0,0,0,0,0,0,0,0,0,0,0,0,0,0,0,0,0,0,0,0,0,0,0,0,0,0,0,0,0,0,0,0,0,0,0,0,0,0,0,0,0,0,0,0,0,0,0,0,0,0,0,0,0,0,0,0,0,0,0,0,0,0,0,0,0,0,0,0,0,0,0,0,0,0,0,0,0,0,0,0,0,0,0,0,0,0,0,0,0,0,0,0,0,0,0,0,0,0,0,0,0,0,0,0,0,0,0,0,0,0,
0,0,0,0,0,0,0,0,0,0,0,0,0,0,0,0,0,0,0,0,0,0,0,0,0,0,0,0,0,0,0,0,0,0,0,0,0,0,0,0,0,0,0,0,0,0,0,0,0,0,0,0,0,0,0,0,0,0,0,0,0,0,0,0,0,0,0,0,0,0,0,0,0,0,0,0,0,0,0,0,0,0,0,0,0,0,0,0,0,0,0,0,0,0,0,0,0,0,0,0,0,0,0,0,0,0,0,0,0,0,0,0,0,0,0,0,0,0,0,0,0,0,0,0,0,0,0,0,0,0,0,0,0,0,0,0,0,0,0,0,0,0,0,0,0,0,0,0,0,0,0,0,0,0,0,0,0,0,0,0,0,0,0,0,0,0,0,0,0,0,0,0,0,0,0,0,0,0,0,0,0,0,0,0,0,0,0,0,0,0,0,0,0,0,0,0,0,0,0,0,0,0,0,0,0,0,0,0,0,0,0,0,0,0,0,0,0,0,0,0,0,0,0,0,0,0,0,0,0,0,0,0,0,0,0,0,0,0,0,0,0,0,0,0,0,0,0,0,0,0,
0,0,0,0,0,0,0,0,0,0,0,0,0,0,0,0,0,0,0,0,0,0,0,0,0,0,0,0,0,0,0,0,0,0,0,0,0,0,0,0,0,0,0,0,0,0,0,0,0,0,0,0,0,0,0,0,0,0,0,0,0,0,0,0,0,0,0,0,0,0,0,0,0,0,0,0,0,0,0,0,0,0,0,0,0,0,0,0,0,0,0,0,0,0,0,0,0,0,0,0,0,0,0,0,0,0,0,0,0,0,0,0,0,0,0,0,0,0,0,0,0,0,0,0,0,0,0,0,0,0,0,0,0,0,0,0,0,0,0,0,0,0,0,0,0,0,0,0,0,0,0,0,0,0,0,0,0,0,0,0,0,0,0,0,0,0,0,0,0,0,0,0,0,0,0,0,0,0,0,0,0,0,0,0,0,0,0,0,0,0,0,0,0,0,0,0,0,0,0,0,0,0,0,0,0,0,0,0,0,0,0,0,0,0,0,0,0,0,0,0,0,0,0,0,0,0,0,0,0,0,0,0,0,0,0,0,0,0,0,0,0,0,0,0,0,0,0,0,0,0,
0,0,0,0,0,0,0,0,0,0,0,0,0,0,0,0,0,0,0,0,0,0,0,0,0,0,0,0,0,0,0,0,0,0,0,0,0,0,0,0,0,0,0,0,0,0,0,0,0,0,0,0,0,0,0,0,0,0,0,0,0,0,0,0,0,0,0,0,0,0,0,0,0,0,0,0,0,0,0,0,0,0,0,0,0,0,0,0,0,0,0,0,0,0,0,0,0,0,0,0,0,0,0,0,0,0,0,0,0,0,0,0,0,0,0,0,0,0,0,0,0,0,0,0,0,0,0,0,0,0,0,0,0,0,0,0,0,0,0,0,0,0,0,0,0,0,0,0,0,0,0,0,0,0,0,0,0,0,0,0,0,0,0,0,0,0,0,0,0,0,0,0,0,0,0,0,0,0,0,0,0,0,0,0,0,0,0,0,0,0,0,0,0,0,0,0,0,0,0,0,0,0,0,0,0,0,0,0,0,0,0,0,0,0,0,0,0,0,0,0,0,0,0,0,0,0,0,0,0,0,0,0,0,0,0,0,0,0,0,0,0,0,0,0,0,0,0,0,0,0,
0,0,0,0,0,0,0,0,0,0,0,0,0,0,0,0,0,0,0,0,0,0,0,0,0,0,0,0,0,0,0,0,0,0,0,0,0,0,0,0,0,0,0,0,0,0,0,0,0,0,0,0,0,0,0,0,0,0,0,0,0,0,0,0,0,0,0,0,0,0,0,0,0,0,0,0,0,0,0,0,0,0,0,0,0,0,0,0,0,0,0,0,0,0,0,0,0,0,0,0,0,0,0,0,0,0,0,0,0,0,0,0,0,0,0,0,0,0,0,0,0,0,0,0,0,0,0,0,0,0,0,0,0,0,0,0,0,0,0,0,0,0,0,0,0,0,0,0,0,0,0,0,0,0,0,0,0,0,0,0,0,0,0,0,0,0,0,0,0,0,0,0,0,0,0,0,0,0,0,0,0,0,0,0,0,0,0,0,0,0,0,0,0,0,0,0,0,0,0,0,0,0,0,0,0,0,0,0,0,0,0,0,0,0,0,0,0,0,0,0,0,0,0,0,0,0,0,0,0,0,0,0,0,0,0,0,0,0,0,0,0,0,0,0,0,0,0,0,0,0,
0,0,0,0,0,0,0,0,0,0,0,0,0,0,0,0,0,0,0,0,0,0,0,0,0,0,0,0,0,0,0,0,0,0,0,0,0,0,0,0,0,0,0,0,0,0,0,0,0,0,0,0,0,0,0,0,0,0,0,0,0,0,0,0,0,0,0,0,0,0,0,0,0,0,0,0,0,0,0,0,0,0,0,0,0,0,0,0,0,0,0,0,0,0,0,0,0,0,0,0,0,0,0,0,0,0,0,0,0,0,0,0,0,0,0,0,0,0,0,0,0,0,0,0,0,0,0,0,0,0,0,0,0,0,0,0,0,0,0,0,0,0,0,0,0,0,0,0,0,0,0,0,0,0,0,0,0,0,0,0,0,0,0,0,0,0,0,0,0,0,0,0,0,0,0,0,0,0,0,0,0,0,0,0,0,0,0,0,0,0,0,0,0,0,0,0,0,0,0,0,0,0,0,0,0,0,0,0,0,0,0,0,0,0,0,0,0,0,0,0,0,0,0,0,0,0,0,0,0,0,0,0,0,0,0,0,0,0,0,0,0,0,0,0,0,0,0,0,0,0,
0,0,0,0,0,0,0,0,0,0,0,0,0,0,0,0,0,0,0,0,0,0,0,0,0,0,0,0,0,0,0,0,0,0,0,0,0,0,0,0,0,0,0,0,0,0,0,0,0,0,0,0,0,0,0,0,0,0,0,0,0,0,0,0,0,0,0,0,0,0,0,0,0,0,0,0,0,0,0,0,0,0,0,0,0,0,0,0,0,0,0,0,0,0,0,0,0,0,0,0,0,0,0,0,0,0,0,0,0,0,0,0,0,0,0,0,0,0,0,0,0,0,0,0,0,0,0,0,0,0,0,0,0,0,0,0,0,0,0,0,0,0,0,0,0,0,0,0,0,0,0,0,0,0,0,0,0,0,0,0,0,0,0,0,0,0,0,0,0,0,0,0,0,0,0,0,0,0,0,0,0,0,0,0,0,0,0,0,0,0,0,0,0,0,0,0,0,0,0,0,0,0,0,0,0,0,0,0,0,0,0,0,0,0,0,0,0,0,0,0,0,0,0,0,0,0,0,0,0,0,0,0,0,0,0,0,0,0,0,0,0,0,0,0,0,0,0,0,0,0,
0,0,0,0,0,0,0,0,0,0,0,0,0,0,0,0,0,0,0,0,0,0,0,0,0,0,0,0,0,0,0,0,0,0,0,0,0,0,0,0,0,0,0,0,0,0,0,0,0,0,0,0,0,0,0,0,0,0,0,0,0,0,0,0,0,0,0,0,0,0,0,0,0,0,0,0,0,0,0,0,0,0,0,0,0,0,0,0,0,0,0,0,0,0,0,0,0,0,0,0,0,0,0,0,0,0,0,0,0,0,0,0,0,0,0,0,0,0,0,0,0,0,0,0,0,0,0,0,0,0,0,0,0,0,0,0,0,0,0,0,0,0,0,0,0,0,0,0,0,0,0,0,0,0,0,0,0,0,0,0,0,0,0,0,0,0,0,0,0,0,0,0,0,0,0,0,0,0,0,0,0,0,0,0,0,0,0,0,0,0,0,0,0,0,0,0,0,0,0,0,0,0,0,0,0,0,0,0,0,0,0,0,0,0,0,0,0,0,0,0,0,0,0,0,0,0,0,0,0,0,0,0,0,0,0,0,0,0,0,0,0,0,0,0,0,0,0,0,0,0,
0,0,0,0,0,0,0,0,0,0,0,0,0,0,0,0,0,0,0,0,0,0,0,0,0,0,0,0,0,0,0,0,0,0,0,0,0,0,0,0,0,0,0,0,0,0,0,0,0,0,0,0,0,0,0,0,0,0,0,0,0,0,0,0,0,0,0,0,0,0,0,0,0,0,0,0,0,0,0,0,0,0,0,0,0,0,0,0,0,0,0,0,0,0,0,0,0,0,0,0,0,0,0,0,0,0,0,0,0,0,0,0,0,0,0,0,0,0,0,0,0,0,0,0,0,0,0,0,0,0,0,0,0,0,0,0,0,0,0,0,0,0,0,0,0,0,0,0,0,0,0,0,0,0,0,0,0,0,0,0,0,0,0,0,0,0,0,0,0,0,0,0,0,0,0,0,0,0,0,0,0,0,0,0,0,0,0,0,0,0,0,0,0,0,0,0,0,0,0,0,0,0,0,0,0,0,0,0,0,0,0,0,0,0,0,0,0,0,0,0,0,0,0,0,0,0,0,0,0,0,0,0,0,0,0,0,0,0,0,0,0,0,0,0,0,0,0,0,0,0,
0,0,0,0,0,0,0,0,0,0,0,0,0,0,0,0,0,0,0,0,0,0,0,0,0,0,0,0,0,0,0,0,0,0,0,0,0,0,0,0,0,0,0,0,0,0,0,0,0,0,0,0,0,0,0,0,0,0,0,0,0,0,0,0,0,0,0,0,0,0,0,0,0,0,0,0,0,0,0,0,0,0,0,0,0,0,0,0,0,0,0,0,0,0,0,0,0,0,0,0,0,0,0,0,0,0,0,0,0,0,0,0,0,0,0,0,0,0,0,0,0,0,0,0,0,0,0,0,0,0,0,0,0,0,0,0,0,0,0,0,0,0,0,0,0,0,0,0,0,0,0,0,0,0,0,0,0,0,0,0,0,0,0,0,0,0,0,0,0,0,0,0,0,0,0,0,0,0,0,0,0,0,0,0,0,0,0,0,0,0,0,0,0,0,0,0,0,0,0,0,0,0,0,0,0,0,0,0,0,0,0,0,0,0,0,0,0,0,0,0,0,0,0,0,0,0,0,0,0,0,0,0,0,0,0,0,0,0,0,0,0,0,0,0,0,0,0,0,0,0,
0,0,0,0,0,0,0,0,0,0,0,0,0,0,0,0,0,0,0,0,0,0,0,0,0,0,0,0,0,0,0,0,0,0,0,0,0,0,0,0,0,0,0,0,0,0,0,0,0,0,0,0,0,0,0,0,0,0,0,0,0,0,0,0,0,0,0,0,0,0,0,0,0,0,0,0,0,0,0,0,0,0,0,0,0,0,0,0,0,0,0,0,0,0,0,0,0,0,0,0,0,0,0,0,0,0,0,0,0,0,0,0,0,0,0,0,0,0,0,0,0,0,0,0,0,0,0,0,0,0,0,0,0,0,0,0,0,0,0,0,0,0,0,0,0,0,0,0,0,0,0,0,0,0,0,0,0,0,0,0,0,0,0,0,0,0,0,0,0,0,0,0,0,0,0,0,0,0,0,0,0,0,0,0,0,0,0,0,0,0,0,0,0,0,0,0,0,0,0,0,0,0,0,0,0,0,0,0,0,0,0,0,0,0,0,0,0,0,0,0,0,0,0,0,0,0,0,0,0,0,0,0,0,0,0,0,0,0,0,0,0,0,0,0,0,0,0,0,0,0,
0,0,0,0,0,0,0,0,0,0,0,0,0,0,0,0,0,0,0,0,0,0,0,0,0,0,0,0,0,0,0,0,0,0,0,0,0,0,0,0,0,0,0,0,0,0,0,0,0,0,0,0,0,0,0,0,0,0,0,0,0,0,0,0,0,0,0,0,0,0,0,0,0,0,0,0,0,0,0,0,0,0,0,0,0,0,0,0,0,0,0,0,0,0,0,0,0,0,0,0,0,0,0,0,0,0,0,0,0,0,0,0,0,0,0,0,0,0,0,0,0,0,0,0,0,0,0,0,0,0,0,0,0,0,0,0,0,0,0,0,0,0,0,0,0,0,0,0,0,0,0,0,0,0,0,0,0,0,0,0,0,0,0,0,0,0,0,0,0,0,0,0,0,0,0,0,0,0,0,0,0,0,0,0,0,0,0,0,0,0,0,0,0,0,0,0,0,0,0,0,0,0,0,0,0,0,0,0,0,0,0,0,0,0,0,0,0,0,0,0,0,0,0,0,0,0,0,0,0,0,0,0,0,0,0,0,0,0,0,0,0,0,0,0,0,0,0,0,0,0,
0,0,0,0,0,0,0,0,0,0,0,0,0,0,0,0,0,0,0,0,0,0,0,0,0,0,0,0,0,0,0,0,0,0,0,0,0,0,0,0,0,0,0,0,0,0,0,0,0,0,0,0,0,0,0,0,0,0,0,0,0,0,0,0,0,0,0,0,0,0,0,0,0,0,0,0,0,0,0,0,0,0,0,0,0,0,0,0,0,0,0,0,0,0,0,0,0,0,0,0,0,0,0,0,0,0,0,0,0,0,0,0,0,0,0,0,0,0,0,0,0,0,0,0,0,0,0,0,0,0,0,0,0,0,0,0,0,0,0,0,0,0,0,0,0,0,0,0,0,0,0,0,0,0,0,0,0,0,0,0,0,0,0,0,0,0,0,0,0,0,0,0,0,0,0,0,0,0,0,0,0,0,0,0,0,0,0,0,0,0,0,0,0,0,0,0,0,0,0,0,0,0,0,0,0,0,0,0,0,0,0,0,0,0,0,0,0,0,0,0,0,0,0,0,0,0,0,0,0,0,0,0,0,0,0,0,0,0,0,0,0,0,0,0,0,0,0,0,0,0,
0,0,0,0,0,0,0,0,0,0,0,0,0,0,0,0,0,0,0,0,0,0,0,0,0,0,0,0,0,0,0,0,0,0,0,0,0,0,0,0,0,0,0,0,0,0,0,0,0,0,0,0,0,0,0,0,0,0,0,0,0,0,0,0,0,0,0,0,0,0,0,0,0,0,0,0,0,0,0,0,0,0,0,0,0,0,0,0,0,0,0,0,0,0,0,0,0,0,0,0,0,0,0,0,0,0,0,0,0,0,0,0,0,0,0,0,0,0,0,0,0,0,0,0,0,0,0,0,0,0,0,0,0,0,0,0,0,0,0,0,0,0,0,0,0,0,0,0,0,0,0,0,0,0,0,0,0,0,0,0,0,0,0,0,0,0,0,0,0,0,0,0,0,0,0,0,0,0,0,0,0,0,0,0,0,0,0,0,0,0,0,0,0,0,0,0,0,0,0,0,0,0,0,0,0,0,0,0,0,0,0,0,0,0,0,0,0,0,0,0,0,0,0,0,0,0,0,0,0,0,0,0,0,0,0,0,0,0,0,0,0,0,0,0,0,0,0,0,0,0,
0,0,0,0,0,0,0,0,0,0,0,0,0,0,0,0,0,0,0,0,0,0,0,0,0,0,0,0,0,0,0,0,0,0,0,0,0,0,0,0,0,0,0,0,0,0,0,0,0,0,0,0,0,0,0,0,0,0,0,0,0,0,0,0,0,0,0,0,0,0,0,0,0,0,0,0,0,0,0,0,0,0,0,0,0,0,0,0,0,0,0,0,0,0,0,0,0,0,0,0,0,0,0,0,0,0,0,0,0,0,0,0,0,0,0,0,0,0,0,0,0,0,0,0,0,0,0,0,0,0,0,0,0,0,0,0,0,0,0,0,0,0,0,0,0,0,0,0,0,0,0,0,0,0,0,0,0,0,0,0,0,0,0,0,0,0,0,0,0,0,0,0,0,0,0,0,0,0,0,0,0,0,0,0,0,0,0,0,0,0,0,0,0,0,0,0,0,0,0,0,0,0,0,0,0,0,0,0,0,0,0,0,0,0,0,0,0,0,0,0,0,0,0,0,0,0,0,0,0,0,0,0,0,0,0,0,0,0,0,0,0,0,0,0,0,0,0,0,0,0,
0,0,0,0,0,0,0,0,0,0,0,0,0,0,0,0,0,0,0,0,0,0,0,0,0,0,0,0,0,0,0,0,0,0,0,0,0,0,0,0,0,0,0,0,0,0,0,0,0,0,0,0,0,0,0,0,0,0,0,0,0,0,0,0,0,0,0,0,0,0,0,0,0,0,0,0,0,0,0,0,0,0,0,0,0,0,0,0,0,0,0,0,0,0,0,0,0,0,0,0,0,0,0,0,0,0,0,0,0,0,0,0,0,0,0,0,0,0,0,0,0,0,0,0,0,0,0,0,0,0,0,0,0,0,0,0,0,0,0,0,0,0,0,0,0,0,0,0,0,0,0,0,0,0,0,0,0,0,0,0,0,0,0,0,0,0,0,0,0,0,0,0,0,0,0,0,0,0,0,0,0,0,0,0,0,0,0,0,0,0,0,0,0,0,0,0,0,0,0,0,0,0,0,0,0,0,0,0,0,0,0,0,0,0,0,0,0,0,0,0,0,0,0,0,0,0,0,0,0,0,0,0,0,0,0,0,0,0,0,0,0,0,0,0,0,0,0,0,0,0,
0,0,0,0,0,0,0,0,0,0,0,0,0,0,0,0,0,0,0,0,0,0,0,0,0,0,0,0,0,0,0,0,0,0,0,0,0,0,0,0,0,0,0,0,0,0,0,0,0,0,0,0,0,0,0,0,0,0,0,0,0,0,0,0,0,0,0,0,0,0,0,0,0,0,0,0,0,0,0,0,0,0,0,0,0,0,0,0,0,0,0,0,0,0,0,0,0,0,0,0,0,0,0,0,0,0,0,0,0,0,0,0,0,0,0,0,0,0,0,0,0,0,0,0,0,0,0,0,0,0,0,0,0,0,0,0,0,0,0,0,0,0,0,0,0,0,0,0,0,0,0,0,0,0,0,0,0,0,0,0,0,0,0,0,0,0,0,0,0,0,0,0,0,0,0,0,0,0,0,0,0,0,0,0,0,0,0,0,0,0,0,0,0,0,0,0,0,0,0,0,0,0,0,0,0,0,0,0,0,0,0,0,0,0,0,0,0,0,0,0,0,0,0,0,0,0,0,0,0,0,0,0,0,0,0,0,0,0,0,0,0,0,0,0,0,0,0,0,0,0,
0,0,0,0,0,0,0,0,0,0,0,0,0,0,0,0,0,0,0,0,0,0,0,0,0,0,0,0,0,0,0,0,0,0,0,0,0,0,0,0,0,0,0,0,0,0,0,0,0,0,0,0,0,0,0,0,0,0,0,0,0,0,0,0,0,0,0,0,0,0,0,0,0,0,0,0,0,0,0,0,0,0,0,0,0,0,0,0,0,0,0,0,0,0,0,0,0,0,0,0,0,0,0,0,0,0,0,0,0,0,0,0,0,0,0,0,0,0,0,0,0,0,0,0,0,0,0,0,0,0,0,0,0,0,0,0,0,0,0,0,0,0,0,0,0,0,0,0,0,0,0,0,0,0,0,0,0,0,0,0,0,0,0,0,0,0,0,0,0,0,0,0,0,0,0,0,0,0,0,0,0,0,0,0,0,0,0,0,0,0,0,0,0,0,0,0,0,0,0,0,0,0,0,0,0,0,0,0,0,0,0,0,0,0,0,0,0,0,0,0,0,0,0,0,0,0,0,0,0,0,0,0,0,0,0,0,0,0,0,0,0,0,0,0,0,0,0,0,0,0,
0,0,0,0,0,0,0,0,0,0,0,0,0,0,0,0,0,0,0,0,0,0,0,0,0,0,0,0,0,0,0,0,0,0,0,0,0,0,0,0,0,0,0,0,0,0,0,0,0,0,0,0,0,0,0,0,0,0,0,0,0,0,0,0,0,0,0,0,0,0,0,0,0,0,0,0,0,0,0,0,0,0,0,0,0,0,0,0,0,0,0,0,0,0,0,0,0,0,0,0,0,0,0,0,0,0,0,0,0,0,0,0,0,0,0,0,0,0,0,0,0,0,0,0,0,0,0,0,0,0,0,0,0,0,0,0,0,0,0,0,0,0,0,0,0,0,0,0,0,0,0,0,0,0,0,0,0,0,0,0,0,0,0,0,0,0,0,0,0,0,0,0,0,0,0,0,0,0,0,0,0,0,0,0,0,0,0,0,0,0,0,0,0,0,0,0,0,0,0,0,0,0,0,0,0,0,0,0,0,0,0,0,0,0,0,0,0,0,0,0,0,0,0,0,0,0,0,0,0,0,0,0,0,0,0,0,0,0,0,0,0,0,0,0,0,0,0,0,0,0,
0,0,0,0,0,0,0,0,0,0,0,0,0,0,0,0,0,0,0,0,0,0,0,0,0,0,0,0,0,0,0,0,0,0,0,0,0,0,0,0,0,0,0,0,0,0,0,0,0,0,0,0,0,0,0,0,0,0,0,0,0,0,0,0,0,0,0,0,0,0,0,0,0,0,0,0,0,0,0,0,0,0,0,0,0,0,0,0,0,0,0,0,0,0,0,0,0,0,0,0,0,0,0,0,0,0,0,0,0,0,0,0,0,0,0,0,0,0,0,0,0,0,0,0,0,0,0,0,0,0,0,0,0,0,0,0,0,0,0,0,0,0,0,0,0,0,0,0,0,0,0,0,0,0,0,0,0,0,0,0,0,0,0,0,0,0,0,0,0,0,0,0,0,0,0,0,0,0,0,0,0,0,0,0,0,0,0,0,0,0,0,0,0,0,0,0,0,0,0,0,0,0,0,0,0,0,0,0,0,0,0,0,0,0,0,0,0,0,0,0,0,0,0,0,0,0,0,0,0,0,0,0,0,0,0,0,0,0,0,0,0,0,0,0,0,0,0,0,0,0,
0,0,0,0,0,0,0,0,0,0,0,0,0,0,0,0,0,0,0,0,0,0,0,0,0,0,0,0,0,0,0,0,0,0,0,0,0,0,0,0,0,0,0,0,0,0,0,0,0,0,0,0,0,0,0,0,0,0,0,0,0,0,0,0,0,0,0,0,0,0,0,0,0,0,0,0,0,0,0,0,0,0,0,0,0,0,0,0,0,0,0,0,0,0,0,0,0,0,0,0,0,0,0,0,0,0,0,0,0,0,0,0,0,0,0,0,0,0,0,0,0,0,0,0,0,0,0,0,0,0,0,0,0,0,0,0,0,0,0,0,0,0,0,0,0,0,0,0,0,0,0,0,0,0,0,0,0,0,0,0,0,0,0,0,0,0,0,0,0,0,0,0,0,0,0,0,0,0,0,0,0,0,0,0,0,0,0,0,0,0,0,0,0,0,0,0,0,0,0,0,0,0,0,0,0,0,0,0,0,0,0,0,0,0,0,0,0,0,0,0,0,0,0,0,0,0,0,0,0,0,0,0,0,0,0,0,0,0,0,0,0,0,0,0,0,0,0,0,0,0,
0,0,0,0,0,0,0,0,0,0,0,0,0,0,0,0,0,0,0,0,0,0,0,0,0,0,0,0,0,0,0,0,0,0,0,0,0,0,0,0,0,0,0,0,0,0,0,0,0,0,0,0,0,0,0,0,0,0,0,0,0,0,0,0,0,0,0,0,0,0,0,0,0,0,0,0,0,0,0,0,0,0,0,0,0,0,0,0,0,0,0,0,0,0,0,0,0,0,0,0,0,0,0,0,0,0,0,0,0,0,0,0,0,0,0,0,0,0,0,0,0,0,0,0,0,0,0,0,0,0,0,0,0,0,0,0,0,0,0,0,0,0,0,0,0,0,0,0,0,0,0,0,0,0,0,0,0,0,0,0,0,0,0,0,0,0,0,0,0,0,0,0,0,0,0,0,0,0,0,0,0,0,0,0,0,0,0,0,0,0,0,0,0,0,0,0,0,0,0,0,0,0,0,0,0,0,0,0,0,0,0,0,0,0,0,0,0,0,0,0,0,0,0,0,0,0,0,0,0,0,0,0,0,0,0,0,0,0,0,0,0,0,0,0,0,0,0,0,0,0,
0,0,0,0,0,0,0,0,0,0,0,0,0,0,0,0,0,0,0,0,0,0,0,0,0,0,0,0,0,0,0,0,0,0,0,0,0,0,0,0,0,0,0,0,0,0,0,0,0,0,0,0,0,0,0,0,0,0,0,0,0,0,0,0,0,0,0,0,0,0,0,0,0,0,0,0,0,0,0,0,0,0,0,0,0,0,0,0,0,0,0,0,0,0,0,0,0,0,0,0,0,0,0,0,0,0,0,0,0,0,0,0,0,0,0,0,0,0,0,0,0,0,0,0,0,0,0,0,0,0,0,0,0,0,0,0,0,0,0,0,0,0,0,0,0,0,0,0,0,0,0,0,0,0,0,0,0,0,0,0,0,0,0,0,0,0,0,0,0,0,0,0,0,0,0,0,0,0,0,0,0,0,0,0,0,0,0,0,0,0,0,0,0,0,0,0,0,0,0,0,0,0,0,0,0,0,0,0,0,0,0,0,0,0,0,0,0,0,0,0,0,0,0,0,0,0,0,0,0,0,0,0,0,0,0,0,0,0,0,0,0,0,0,0,0,0,0,0,0,0,
0,0,0,0,0,0,0,0,0,0,0,0,0,0,0,0,0,0,0,0,0,0,0,0,0,0,0,0,0,0,0,0,0,0,0,0,0,0,0,0,0,0,0,0,0,0,0,0,0,0,0,0,0,0,0,0,0,0,0,0,0,0,0,0,0,0,0,0,0,0,0,0,0,0,0,0,0,0,0,0,0,0,0,0,0,0,0,0,0,0,0,0,0,0,0,0,0,0,0,0,0,0,0,0,0,0,0,0,0,0,0,0,0,0,0,0,0,0,0,0,0,0,0,0,0,0,0,0,0,0,0,0,0,0,0,0,0,0,0,0,0,0,0,0,0,0,0,0,0,0,0,0,0,0,0,0,0,0,0,0,0,0,0,0,0,0,0,0,0,0,0,0,0,0,0,0,0,0,0,0,0,0,0,0,0,0,0,0,0,0,0,0,0,0,0,0,0,0,0,0,0,0,0,0,0,0,0,0,0,0,0,0,0,0,0,0,0,0,0,0,0,0,0,0,0,0,0,0,0,0,0,0,0,0,0,0,0,0,0,0,0,0,0,0,0,0,0,0,0,0,
0,0,0,0,0,0,0,0,0,0,0,0,0,0,0,0,0,0,0,0,0,0,0,0,0,0,0,0,0,0,0,0,0,0,0,0,0,0,0,0,0,0,0,0,0,0,0,0,0,0,0,0,0,0,0,0,0,0,0,0,0,0,0,0,0,0,0,0,0,0,0,0,0,0,0,0,0,0,0,0,0,0,0,0,0,0,0,0,0,0,0,0,0,0,0,0,0,0,0,0,0,0,0,0,0,0,0,0,0,0,0,0,0,0,0,0,0,0,0,0,0,0,0,0,0,0,0,0,0,0,0,0,0,0,0,0,0,0,0,0,0,0,0,0,0,0,0,0,0,0,0,0,0,0,0,0,0,0,0,0,0,0,0,0,0,0,0,0,0,0,0,0,0,0,0,0,0,0,0,0,0,0,0,0,0,0,0,0,0,0,0,0,0,0,0,0,0,0,0,0,0,0,0,0,0,0,0,0,0,0,0,0,0,0,0,0,0,0,0,0,0,0,0,0,0,0,0,0,0,0,0,0,0,0,0,0,0,0,0,0,0,0,0,0,0,0,0,0,0,0,
0,0,0,0,0,0,0,0,0,0,0,0,0,0,0,0,0,0,0,0,0,0,0,0,0,0,0,0,0,0,0,0,0,0,0,0,0,0,0,0,0,0,0,0,0,0,0,0,0,0,0,0,0,0,0,0,0,0,0,0,0,0,0,0,0,0,0,0,0,0,0,0,0,0,0,0,0,0,0,0,0,0,0,0,0,0,0,0,0,0,0,0,0,0,0,0,0,0,0,0,0,0,0,0,0,0,0,0,0,0,0,0,0,0,0,0,0,0,0,0,0,0,0,0,0,0,0,0,0,0,0,0,0,0,0,0,0,0,0,0,0,0,0,0,0,0,0,0,0,0,0,0,0,0,0,0,0,0,0,0,0,0,0,0,0,0,0,0,0,0,0,0,0,0,0,0,0,0,0,0,0,0,0,0,0,0,0,0,0,0,0,0,0,0,0,0,0,0,0,0,0,0,0,0,0,0,0,0,0,0,0,0,0,0,0,0,0,0,0,0,0,0,0,0,0,0,0,0,0,0,0,0,0,0,0,0,0,0,0,0,0,0,0,0,0,0,0,0,0,0,
0,0,0,0,0,0,0,0,0,0,0,0,0,0,0,0,0,0,0,0,0,0,0,0,0,0,0,0,0,0,0,0,0,0,0,0,0,0,0,0,0,0,0,0,0,0,0,0,0,0,0,0,0,0,0,0,0,0,0,0,0,0,0,0,0,0,0,0,0,0,0,0,0,0,0,0,0,0,0,0,0,0,0,0,0,0,0,0,0,0,0,0,0,0,0,0,0,0,0,0,0,0,0,0,0,0,0,0,0,0,0,0,0,0,0,0,0,0,0,0,0,0,0,0,0,0,0,0,0,0,0,0,0,0,0,0,0,0,0,0,0,0,0,0,0,0,0,0,0,0,0,0,0,0,0,0,0,0,0,0,0,0,0,0,0,0,0,0,0,0,0,0,0,0,0,0,0,0,0,0,0,0,0,0,0,0,0,0,0,0,0,0,0,0,0,0,0,0,0,0,0,0,0,0,0,0,0,0,0,0,0,0,0,0,0,0,0,0,0,0,0,0,0,0,0,0,0,0,0,0,0,0,0,0,0,0,0,0,0,0,0,0,0,0,0,0,0,0,0,0,
0,0,0,0,0,0,0,0,0,0,0,0,0,0,0,0,0,0,0,0,0,0,0,0,0,0,0,0,0,0,0,0,0,0,0,0,0,0,0,0,0,0,0,0,0,0,0,0,0,0,0,0,0,0,0,0,0,0,0,0,0,0,0,0,0,0,0,0,0,0,0,0,0,0,0,0,0,0,0,0,0,0,0,0,0,0,0,0,0,0,0,0,0,0,0,0,0,0,0,0,0,0,0,0,0,0,0,0,0,0,0,0,0,0,0,0,0,0,0,0,0,0,0,0,0,0,0,0,0,0,0,0,0,0,0,0,0,0,0,0,0,0,0,0,0,0,0,0,0,0,0,0,0,0,0,0,0,0,0,0,0,0,0,0,0,0,0,0,0,0,0,0,0,0,0,0,0,0,0,0,0,0,0,0,0,0,0,0,0,0,0,0,0,0,0,0,0,0,0,0,0,0,0,0,0,0,0,0,0,0,0,0,0,0,0,0,0,0,0,0,0,0,0,0,0,0,0,0,0,0,0,0,0,0,0,0,0,0,0,0,0,0,0,0,0,0,0,0,0,0,
0,0,0,0,0,0,0,0,0,0,0,0,0,0,0,0,0,0,0,0,0,0,0,0,0,0,0,0,0,0,0,0,0,0,0,0,0,0,0,0,0,0,0,0,0,0,0,0,0,0,0,0,0,0,0,0,0,0,0,0,0,0,0,0,0,0,0,0,0,0,0,0,0,0,0,0,0,0,0,0,0,0,0,0,0,0,0,0,0,0,0,0,0,0,0,0,0,0,0,0,0,0,0,0,0,0,0,0,0,0,0,0,0,0,0,0,0,0,0,0,0,0,0,0,0,0,0,0,0,0,0,0,0,0,0,0,0,0,0,0,0,0,0,0,0,0,0,0,0,0,0,0,0,0,0,0,0,0,0,0,0,0,0,0,0,0,0,0,0,0,0,0,0,0,0,0,0,0,0,0,0,0,0,0,0,0,0,0,0,0,0,0,0,0,0,0,0,0,0,0,0,0,0,0,0,0,0,0,0,0,0,0,0,0,0,0,0,0,0,0,0,0,0,0,0,0,0,0,0,0,0,0,0,0,0,0,0,0,0,0,0,0,0,0,0,0,0,0,0,0,
0,0,0,0,0,0,0,0,0,0,0,0,0,0,0,0,0,0,0,0,0,0,0,0,0,0,0,0,0,0,0,0,0,0,0,0,0,0,0,0,0,0,0,0,0,0,0,0,0,0,0,0,0,0,0,0,0,0,0,0,0,0,0,0,0,0,0,0,0,0,0,0,0,0,0,0,0,0,0,0,0,0,0,0,0,0,0,0,0,0,0,0,0,0,0,0,0,0,0,0,0,0,0,0,0,0,0,0,0,0,0,0,0,0,0,0,0,0,0,0,0,0,0,0,0,0,0,0,0,0,0,0,0,0,0,0,0,0,0,0,0,0,0,0,0,0,0,0,0,0,0,0,0,0,0,0,0,0,0,0,0,0,0,0,0,0,0,0,0,0,0,0,0,0,0,0,0,0,0,0,0,0,0,0,0,0,0,0,0,0,0,0,0,0,0,0,0,0,0,0,0,0,0,0,0,0,0,0,0,0,0,0,0,0,0,0,0,0,0,0,0,0,0,0,0,0,0,0,0,0,0,0,0,0,0,0,0,0,0,0,0,0,0,0,0,0,0,0,0,0,
0,0,0,0,0,0,0,0,0,0,0,0,0,0,0,0,0,0,0,0,0,0,0,0,0,0,0,0,0,0,0,0,0,0,0,0,0,0,0,0,0,0,0,0,0,0,0,0,0,0,0,0,0,0,0,0,0,0,0,0,0,0,0,0,0,0,0,0,0,0,0,0,0,0,0,0,0,0,0,0,0,0,0,0,0,0,0,0,0,0,0,0,0,0,0,0,0,0,0,0,0,0,0,0,0,0,0,0,0,0,0,0,0,0,0,0,0,0,0,0,0,0,0,0,0,0,0,0,0,0,0,0,0,0,0,0,0,0,0,0,0,0,0,0,0,0,0,0,0,0,0,0,0,0,0,0,0,0,0,0,0,0,0,0,0,0,0,0,0,0,0,0,0,0,0,0,0,0,0,0,0,0,0,0,0,0,0,0,0,0,0,0,0,0,0,0,0,0,0,0,0,0,0,0,0,0,0,0,0,0,0,0,0,0,0,0,0,0,0,0,0,0,0,0,0,0,0,0,0,0,0,0,0,0,0,0,0,0,0,0,0,0,0,0,0,0,0,0,0,0,
0,0,0,0,0,0,0,0,0,0,0,0,0,0,0,0,0,0,0,0,0,0,0,0,0,0,0,0,0,0,0,0,0,0,0,0,0,0,0,0,0,0,0,0,0,0,0,0,0,0,0,0,0,0,0,0,0,0,0,0,0,0,0,0,0,0,0,0,0,0,0,0,0,0,0,0,0,0,0,0,0,0,0,0,0,0,0,0,0,0,0,0,0,0,0,0,0,0,0,0,0,0,0,0,0,0,0,0,0,0,0,0,0,0,0,0,0,0,0,0,0,0,0,0,0,0,0,0,0,0,0,0,0,0,0,0,0,0,0,0,0,0,0,0,0,0,0,0,0,0,0,0,0,0,0,0,0,0,0,0,0,0,0,0,0,0,0,0,0,0,0,0,0,0,0,0,0,0,0,0,0,0,0,0,0,0,0,0,0,0,0,0,0,0,0,0,0,0,0,0,0,0,0,0,0,0,0,0,0,0,0,0,0,0,0,0,0,0,0,0,0,0,0,0,0,0,0,0,0,0,0,0,0,0,0,0,0,0,0,0,0,0,0,0,0,0,0,0,0,0,
0,0,0,0,0,0,0,0,0,0,0,0,0,0,0,0,0,0,0,0,0,0,0,0,0,0,0,0,0,0,0,0,0,0,0,0,0,0,0,0,0,0,0,0,0,0,0,0,0,0,0,0,0,0,0,0,0,0,0,0,0,0,0,0,0,0,0,0,0,0,0,0,0,0,0,0,0,0,0,0,0,0,0,0,0,0,0,0,0,0,0,0,0,0,0,0,0,0,0,0,0,0,0,0,0,0,0,0,0,0,0,0,0,0,0,0,0,0,0,0,0,0,0,0,0,0,0,0,0,0,0,0,0,0,0,0,0,0,0,0,0,0,0,0,0,0,0,0,0,0,0,0,0,0,0,0,0,0,0,0,0,0,0,0,0,0,0,0,0,0,0,0,0,0,0,0,0,0,0,0,0,0,0,0,0,0,0,0,0,0,0,0,0,0,0,0,0,0,0,0,0,0,0,0,0,0,0,0,0,0,0,0,0,0,0,0,0,0,0,0,0,0,0,0,0,0,0,0,0,0,0,0,0,0,0,0,0,0,0,0,0,0,0,0,0,0,0,0,0,0,
0,0,0,0,0,0,0,0,0,0,0,0,0,0,0,0,0,0,0,0,0,0,0,0,0,0,0,0,0,0,0,0,0,0,0,0,0,0,0,0,0,0,0,0,0,0,0,0,0,0,0,0,0,0,0,0,0,0,0,0,0,0,0,0,0,0,0,0,0,0,0,0,0,0,0,0,0,0,0,0,0,0,0,0,0,0,0,0,0,0,0,0,0,0,0,0,0,0,0,0,0,0,0,0,0,0,0,0,0,0,0,0,0,0,0,0,0,0,0,0,0,0,0,0,0,0,0,0,0,0,0,0,0,0,0,0,0,0,0,0,0,0,0,0,0,0,0,0,0,0,0,0,0,0,0,0,0,0,0,0,0,0,0,0,0,0,0,0,0,0,0,0,0,0,0,0,0,0,0,0,0,0,0,0,0,0,0,0,0,0,0,0,0,0,0,0,0,0,0,0,0,0,0,0,0,0,0,0,0,0,0,0,0,0,0,0,0,0,0,0,0,0,0,0,0,0,0,0,0,0,0,0,0,0,0,0,0,0,0,0,0,0,0,0,0,0,0,0,0,0,
0,0,0,0,0,0,0,0,0,0,0,0,0,0,0,0,0,0,0,0,0,0,0,0,0,0,0,0,0,0,0,0,0,0,0,0,0,0,0,0,0,0,0,0,0,0,0,0,0,0,0,0,0,0,0,0,0,0,0,0,0,0,0,0,0,0,0,0,0,0,0,0,0,0,0,0,0,0,0,0,0,0,0,0,0,0,0,0,0,0,0,0,0,0,0,0,0,0,0,0,0,0,0,0,0,0,0,0,0,0,0,0,0,0,0,0,0,0,0,0,0,0,0,0,0,0,0,0,0,0,0,0,0,0,0,0,0,0,0,0,0,0,0,0,0,0,0,0,0,0,0,0,0,0,0,0,0,0,0,0,0,0,0,0,0,0,0,0,0,0,0,0,0,0,0,0,0,0,0,0,0,0,0,0,0,0,0,0,0,0,0,0,0,0,0,0,0,0,0,0,0,0,0,0,0,0,0,0,0,0,0,0,0,0,0,0,0,0,0,0,0,0,0,0,0,0,0,0,0,0,0,0,0,0,0,0,0,0,0,0,0,0,0,0,0,0,0,0,0,0,
0,0,0,0,0,0,0,0,0,0,0,0,0,0,0,0,0,0,0,0,0,0,0,0,0,0,0,0,0,0,0,0,0,0,0,0,0,0,0,0,0,0,0,0,0,0,0,0,0,0,0,0,0,0,0,0,0,0,0,0,0,0,0,0,0,0,0,0,0,0,0,0,0,0,0,0,0,0,0,0,0,0,0,0,0,0,0,0,0,0,0,0,0,0,0,0,0,0,0,0,0,0,0,0,0,0,0,0,0,0,0,0,0,0,0,0,0,0,0,0,0,0,0,0,0,0,0,0,0,0,0,0,0,0,0,0,0,0,0,0,0,0,0,0,0,0,0,0,0,0,0,0,0,0,0,0,0,0,0,0,0,0,0,0,0,0,0,0,0,0,0,0,0,0,0,0,0,0,0,0,0,0,0,0,0,0,0,0,0,0,0,0,0,0,0,0,0,0,0,0,0,0,0,0,0,0,0,0,0,0,0,0,0,0,0,0,0,0,0,0,0,0,0,0,0,0,0,0,0,0,0,0,0,0,0,0,0,0,0,0,0,0,0,0,0,0,0,0,0,0,
0,0,0,0,0,0,0,0,0,0,0,0,0,0,0,0,0,0,0,0,0,0,0,0,0,0,0,0,0,0,0,0,0,0,0,0,0,0,0,0,0,0,0,0,0,0,0,0,0,0,0,0,0,0,0,0,0,0,0,0,0,0,0,0,0,0,0,0,0,0,0,0,0,0,0,0,0,0,0,0,0,0,0,0,0,0,0,0,0,0,0,0,0,0,0,0,0,0,0,0,0,0,0,0,0,0,0,0,0,0,0,0,0,0,0,0,0,0,0,0,0,0,0,0,0,0,0,0,0,0,0,0,0,0,0,0,0,0,0,0,0,0,0,0,0,0,0,0,0,0,0,0,0,0,0,0,0,0,0,0,0,0,0,0,0,0,0,0,0,0,0,0,0,0,0,0,0,0,0,0,0,0,0,0,0,0,0,0,0,0,0,0,0,0,0,0,0,0,0,0,0,0,0,0,0,0,0,0,0,0,0,0,0,0,0,0,0,0,0,0,0,0,0,0,0,0,0,0,0,0,0,0,0,0,0,0,0,0,0,0,0,0,0,0,0,0,0,0,0,0,
0,0,0,0,0,0,0,0,0,0,0,0,0,0,0,0,0,0,0,0,0,0,0,0,0,0,0,0,0,0,0,0,0,0,0,0,0,0,0,0,0,0,0,0,0,0,0,0,0,0,0,0,0,0,0,0,0,0,0,0,0,0,0,0,0,0,0,0,0,0,0,0,0,0,0,0,0,0,0,0,0,0,0,0,0,0,0,0,0,0,0,0,0,0,0,0,0,0,0,0,0,0,0,0,0,0,0,0,0,0,0,0,0,0,0,0,0,0,0,0,0,0,0,0,0,0,0,0,0,0,0,0,0,0,0,0,0,0,0,0,0,0,0,0,0,0,0,0,0,0,0,0,0,0,0,0,0,0,0,0,0,0,0,0,0,0,0,0,0,0,0,0,0,0,0,0,0,0,0,0,0,0,0,0,0,0,0,0,0,0,0,0,0,0,0,0,0,0,0,0,0,0,0,0,0,0,0,0,0,0,0,0,0,0,0,0,0,0,0,0,0,0,0,0,0,0,0,0,0,0,0,0,0,0,0,0,0,0,0,0,0,0,0,0,0,0,0,0,0,0,
0,0,0,0,0,0,0,0,0,0,0,0,0,0,0,0,0,0,0,0,0,0,0,0,0,0,0,0,0,0,0,0,0,0,0,0,0,0,0,0,0,0,0,0,0,0,0,0,0,0,0,0,0,0,0,0,0,0,0,0,0,0,0,0,0,0,0,0,0,0,0,0,0,0,0,0,0,0,0,0,0,0,0,0,0,0,0,0,0,0,0,0,0,0,0,0,0,0,0,0,0,0,0,0,0,0,0,0,0,0,0,0,0,0,0,0,0,0,0,0,0,0,0,0,0,0,0,0,0,0,0,0,0,0,0,0,0,0,0,0,0,0,0,0,0,0,0,0,0,0,0,0,0,0,0,0,0,0,0,0,0,0,0,0,0,0,0,0,0,0,0,0,0,0,0,0,0,0,0,0,0,0,0,0,0,0,0,0,0,0,0,0,0,0,0,0,0,0,0,0,0,0,0,0,0,0,0,0,0,0,0,0,0,0,0,0,0,0,0,0,0,0,0,0,0,0,0,0,0,0,0,0,0,0,0,0,0,0,0,0,0,0,0,0,0,0,0,0,0,0,
0,0,0,0,0,0,0,0,0,0,0,0,0,0,0,0,0,0,0,0,0,0,0,0,0,0,0,0,0,0,0,0,0,0,0,0,0,0,0,0,0,0,0,0,0,0,0,0,0,0,0,0,0,0,0,0,0,0,0,0,0,0,0,0,0,0,0,0,0,0,0,0,0,0,0,0,0,0,0,0,0,0,0,0,0,0,0,0,0,0,0,0,0,0,0,0,0,0,0,0,0,0,0,0,0,0,0,0,0,0,0,0,0,0,0,0,0,0,0,0,0,0,0,0,0,0,0,0,0,0,0,0,0,0,0,0,0,0,0,0,0,0,0,0,0,0,0,0,0,0,0,0,0,0,0,0,0,0,0,0,0,0,0,0,0,0,0,0,0,0,0,0,0,0,0,0,0,0,0,0,0,0,0,0,0,0,0,0,0,0,0,0,0,0,0,0,0,0,0,0,0,0,0,0,0,0,0,0,0,0,0,0,0,0,0,0,0,0,0,0,0,0,0,0,0,0,0,0,0,0,0,0,0,0,0,0,0,0,0,0,0,0,0,0,0,0,0,0,0,0,
0,0,0,0,0,0,0,0,0,0,0,0,0,0,0,0,0,0,0,0,0,0,0,0,0,0,0,0,0,0,0,0,0,0,0,0,0,0,0,0,0,0,0,0,0,0,0,0,0,0,0,0,0,0,0,0,0,0,0,0,0,0,0,0,0,0,0,0,0,0,0,0,0,0,0,0,0,0,0,0,0,0,0,0,0,0,0,0,0,0,0,0,0,0,0,0,0,0,0,0,0,0,0,0,0,0,0,0,0,0,0,0,0,0,0,0,0,0,0,0,0,0,0,0,0,0,0,0,0,0,0,0,0,0,0,0,0,0,0,0,0,0,0,0,0,0,0,0,0,0,0,0,0,0,0,0,0,0,0,0,0,0,0,0,0,0,0,0,0,0,0,0,0,0,0,0,0,0,0,0,0,0,0,0,0,0,0,0,0,0,0,0,0,0,0,0,0,0,0,0,0,0,0,0,0,0,0,0,0,0,0,0,0,0,0,0,0,0,0,0,0,0,0,0,0,0,0,0,0,0,0,0,0,0,0,0,0,0,0,0,0,0,0,0,0,0,0,0,0,0,
0,0,0,0,0,0,0,0,0,0,0,0,0,0,0,0,0,0,0,0,0,0,0,0,0,0,0,0,0,0,0,0,0,0,0,0,0,0,0,0,0,0,0,0,0,0,0,0,0,0,0,0,0,0,0,0,0,0,0,0,0,0,0,0,0,0,0,0,0,0,0,0,0,0,0,0,0,0,0,0,0,0,0,0,0,0,0,0,0,0,0,0,0,0,0,0,0,0,0,0,0,0,0,0,0,0,0,0,0,0,0,0,0,0,0,0,0,0,0,0,0,0,0,0,0,0,0,0,0,0,0,0,0,0,0,0,0,0,0,0,0,0,0,0,0,0,0,0,0,0,0,0,0,0,0,0,0,0,0,0,0,0,0,0,0,0,0,0,0,0,0,0,0,0,0,0,0,0,0,0,0,0,0,0,0,0,0,0,0,0,0,0,0,0,0,0,0,0,0,0,0,0,0,0,0,0,0,0,0,0,0,0,0,0,0,0,0,0,0,0,0,0,0,0,0,0,0,0,0,0,0,0,0,0,0,0,0,0,0,0,0,0,0,0,0,0,0,0,0,0,
0,0,0,0,0,0,0,0,0,0,0,0,0,0,0,0,0,0,0,0,0,0,0,0,0,0,0,0,0,0,0,0,0,0,0,0,0,0,0,0,0,0,0,0,0,0,0,0,0,0,0,0,0,0,0,0,0,0,0,0,0,0,0,0,0,0,0,0,0,0,0,0,0,0,0,0,0,0,0,0,0,0,0,0,0,0,0,0,0,0,0,0,0,0,0,0,0,0,0,0,0,0,0,0,0,0,0,0,0,0,0,0,0,0,0,0,0,0,0,0,0,0,0,0,0,0,0,0,0,0,0,0,0,0,0,0,0,0,0,0,0,0,0,0,0,0,0,0,0,0,0,0,0,0,0,0,0,0,0,0,0,0,0,0,0,0,0,0,0,0,0,0,0,0,0,0,0,0,0,0,0,0,0,0,0,0,0,0,0,0,0,0,0,0,0,0,0,0,0,0,0,0,0,0,0,0,0,0,0,0,0,0,0,0,0,0,0,0,0,0,0,0,0,0,0,0,0,0,0,0,0,0,0,0,0,0,0,0,0,0,0,0,0,0,0,0,0,0,0,0,
0,0,0,0,0,0,0,0,0,0,0,0,0,0,0,0,0,0,0,0,0,0,0,0,0,0,0,0,0,0,0,0,0,0,0,0,0,0,0,0,0,0,0,0,0,0,0,0,0,0,0,0,0,0,0,0,0,0,0,0,0,0,0,0,0,0,0,0,0,0,0,0,0,0,0,0,0,0,0,0,0,0,0,0,0,0,0,0,0,0,0,0,0,0,0,0,0,0,0,0,0,0,0,0,0,0,0,0,0,0,0,0,0,0,0,0,0,0,0,0,0,0,0,0,0,0,0,0,0,0,0,0,0,0,0,0,0,0,0,0,0,0,0,0,0,0,0,0,0,0,0,0,0,0,0,0,0,0,0,0,0,0,0,0,0,0,0,0,0,0,0,0,0,0,0,0,0,0,0,0,0,0,0,0,0,0,0,0,0,0,0,0,0,0,0,0,0,0,0,0,0,0,0,0,0,0,0,0,0,0,0,0,0,0,0,0,0,0,0,0,0,0,0,0,0,0,0,0,0,0,0,0,0,0,0,0,0,0,0,0,0,0,0,0,0,0,0,0,0,0,
0,0,0,0,0,0,0,0,0,0,0,0,0,0,0,0,0,0,0,0,0,0,0,0,0,0,0,0,0,0,0,0,0,0,0,0,0,0,0,0,0,0,0,0,0,0,0,0,0,0,0,0,0,0,0,0,0,0,0,0,0,0,0,0,0,0,0,0,0,0,0,0,0,0,0,0,0,0,0,0,0,0,0,0,0,0,0,0,0,0,0,0,0,0,0,0,0,0,0,0,0,0,0,0,0,0,0,0,0,0,0,0,0,0,0,0,0,0,0,0,0,0,0,0,0,0,0,0,0,0,0,0,0,0,0,0,0,0,0,0,0,0,0,0,0,0,0,0,0,0,0,0,0,0,0,0,0,0,0,0,0,0,0,0,0,0,0,0,0,0,0,0,0,0,0,0,0,0,0,0,0,0,0,0,0,0,0,0,0,0,0,0,0,0,0,0,0,0,0,0,0,0,0,0,0,0,0,0,0,0,0,0,0,0,0,0,0,0,0,0,0,0,0,0,0,0,0,0,0,0,0,0,0,0,0,0,0,0,0,0,0,0,0,0,0,0,0,0,0,0,
0,0,0,0,0,0,0,0,0,0,0,0,0,0,0,0,0,0,0,0,0,0,0,0,0,0,0,0,0,0,0,0,0,0,0,0,0,0,0,0,0,0,0,0,0,0,0,0,0,0,0,0,0,0,0,0,0,0,0,0,0,0,0,0,0,0,0,0,0,0,0,0,0,0,0,0,0,0,0,0,0,0,0,0,0,0,0,0,0,0,0,0,0,0,0,0,0,0,0,0,0,0,0,0,0,0,0,0,0,0,0,0,0,0,0,0,0,0,0,0,0,0,0,0,0,0,0,0,0,0,0,0,0,0,0,0,0,0,0,0,0,0,0,0,0,0,0,0,0,0,0,0,0,0,0,0,0,0,0,0,0,0,0,0,0,0,0,0,0,0,0,0,0,0,0,0,0,0,0,0,0,0,0,0,0,0,0,0,0,0,0,0,0,0,0,0,0,0,0,0,0,0,0,0,0,0,0,0,0,0,0,0,0,0,0,0,0,0,0,0,0,0,0,0,0,0,0,0,0,0,0,0,0,0,0,0,0,0,0,0,0,0,0,0,0,0,0,0,0,0,
0,0,0,0,0,0,0,0,0,0,0,0,0,0,0,0,0,0,0,0,0,0,0,0,0,0,0,0,0,0,0,0,0,0,0,0,0,0,0,0,0,0,0,0,0,0,0,0,0,0,0,0,0,0,0,0,0,0,0,0,0,0,0,0,0,0,0,0,0,0,0,0,0,0,0,0,0,0,0,0,0,0,0,0,0,0,0,0,0,0,0,0,0,0,0,0,0,0,0,0,0,0,0,0,0,0,0,0,0,0,0,0,0,0,0,0,0,0,0,0,0,0,0,0,0,0,0,0,0,0,0,0,0,0,0,0,0,0,0,0,0,0,0,0,0,0,0,0,0,0,0,0,0,0,0,0,0,0,0,0,0,0,0,0,0,0,0,0,0,0,0,0,0,0,0,0,0,0,0,0,0,0,0,0,0,0,0,0,0,0,0,0,0,0,0,0,0,0,0,0,0,0,0,0,0,0,0,0,0,0,0,0,0,0,0,0,0,0,0,0,0,0,0,0,0,0,0,0,0,0,0,0,0,0,0,0,0,0,0,0,0,0,0,0,0,0,0,0,0,0,
0,0,0,0,0,0,0,0,0,0,0,0,0,0,0,0,0,0,0,0,0,0,0,0,0,0,0,0,0,0,0,0,0,0,0,0,0,0,0,0,0,0,0,0,0,0,0,0,0,0,0,0,0,0,0,0,0,0,0,0,0,0,0,0,0,0,0,0,0,0,0,0,0,0,0,0,0,0,0,0,0,0,0,0,0,0,0,0,0,0,0,0,0,0,0,0,0,0,0,0,0,0,0,0,0,0,0,0,0,0,0,0,0,0,0,0,0,0,0,0,0,0,0,0,0,0,0,0,0,0,0,0,0,0,0,0,0,0,0,0,0,0,0,0,0,0,0,0,0,0,0,0,0,0,0,0,0,0,0,0,0,0,0,0,0,0,0,0,0,0,0,0,0,0,0,0,0,0,0,0,0,0,0,0,0,0,0,0,0,0,0,0,0,0,0,0,0,0,0,0,0,0,0,0,0,0,0,0,0,0,0,0,0,0,0,0,0,0,0,0,0,0,0,0,0,0,0,0,0,0,0,0,0,0,0,0,0,0,0,0,0,0,0,0,0,0,0,0,0,0,
0,0,0,0,0,0,0,0,0,0,0,0,0,0,0,0,0,0,0,0,0,0,0,0,0,0,0,0,0,0,0,0,0,0,0,0,0,0,0,0,0,0,0,0,0,0,0,0,0,0,0,0,0,0,0,0,0,0,0,0,0,0,0,0,0,0,0,0,0,0,0,0,0,0,0,0,0,0,0,0,0,0,0,0,0,0,0,0,0,0,0,0,0,0,0,0,0,0,0,0,0,0,0,0,0,0,0,0,0,0,0,0,0,0,0,0,0,0,0,0,0,0,0,0,0,0,0,0,0,0,0,0,0,0,0,0,0,0,0,0,0,0,0,0,0,0,0,0,0,0,0,0,0,0,0,0,0,0,0,0,0,0,0,0,0,0,0,0,0,0,0,0,0,0,0,0,0,0,0,0,0,0,0,0,0,0,0,0,0,0,0,0,0,0,0,0,0,0,0,0,0,0,0,0,0,0,0,0,0,0,0,0,0,0,0,0,0,0,0,0,0,0,0,0,0,0,0,0,0,0,0,0,0,0,0,0,0,0,0,0,0,0,0,0,0,0,0,0,0,0,
0,0,0,0,0,0,0,0,0,0,0,0,0,0,0,0,0,0,0,0,0,0,0,0,0,0,0,0,0,0,0,0,0,0,0,0,0,0,0,0,0,0,0,0,0,0,0,0,0,0,0,0,0,0,0,0,0,0,0,0,0,0,0,0,0,0,0,0,0,0,0,0,0,0,0,0,0,0,0,0,0,0,0,0,0,0,0,0,0,0,0,0,0,0,0,0,0,0,0,0,0,0,0,0,0,0,0,0,0,0,0,0,0,0,0,0,0,0,0,0,0,0,0,0,0,0,0,0,0,0,0,0,0,0,0,0,0,0,0,0,0,0,0,0,0,0,0,0,0,0,0,0,0,0,0,0,0,0,0,0,0,0,0,0,0,0,0,0,0,0,0,0,0,0,0,0,0,0,0,0,0,0,0,0,0,0,0,0,0,0,0,0,0,0,0,0,0,0,0,0,0,0,0,0,0,0,0,0,0,0,0,0,0,0,0,0,0,0,0,0,0,0,0,0,0,0,0,0,0,0,0,0,0,0,0,0,0,0,0,0,0,0,0,0,0,0,0,0,0,0,
0,0,0,0,0,0,0,0,0,0,0,0,0,0,0,0,0,0,0,0,0,0,0,0,0,0,0,0,0,0,0,0,0,0,0,0,0,0,0,0,0,0,0,0,0,0,0,0,0,0,0,0,0,0,0,0,0,0,0,0,0,0,0,0,0,0,0,0,0,0,0,0,0,0,0,0,0,0,0,0,0,0,0,0,0,0,0,0,0,0,0,0,0,0,0,0,0,0,0,0,0,0,0,0,0,0,0,0,0,0,0,0,0,0,0,0,0,0,0,0,0,0,0,0,0,0,0,0,0,0,0,0,0,0,0,0,0,0,0,0,0,0,0,0,0,0,0,0,0,0,0,0,0,0,0,0,0,0,0,0,0,0,0,0,0,0,0,0,0,0,0,0,0,0,0,0,0,0,0,0,0,0,0,0,0,0,0,0,0,0,0,0,0,0,0,0,0,0,0,0,0,0,0,0,0,0,0,0,0,0,0,0,0,0,0,0,0,0,0,0,0,0,0,0,0,0,0,0,0,0,0,0,0,0,0,0,0,0,0,0,0,0,0,0,0,0,0,0,0,0,
0,0,0,0,0,0,0,0,0,0,0,0,0,0,0,0,0,0,0,0,0,0,0,0,0,0,0,0,0,0,0,0,0,0,0,0,0,0,0,0,0,0,0,0,0,0,0,0,0,0,0,0,0,0,0,0,0,0,0,0,0,0,0,0,0,0,0,0,0,0,0,0,0,0,0,0,0,0,0,0,0,0,0,0,0,0,0,0,0,0,0,0,0,0,0,0,0,0,0,0,0,0,0,0,0,0,0,0,0,0,0,0,0,0,0,0,0,0,0,0,0,0,0,0,0,0,0,0,0,0,0,0,0,0,0,0,0,0,0,0,0,0,0,0,0,0,0,0,0,0,0,0,0,0,0,0,0,0,0,0,0,0,0,0,0,0,0,0,0,0,0,0,0,0,0,0,0,0,0,0,0,0,0,0,0,0,0,0,0,0,0,0,0,0,0,0,0,0,0,0,0,0,0,0,0,0,0,0,0,0,0,0,0,0,0,0,0,0,0,0,0,0,0,0,0,0,0,0,0,0,0,0,0,0,0,0,0,0,0,0,0,0,0,0,0,0,0,0,0,0,
0,0,0,0,0,0,0,0,0,0,0,0,0,0,0,0,0,0,0,0,0,0,0,0,0,0,0,0,0,0,0,0,0,0,0,0,0,0,0,0,0,0,0,0,0,0,0,0,0,0,0,0,0,0,0,0,0,0,0,0,0,0,0,0,0,0,0,0,0,0,0,0,0,0,0,0,0,0,0,0,0,0,0,0,0,0,0,0,0,0,0,0,0,0,0,0,0,0,0,0,0,0,0,0,0,0,0,0,0,0,0,0,0,0,0,0,0,0,0,0,0,0,0,0,0,0,0,0,0,0,0,0,0,0,0,0,0,0,0,0,0,0,0,0,0,0,0,0,0,0,0,0,0,0,0,0,0,0,0,0,0,0,0,0,0,0,0,0,0,0,0,0,0,0,0,0,0,0,0,0,0,0,0,0,0,0,0,0,0,0,0,0,0,0,0,0,0,0,0,0,0,0,0,0,0,0,0,0,0,0,0,0,0,0,0,0,0,0,0,0,0,0,0,0,0,0,0,0,0,0,0,0,0,0,0,0,0,0,0,0,0,0,0,0,0,0,0,0,0,0,
0,0,0,0,0,0,0,0,0,0,0,0,0,0,0,0,0,0,0,0,0,0,0,0,0,0,0,0,0,0,0,0,0,0,0,0,0,0,0,0,0,0,0,0,0,0,0,0,0,0,0,0,0,0,0,0,0,0,0,0,0,0,0,0,0,0,0,0,0,0,0,0,0,0,0,0,0,0,0,0,0,0,0,0,0,0,0,0,0,0,0,0,0,0,0,0,0,0,0,0,0,0,0,0,0,0,0,0,0,0,0,0,0,0,0,0,0,0,0,0,0,0,0,0,0,0,0,0,0,0,0,0,0,0,0,0,0,0,0,0,0,0,0,0,0,0,0,0,0,0,0,0,0,0,0,0,0,0,0,0,0,0,0,0,0,0,0,0,0,0,0,0,0,0,0,0,0,0,0,0,0,0,0,0,0,0,0,0,0,0,0,0,0,0,0,0,0,0,0,0,0,0,0,0,0,0,0,0,0,0,0,0,0,0,0,0,0,0,0,0,0,0,0,0,0,0,0,0,0,0,0,0,0,0,0,0,0,0,0,0,0,0,0,0,0,0,0,0,0,0,
0,0,0,0,0,0,0,0,0,0,0,0,0,0,0,0,0,0,0,0,0,0,0,0,0,0,0,0,0,0,0,0,0,0,0,0,0,0,0,0,0,0,0,0,0,0,0,0,0,0,0,0,0,0,0,0,0,0,0,0,0,0,0,0,0,0,0,0,0,0,0,0,0,0,0,0,0,0,0,0,0,0,0,0,0,0,0,0,0,0,0,0,0,0,0,0,0,0,0,0,0,0,0,0,0,0,0,0,0,0,0,0,0,0,0,0,0,0,0,0,0,0,0,0,0,0,0,0,0,0,0,0,0,0,0,0,0,0,0,0,0,0,0,0,0,0,0,0,0,0,0,0,0,0,0,0,0,0,0,0,0,0,0,0,0,0,0,0,0,0,0,0,0,0,0,0,0,0,0,0,0,0,0,0,0,0,0,0,0,0,0,0,0,0,0,0,0,0,0,0,0,0,0,0,0,0,0,0,0,0,0,0,0,0,0,0,0,0,0,0,0,0,0,0,0,0,0,0,0,0,0,0,0,0,0,0,0,0,0,0,0,0,0,0,0,0,0,0,0,0,
0,0,0,0,0,0,0,0,0,0,0,0,0,0,0,0,0,0,0,0,0,0,0,0,0,0,0,0,0,0,0,0,0,0,0,0,0,0,0,0,0,0,0,0,0,0,0,0,0,0,0,0,0,0,0,0,0,0,0,0,0,0,0,0,0,0,0,0,0,0,0,0,0,0,0,0,0,0,0,0,0,0,0,0,0,0,0,0,0,0,0,0,0,0,0,0,0,0,0,0,0,0,0,0,0,0,0,0,0,0,0,0,0,0,0,0,0,0,0,0,0,0,0,0,0,0,0,0,0,0,0,0,0,0,0,0,0,0,0,0,0,0,0,0,0,0,0,0,0,0,0,0,0,0,0,0,0,0,0,0,0,0,0,0,0,0,0,0,0,0,0,0,0,0,0,0,0,0,0,0,0,0,0,0,0,0,0,0,0,0,0,0,0,0,0,0,0,0,0,0,0,0,0,0,0,0,0,0,0,0,0,0,0,0,0,0,0,0,0,0,0,0,0,0,0,0,0,0,0,0,0,0,0,0,0,0,0,0,0,0,0,0,0,0,0,0,0,0,0,0,
0,0,0,0,0,0,0,0,0,0,0,0,0,0,0,0,0,0,0,0,0,0,0,0,0,0,0,0,0,0,0,0,0,0,0,0,0,0,0,0,0,0,0,0,0,0,0,0,0,0,0,0,0,0,0,0,0,0,0,0,0,0,0,0,0,0,0,0,0,0,0,0,0,0,0,0,0,0,0,0,0,0,0,0,0,0,0,0,0,0,0,0,0,0,0,0,0,0,0,0,0,0,0,0,0,0,0,0,0,0,0,0,0,0,0,0,0,0,0,0,0,0,0,0,0,0,0,0,0,0,0,0,0,0,0,0,0,0,0,0,0,0,0,0,0,0,0,0,0,0,0,0,0,0,0,0,0,0,0,0,0,0,0,0,0,0,0,0,0,0,0,0,0,0,0,0,0,0,0,0,0,0,0,0,0,0,0,0,0,0,0,0,0,0,0,0,0,0,0,0,0,0,0,0,0,0,0,0,0,0,0,0,0,0,0,0,0,0,0,0,0,0,0,0,0,0,0,0,0,0,0,0,0,0,0,0,0,0,0,0,0,0,0,0,0,0,0,0,0,0,
0,0,0,0,0,0,0,0,0,0,0,0,0,0,0,0,0,0,0,0,0,0,0,0,0,0,0,0,0,0,0,0,0,0,0,0,0,0,0,0,0,0,0,0,0,0,0,0,0,0,0,0,0,0,0,0,0,0,0,0,0,0,0,0,0,0,0,0,0,0,0,0,0,0,0,0,0,0,0,0,0,0,0,0,0,0,0,0,0,0,0,0,0,0,0,0,0,0,0,0,0,0,0,0,0,0,0,0,0,0,0,0,0,0,0,0,0,0,0,0,0,0,0,0,0,0,0,0,0,0,0,0,0,0,0,0,0,0,0,0,0,0,0,0,0,0,0,0,0,0,0,0,0,0,0,0,0,0,0,0,0,0,0,0,0,0,0,0,0,0,0,0,0,0,0,0,0,0,0,0,0,0,0,0,0,0,0,0,0,0,0,0,0,0,0,0,0,0,0,0,0,0,0,0,0,0,0,0,0,0,0,0,0,0,0,0,0,0,0,0,0,0,0,0,0,0,0,0,0,0,0,0,0,0,0,0,0,0,0,0,0,0,0,0,0,0,0,0,0,0
</data>
 </layer>
 <layer id="1" name="bottom" width="250" height="110">
  <data encoding="csv">
0,0,0,0,0,0,0,0,0,0,0,0,0,0,0,0,0,0,0,0,0,0,0,0,0,0,0,0,0,0,0,0,0,0,0,0,0,0,0,0,0,0,0,0,0,0,0,0,0,0,0,0,0,0,0,0,0,0,0,0,0,0,0,0,0,0,0,0,0,0,0,0,0,0,0,0,0,0,0,0,0,0,0,0,0,0,0,0,0,0,0,0,0,0,0,0,0,0,0,0,0,0,0,0,0,0,0,0,0,0,0,0,0,0,0,0,0,0,0,0,0,0,0,0,0,0,0,0,0,0,0,0,0,0,0,0,0,0,0,0,0,0,0,0,0,0,0,0,0,0,0,0,0,0,0,0,0,0,0,0,0,0,0,0,0,0,0,0,0,0,0,0,0,0,0,0,0,0,0,0,0,0,0,0,0,0,0,0,0,0,0,0,0,0,0,0,0,0,0,0,0,0,0,0,0,0,0,0,0,0,0,0,0,0,0,0,0,0,0,0,0,0,0,0,0,0,0,0,0,0,0,0,0,0,0,0,0,0,0,0,0,0,0,0,0,0,0,0,0,0,
0,0,0,0,0,0,0,0,0,0,0,0,0,0,0,0,0,0,0,0,0,0,0,0,0,0,0,0,0,0,0,0,0,0,0,0,0,0,0,0,0,0,0,0,0,0,0,0,0,0,0,0,0,0,0,0,0,0,0,0,0,0,0,0,0,0,0,0,0,0,0,0,0,0,0,0,0,0,0,0,0,0,0,0,0,0,0,0,0,0,0,0,0,0,0,0,0,0,0,0,0,0,0,0,0,0,0,0,0,0,0,0,0,0,0,0,0,0,0,0,0,0,0,0,0,0,0,0,0,0,0,0,0,0,0,0,0,0,0,0,0,0,0,0,0,0,0,0,0,0,0,0,0,0,0,0,0,0,0,0,0,0,0,0,0,0,0,0,0,0,0,0,0,0,0,0,0,0,0,0,0,0,0,0,0,0,0,0,0,0,0,0,0,0,0,0,0,0,0,0,0,0,0,0,0,0,0,0,0,0,0,0,0,0,0,0,0,0,0,0,0,0,0,0,0,0,0,0,0,0,0,0,0,0,0,0,0,0,0,0,0,0,0,0,0,0,0,0,0,0,
0,0,0,0,0,0,0,0,0,0,0,0,0,0,0,0,0,0,0,0,0,0,0,0,0,0,0,0,0,0,0,0,0,0,0,0,0,0,0,0,0,0,0,0,0,0,0,0,0,0,0,0,0,0,0,0,0,0,0,0,0,0,0,0,0,0,0,0,0,0,0,0,0,0,0,0,0,0,0,0,0,0,0,0,0,0,0,0,0,0,0,0,0,0,0,0,0,0,0,0,0,0,0,0,0,0,0,0,0,0,0,0,0,0,0,0,0,0,0,0,0,0,0,0,0,0,0,0,0,0,0,0,0,0,0,0,0,0,0,0,0,0,0,0,0,0,0,0,0,0,0,0,0,0,0,0,0,0,0,0,0,0,0,0,0,0,0,0,0,0,0,0,0,0,0,0,0,0,0,0,0,0,0,0,0,0,0,0,0,0,0,0,0,0,0,0,0,0,0,0,0,0,0,0,0,0,0,0,0,0,0,0,0,0,0,0,0,0,0,0,0,0,0,0,0,0,0,0,0,0,0,0,0,0,0,0,0,0,0,0,0,0,0,0,0,0,0,0,0,0,
0,0,0,0,0,0,0,0,0,0,0,0,0,0,0,0,0,0,0,0,0,0,0,0,0,0,0,0,0,0,0,0,0,0,0,0,0,0,0,0,0,0,0,0,0,0,0,0,0,0,0,0,0,0,0,0,0,0,0,0,0,0,0,0,0,0,0,0,0,0,0,0,0,0,0,0,0,0,0,0,0,0,0,0,0,0,0,0,0,0,0,0,0,0,0,0,0,0,0,0,0,0,0,0,0,0,0,0,0,0,0,0,0,0,0,0,0,0,0,0,0,0,0,0,0,0,0,0,0,0,0,0,0,0,0,0,0,0,0,0,0,0,0,0,0,0,0,0,0,0,0,0,0,0,0,0,0,0,0,0,0,0,0,0,0,0,0,0,0,0,0,0,0,0,0,0,0,0,0,0,0,0,0,0,0,0,0,0,0,0,0,0,0,0,0,0,0,0,0,0,0,0,0,0,0,0,0,0,0,0,0,0,0,0,0,0,0,0,0,0,0,0,0,0,0,0,0,0,0,0,0,0,0,0,0,0,0,0,0,0,0,0,0,0,0,0,0,0,0,0,
0,0,0,0,0,0,0,0,0,0,0,0,0,0,0,0,0,0,0,0,0,0,0,0,0,0,0,0,0,0,0,0,0,0,0,0,0,0,0,0,0,0,0,0,0,0,0,0,0,0,0,0,0,0,0,0,0,0,0,0,0,0,0,0,0,0,0,0,0,0,0,0,0,0,0,0,0,0,0,0,0,0,0,0,0,0,0,0,0,0,0,0,0,0,0,0,0,0,0,0,0,0,0,0,0,0,0,0,0,0,0,0,0,0,0,0,0,0,0,0,0,0,0,0,0,0,0,0,0,0,0,0,0,0,0,0,0,0,0,0,0,0,0,0,0,0,0,0,0,0,0,0,0,0,0,0,0,0,0,0,0,0,0,0,0,0,0,0,0,0,0,0,0,0,0,0,0,0,0,0,0,0,0,0,0,0,0,0,0,0,0,0,0,0,0,0,0,0,0,0,0,0,0,0,0,0,0,0,0,0,0,0,0,0,0,0,0,0,0,0,0,0,0,0,0,0,0,0,0,0,0,0,0,0,0,0,0,0,0,0,0,0,0,0,0,0,0,0,0,0,
0,0,0,0,0,0,0,0,0,0,0,0,0,0,0,0,0,0,0,0,0,0,0,0,0,0,0,0,0,0,0,0,0,0,0,0,0,0,0,0,0,0,0,0,0,0,0,0,0,0,0,0,0,0,0,0,0,0,0,0,0,0,0,0,0,0,0,0,0,0,0,0,0,0,0,0,0,0,0,0,0,0,0,0,0,0,0,0,0,0,0,0,0,0,0,0,0,0,0,0,0,0,0,0,0,0,0,0,0,0,0,0,0,0,0,0,0,0,0,0,0,0,0,0,0,0,0,0,0,0,0,0,0,0,0,0,0,0,0,0,0,0,0,0,0,0,0,0,0,0,0,0,0,0,0,0,0,0,0,0,0,0,0,0,0,0,0,0,0,0,0,0,0,0,0,0,0,0,0,0,0,0,0,0,0,0,0,0,0,0,0,0,0,0,0,0,0,0,0,0,0,0,0,0,0,0,0,0,0,0,0,0,0,0,0,0,0,0,0,0,0,0,0,0,0,0,0,0,0,0,0,0,0,0,0,0,0,0,0,0,0,0,0,0,0,0,0,0,0,0,
0,0,0,0,0,0,0,0,0,0,0,0,0,0,0,0,0,0,0,0,0,0,0,0,0,0,0,0,0,0,0,0,0,0,0,0,0,0,0,0,0,0,0,0,0,0,0,0,0,0,0,0,0,0,0,0,0,0,0,0,0,0,0,0,0,0,0,0,0,0,0,0,0,0,0,0,0,0,0,0,0,0,0,0,0,0,0,0,0,0,0,0,0,0,0,0,0,0,0,0,0,0,0,0,0,0,0,0,0,0,0,0,0,0,0,0,0,0,0,0,0,0,0,0,0,0,0,0,0,0,0,0,0,0,0,0,0,0,0,0,0,0,0,0,0,0,0,0,0,0,0,0,0,0,0,0,0,0,0,0,0,0,0,0,0,0,0,0,0,0,0,0,0,0,0,0,0,0,0,0,0,0,0,0,0,0,0,0,0,0,0,0,0,0,0,0,0,0,0,0,0,0,0,0,0,0,0,0,0,0,0,0,0,0,0,0,0,0,0,0,0,0,0,0,0,0,0,0,0,0,0,0,0,0,0,0,0,0,0,0,0,0,0,0,0,0,0,0,0,0,
0,0,0,0,0,0,0,0,0,0,0,0,0,0,0,0,0,0,0,0,0,0,0,0,0,0,0,0,0,0,0,0,0,0,0,0,0,0,0,0,0,0,0,0,0,0,0,0,0,0,0,0,0,0,0,0,0,0,0,0,0,0,0,0,0,0,0,0,0,0,0,0,0,0,0,0,0,0,0,0,0,0,0,0,0,0,0,0,0,0,0,0,0,0,0,0,0,0,0,0,0,0,0,0,0,0,0,0,0,0,0,0,0,0,0,0,0,0,0,0,0,0,0,0,0,0,0,0,0,0,0,0,0,0,0,0,0,0,0,0,0,0,0,0,0,0,0,0,0,0,0,0,0,0,0,0,0,0,0,0,0,0,0,0,0,0,0,0,0,0,0,0,0,0,0,0,0,0,0,0,0,0,0,0,0,0,0,0,0,0,0,0,0,0,0,0,0,0,0,0,0,0,0,0,0,0,0,0,0,0,0,0,0,0,0,0,0,0,0,0,0,0,0,0,0,0,0,0,0,0,0,0,0,0,0,0,0,0,0,0,0,0,0,0,0,0,0,0,0,0,
0,0,0,0,0,0,0,0,0,0,0,0,0,0,0,0,0,0,0,0,0,0,0,0,0,0,0,0,0,0,0,0,0,0,0,0,0,0,0,0,0,0,0,0,0,0,0,0,0,0,0,0,0,0,0,0,0,0,0,0,0,0,0,0,0,0,0,0,0,0,0,0,0,0,0,0,0,0,0,0,0,0,0,0,0,0,0,0,0,0,0,0,0,0,0,0,0,0,0,0,0,0,0,0,0,0,0,0,0,0,0,0,0,0,0,0,0,0,0,0,0,0,0,0,0,0,0,0,0,0,0,0,0,0,0,0,0,0,0,0,0,0,0,0,0,0,0,0,0,0,0,0,0,0,0,0,0,0,0,0,0,0,0,0,0,0,0,0,0,0,0,0,0,0,0,0,0,0,0,0,0,0,0,0,0,0,0,0,0,0,0,0,0,0,0,0,0,0,0,0,0,0,0,0,0,0,0,0,0,0,0,0,0,0,0,0,0,0,0,0,0,0,0,0,0,0,0,0,0,0,0,0,0,0,0,0,0,0,0,0,0,0,0,0,0,0,0,0,0,0,
0,0,0,0,0,0,0,0,0,0,0,0,0,0,0,0,0,0,0,0,0,0,0,0,0,0,0,0,0,0,0,0,0,0,0,0,0,0,0,0,0,0,0,0,0,0,0,0,0,0,0,0,0,0,0,0,0,0,0,0,0,0,0,0,0,0,0,0,0,0,0,0,0,0,0,0,0,0,0,0,0,0,0,0,0,0,0,0,0,0,0,0,0,0,0,0,0,0,0,0,0,0,0,0,0,0,0,0,0,0,0,0,0,0,0,0,0,0,0,0,0,0,0,0,0,0,0,0,0,0,0,0,0,0,0,0,0,0,0,0,0,0,0,0,0,0,0,0,0,0,0,0,0,0,0,0,0,0,0,0,0,0,0,0,0,0,0,0,0,0,0,0,0,0,0,0,0,0,0,0,0,0,0,0,0,0,0,0,0,0,0,0,0,0,0,0,0,0,0,0,0,0,0,0,0,0,0,0,0,0,0,0,0,0,0,0,0,0,0,0,0,0,0,0,0,0,0,0,0,0,0,0,0,0,0,0,0,0,0,0,0,0,0,0,0,0,0,0,0,0,
0,0,0,0,0,0,0,0,0,0,0,0,0,0,0,0,0,0,0,0,0,0,0,0,0,0,0,0,0,0,0,0,0,0,0,0,0,0,0,0,0,0,0,0,0,0,0,0,0,0,0,0,0,0,0,0,0,0,0,0,0,0,0,0,0,0,0,0,0,0,0,0,0,0,0,0,0,0,0,0,0,0,0,0,0,0,0,0,0,0,0,0,0,0,0,0,0,0,0,0,0,0,0,0,0,0,0,0,0,0,0,0,0,0,0,0,0,0,0,0,0,0,0,0,0,0,0,0,0,0,0,0,0,0,0,0,0,0,0,0,0,0,0,0,0,0,0,0,0,0,0,0,0,0,0,0,0,0,0,0,0,0,0,0,0,0,0,0,0,0,0,0,0,0,0,0,0,0,0,0,0,0,0,0,0,0,0,0,0,0,0,0,0,0,0,0,0,0,0,0,0,0,0,0,0,0,0,0,0,0,0,0,0,0,0,0,0,0,0,8289,8275,8275,8275,8275,8275,8293,0,0,0,0,0,0,0,0,0,0,0,0,0,0,0,0,0,0,0,0,0,0,0,0,
0,0,0,0,0,0,0,0,0,0,0,0,0,0,0,0,0,0,0,0,0,0,0,0,0,0,0,0,0,0,0,0,0,0,0,0,0,0,0,0,0,0,0,0,0,0,0,0,0,0,0,0,0,0,0,0,0,0,0,0,0,0,0,0,0,0,0,0,0,0,0,0,0,0,0,0,0,0,0,0,0,0,0,0,0,0,0,0,0,0,0,0,0,0,0,0,0,0,0,0,0,0,0,0,0,0,0,0,0,0,0,0,0,0,0,0,0,0,0,0,0,0,0,0,0,0,0,0,0,0,0,0,0,0,0,0,0,0,0,0,0,0,0,0,0,0,0,0,0,0,0,0,0,0,0,0,0,0,0,0,0,0,0,0,0,0,0,0,0,0,0,0,0,0,0,0,0,0,0,0,0,0,0,0,0,0,0,0,0,0,0,0,0,0,0,0,0,0,0,0,0,0,0,0,0,0,0,0,0,0,0,0,0,0,0,0,0,8289,8275,8290,8598,8594,8613,8306,8630,8292,8275,8293,0,0,0,0,0,0,0,0,0,0,0,0,0,0,0,0,0,0,0,0,0,0,
0,0,0,0,0,0,0,0,0,0,0,0,0,0,0,0,0,0,0,0,0,0,0,0,0,0,0,0,0,0,0,0,0,0,0,0,0,0,0,0,0,0,0,0,0,0,0,0,0,0,0,0,0,0,0,0,0,0,0,0,0,0,0,0,0,0,0,0,0,0,0,0,0,0,0,0,0,0,0,0,0,0,0,0,0,0,0,0,0,0,0,0,0,0,0,0,0,0,0,0,0,0,0,0,0,0,0,0,0,0,0,0,0,0,0,0,0,0,0,0,0,0,0,0,0,0,0,0,0,0,0,0,0,0,0,0,0,0,0,0,0,0,0,0,0,0,0,0,0,0,0,0,0,0,0,0,0,0,0,0,0,0,0,0,0,0,0,0,0,0,0,0,0,0,0,0,0,0,0,0,0,0,0,0,0,0,0,0,0,0,0,0,0,0,0,0,0,0,0,0,0,0,0,0,0,0,0,0,0,0,0,0,0,0,0,8289,8275,8290,8627,8626,8627,8610,8614,8596,8323,8323,8598,8292,8275,8293,0,0,0,0,0,0,0,0,0,0,0,0,0,0,0,0,0,0,0,0,
0,0,0,0,0,0,0,0,0,0,0,0,0,0,0,0,0,0,0,0,0,0,0,0,0,0,0,0,0,0,0,0,0,0,0,0,0,0,0,0,0,0,0,0,0,0,0,0,0,0,0,0,0,0,0,0,0,0,0,0,0,0,0,0,0,0,0,0,0,0,0,0,0,0,0,0,0,0,0,0,0,0,0,0,0,0,0,0,0,0,0,0,0,0,0,0,0,0,0,0,0,0,0,0,0,0,0,0,0,0,0,0,0,0,0,0,0,0,0,0,0,0,0,0,0,0,0,0,0,0,0,0,0,0,0,0,0,0,0,0,0,0,0,0,0,0,0,0,0,0,0,0,0,0,0,0,0,0,0,0,0,0,0,0,0,0,0,0,0,0,0,0,0,0,0,0,0,0,0,0,0,0,0,0,0,0,0,0,0,0,0,0,0,0,0,0,0,0,0,0,0,0,0,0,0,0,0,0,0,0,0,0,0,8289,8275,8290,8308,8323,8599,8626,8629,8596,8306,8627,8594,8628,8628,8596,8628,8292,8275,8293,0,0,0,0,0,0,0,0,0,0,0,0,0,0,0,0,0,0,
0,0,0,0,0,0,0,0,0,0,0,0,0,0,0,0,0,0,0,0,0,0,0,0,0,0,0,0,0,0,0,0,0,0,0,0,0,0,0,0,0,0,0,0,0,0,0,0,0,0,0,0,0,0,0,0,0,0,0,0,0,0,0,0,0,0,0,0,0,0,0,0,0,0,0,0,0,0,0,0,0,0,0,0,0,0,0,0,0,0,0,0,0,0,0,0,0,0,0,0,0,0,0,0,0,0,0,0,0,0,0,0,0,0,0,0,0,0,0,0,0,0,0,0,0,0,0,0,0,0,0,0,0,0,0,0,0,0,0,0,0,0,0,0,0,0,0,0,0,0,0,0,0,0,0,0,0,1957,1958,1959,1960,1961,0,0,0,0,0,0,0,0,0,0,0,0,0,0,0,0,0,0,0,0,0,0,0,0,0,0,0,0,0,0,0,0,0,0,0,0,0,0,0,0,0,0,0,0,0,0,0,0,0,8289,8275,8290,8629,8594,8594,8595,8291,8597,8596,8308,8614,8611,8626,8594,8596,8613,8626,8627,8610,8292,8275,8293,0,0,0,0,0,0,0,0,0,0,0,0,0,0,0,0,
0,0,0,0,0,0,0,0,0,0,0,0,0,0,0,0,0,0,0,0,0,0,0,0,0,0,0,0,0,0,0,0,0,17,3,3,3,3,3,21,0,0,0,0,0,0,0,0,0,0,0,0,0,0,0,0,0,0,0,0,0,0,0,0,0,0,0,0,0,0,0,0,0,0,0,0,0,0,0,0,0,0,0,0,0,0,0,0,0,0,0,0,0,0,0,0,0,0,0,0,0,0,0,0,0,0,0,0,0,0,0,0,0,0,0,0,0,0,0,0,0,0,0,0,0,0,0,0,0,0,0,0,0,0,0,0,0,0,0,0,0,0,0,0,0,0,0,0,0,0,0,0,0,0,0,0,0,2021,2022,2023,2024,2025,0,0,0,0,0,0,0,0,0,0,0,0,0,0,0,0,0,0,0,0,0,0,0,0,0,0,0,0,0,0,0,0,0,0,0,0,0,0,0,0,0,0,0,0,0,0,0,8289,8275,8290,8630,8628,8595,8631,8596,8613,8596,8612,8597,8628,8626,8612,8628,8596,8613,8627,8291,8595,8611,8597,8626,8292,8275,8293,0,0,0,0,0,0,0,0,0,0,0,0,0,0,
0,0,0,0,0,0,0,0,0,0,0,0,0,0,0,0,0,0,0,0,0,0,0,0,0,0,0,0,0,0,0,0,17,18,35,35,35,35,51,20,21,0,0,0,0,0,0,0,0,0,0,0,0,0,0,0,0,0,0,0,0,0,0,0,0,0,0,0,0,0,0,0,0,0,0,0,0,0,0,0,0,0,0,0,0,0,0,0,0,0,0,0,0,0,0,0,0,0,0,0,0,0,0,0,0,0,0,0,0,0,0,0,0,0,0,0,0,0,0,0,0,0,0,0,0,0,0,0,0,0,0,0,0,0,0,0,0,0,0,0,4737,4723,4723,4723,4723,4723,4723,4723,4723,4723,4741,0,0,0,0,0,0,2085,2086,2087,2088,2089,0,0,0,0,0,0,0,0,0,0,0,0,0,0,0,0,0,0,0,0,0,0,0,0,0,0,0,0,0,0,0,0,0,0,0,0,0,0,0,0,0,0,0,0,0,8289,8275,8290,8306,8629,8307,8630,8626,8291,8631,8595,8323,8594,8627,8306,8594,8596,8615,8610,8626,8628,8291,8628,8597,8306,8611,8595,8308,8292,8275,8293,0,0,0,0,0,0,0,0,0,0,0,0,
0,0,0,0,0,0,0,0,0,0,0,0,0,0,0,0,0,0,0,0,0,0,0,0,0,0,0,0,0,0,0,17,18,51,51,51,36,34,51,35,37,0,0,0,0,0,0,0,0,0,0,0,0,0,0,0,0,0,0,0,0,0,0,0,0,0,0,0,0,0,0,0,0,0,0,0,0,0,0,0,0,0,0,0,0,0,0,0,0,0,0,0,0,0,0,0,0,0,0,0,0,0,0,0,0,0,0,0,0,0,0,0,0,0,0,0,0,0,0,0,0,0,0,0,0,0,0,0,0,0,0,0,0,0,0,0,0,0,0,0,4753,4993,4739,5009,5010,5005,5012,5025,4995,4993,4757,0,0,0,0,0,0,2149,2150,2151,2152,2153,0,0,0,0,0,0,0,0,0,0,0,0,0,0,0,0,0,0,0,0,0,0,0,0,0,0,0,0,0,0,0,0,0,0,0,0,0,0,0,0,0,0,0,8289,8275,8290,8291,8627,8612,8597,8323,8612,8323,8594,8610,8610,8611,8613,8615,8627,8596,8630,8627,8629,8598,8628,8596,8629,8323,8629,8627,8627,8631,8306,8631,8292,8275,8293,0,0,0,0,0,0,0,0,0,0,
0,0,0,0,0,0,0,0,0,0,0,0,0,0,0,0,0,0,0,0,0,0,0,0,0,0,0,0,0,0,0,33,35,35,51,35,36,36,35,19,20,3,3,3,3,3,3,3,3,21,0,0,0,0,0,0,0,0,0,0,0,0,0,0,0,0,0,0,0,0,0,1913,0,0,0,0,0,0,0,0,0,0,0,0,0,0,0,0,0,0,0,0,0,0,0,0,0,0,0,0,0,0,0,0,0,0,0,0,0,0,0,0,0,0,0,0,0,0,0,0,0,0,0,0,0,0,0,0,0,0,0,0,0,0,0,0,0,0,0,0,4753,5036,5020,5029,5027,4994,5027,5027,5017,4979,4757,0,0,0,0,0,0,2213,2214,2215,2216,2217,0,0,0,0,0,0,0,0,0,0,0,0,0,0,0,0,0,0,0,0,0,0,0,0,0,0,0,0,0,0,0,0,0,0,0,0,0,0,0,0,0,0,8289,8290,8610,8291,8599,8631,8291,8323,8628,8610,8614,8611,8629,8615,8597,8306,8628,8610,8626,8628,8614,8598,8630,8627,8595,8597,8306,8596,8595,8613,8628,8628,8595,8611,8629,8292,8293,0,0,0,0,0,0,0,0,0,
0,0,0,0,0,0,0,0,0,0,0,0,0,0,0,0,0,0,0,0,0,0,0,0,0,0,0,0,0,0,17,18,36,51,51,51,34,36,36,35,51,51,51,19,35,36,51,36,51,20,3,3,21,0,0,0,0,0,17,3,3,3,3,3,3,21,0,0,0,0,0,0,0,0,0,0,0,0,0,0,0,0,0,0,0,0,0,0,0,0,0,0,0,0,0,0,0,0,0,0,0,0,0,0,0,0,0,0,0,0,0,0,0,0,0,0,0,0,0,0,0,0,0,0,0,0,0,0,0,0,0,0,0,0,0,0,0,0,0,0,4753,5026,5012,5010,4756,4995,4755,5027,5029,5024,4757,0,0,0,0,0,0,0,0,0,0,0,0,0,0,0,0,0,0,0,0,0,0,0,0,0,0,0,0,0,0,0,0,0,0,0,0,0,0,0,0,0,0,0,0,0,0,0,0,0,0,0,0,8289,8290,8323,8628,8614,8613,8628,8323,8627,8307,8307,8610,8629,8626,8610,8630,8308,8614,8594,8612,8308,8323,8307,8629,8610,8291,8627,8627,8308,8308,8610,8596,8628,8595,8596,8308,8291,8292,8293,0,0,0,0,0,0,0,0,
0,0,0,0,0,0,0,0,0,0,0,0,0,0,0,0,0,0,0,0,0,0,0,0,0,0,0,0,0,0,33,36,19,51,19,51,36,51,51,35,35,35,36,51,51,35,35,51,51,51,35,36,20,21,0,0,0,17,18,34,36,34,51,36,36,20,3,3,3,3,3,3,3,21,0,0,0,0,0,0,0,0,0,0,0,0,0,0,0,0,0,0,0,0,0,0,0,0,0,0,0,0,0,0,0,0,0,0,0,0,0,0,0,0,0,0,0,0,0,0,0,0,0,0,0,0,0,0,0,0,0,0,0,0,0,0,0,0,0,0,4753,5007,4977,4980,4994,4980,4980,5015,4755,5009,4757,0,0,0,0,0,0,0,0,0,0,0,0,0,0,0,0,0,0,0,0,0,0,0,0,0,0,0,0,0,0,0,0,0,0,0,0,0,0,0,0,0,0,0,0,0,0,0,0,0,0,0,0,8305,8307,8594,8599,8613,8595,8626,8610,8595,8595,8613,8597,8626,8630,8306,8615,8595,8594,8610,8307,8627,8291,8612,8610,8307,8323,8628,8594,8291,8308,8627,8598,8323,8291,8595,8626,8626,8612,8309,0,0,0,0,0,0,0,0,
0,0,0,0,0,0,0,0,0,0,0,0,0,0,0,0,0,0,0,0,0,0,0,0,0,0,0,0,0,0,33,51,36,19,19,34,19,51,19,35,51,52,67,67,67,67,67,50,34,51,51,51,35,37,0,17,3,18,36,35,34,19,34,35,34,51,35,35,51,51,34,35,34,37,0,0,0,0,0,0,0,0,0,0,0,0,0,0,0,0,0,0,0,0,0,0,0,0,0,0,0,0,0,0,0,0,0,0,0,0,0,0,0,0,0,0,0,0,0,0,0,0,0,0,0,0,0,0,0,0,0,0,0,0,0,0,0,0,0,0,4769,4787,3138,4787,4787,4770,4756,4771,5010,4772,4773,0,0,0,0,0,0,0,0,0,0,0,0,0,0,0,0,0,0,0,0,0,0,0,0,0,0,0,0,0,0,0,0,0,0,0,0,0,0,0,0,0,0,0,0,0,0,0,0,0,0,0,0,8305,8626,8306,8291,8610,8595,8628,8291,8594,8597,8629,8307,8596,8631,8291,8596,8597,8596,8627,8323,8595,8323,8306,8613,8627,8628,8611,8291,8307,8628,8595,8628,8307,8613,8308,8291,8596,8308,8309,0,0,0,0,0,0,0,0,
0,0,0,0,0,0,0,0,0,0,0,0,0,0,0,0,0,0,0,0,0,0,0,0,0,0,0,0,0,0,33,35,19,36,51,51,19,35,35,51,35,37,0,0,0,0,0,49,67,50,34,51,35,20,3,18,34,51,51,35,52,1266,1266,1267,1268,1269,1270,1271,50,35,36,36,36,20,3,3,21,0,0,3923,3924,3925,2100,4723,4723,4723,4723,4723,4723,4723,4723,4723,4741,0,0,0,0,0,0,0,0,0,0,0,0,0,0,0,0,0,0,0,0,0,0,0,0,0,0,0,0,0,0,0,0,0,0,0,0,0,0,0,0,0,0,0,0,0,0,0,2354,2420,3202,2420,2420,2171,4993,4993,4994,2172,2358,0,0,0,0,0,0,0,0,0,0,0,0,0,0,0,0,0,0,0,0,0,0,0,0,0,0,0,0,0,0,0,0,0,0,0,0,0,0,0,0,0,0,0,0,0,0,0,0,0,0,0,0,8305,8307,8595,8323,8596,8796,9044,9044,8795,8596,8626,8611,8612,8627,8626,8629,8629,8595,8308,8597,8612,8612,8626,8307,8626,8594,8306,8611,8307,8596,8796,9369,9370,8795,8595,8613,8308,8629,8309,0,0,0,0,0,0,0,0,
0,0,0,0,0,0,0,0,17,3,3,3,3,3,3,3,3,3,21,0,0,0,0,0,0,0,0,0,0,0,33,51,34,36,35,36,51,51,19,35,51,37,0,0,0,0,0,0,0,947,50,51,51,51,35,51,51,51,35,52,949,1330,1330,1331,1332,1333,1334,1335,763,36,51,51,35,35,51,35,20,3,692,3987,3988,3989,2228,4995,4978,5026,5009,4993,4993,4994,4986,5033,4757,0,0,0,0,0,0,0,0,0,0,0,0,4737,4723,4723,4723,4723,4723,4723,4723,4723,4723,4723,4723,4723,4723,4741,0,0,0,0,0,0,0,0,0,0,0,0,0,0,0,0,0,0,0,0,2418,2484,3266,2484,2233,2297,4756,5037,4995,2298,2362,4723,4723,4723,4723,4723,4723,4723,4723,4741,0,0,0,0,0,0,0,0,0,0,0,0,0,0,0,0,0,0,0,0,0,0,0,0,0,0,0,0,0,0,0,0,0,0,0,0,0,0,0,0,0,0,0,8305,8307,8594,8611,8594,8924,9172,9172,8923,8594,8627,8323,8612,8323,8291,8612,8610,8613,8610,8596,8627,8306,8626,8613,8307,8595,8627,8594,8612,8627,8924,9172,9172,8923,8628,8614,8307,8610,8309,0,0,0,0,0,0,0,0,
0,0,0,0,0,0,17,3,18,35,35,36,51,35,19,36,36,36,20,3,3,21,0,0,0,0,0,0,0,0,49,50,36,35,19,35,35,35,51,35,52,53,0,0,0,0,0,0,0,1012,947,67,883,51,51,36,35,35,36,764,1013,1394,1394,1395,1396,1397,1398,1399,832,1266,1267,1268,1269,67,699,35,51,36,820,4051,4052,4053,2228,4771,4755,4978,4771,4980,5012,5032,4994,4755,4757,0,0,0,0,0,0,0,0,0,0,0,0,4753,4979,5027,5025,4756,4996,4995,4999,4980,4993,4994,5025,5003,4978,4757,0,0,0,0,0,0,0,0,0,0,0,0,0,0,0,0,0,0,0,0,0,0,0,0,4753,5029,5011,4998,4983,5011,5025,5018,4993,4739,4977,5008,5031,4993,4755,4757,0,0,0,0,0,0,0,0,0,0,0,0,0,0,0,0,0,0,0,0,0,0,0,0,0,0,0,0,0,0,0,0,0,0,0,0,0,0,0,0,0,0,0,8305,8596,8594,8626,8611,8918,0,0,8914,8598,8306,8627,8628,8308,8323,8596,8628,8595,8610,8308,8613,8611,8596,8628,8291,8597,8595,8308,8627,8595,8918,0,0,8914,8611,8629,8614,8597,8309,0,0,0,0,0,0,0,0,
0,0,0,0,0,0,33,36,36,36,36,51,35,34,51,51,51,51,36,51,36,20,3,21,0,0,0,0,0,0,0,49,67,67,50,36,19,35,35,52,53,0,0,0,0,0,0,0,0,1010,1011,1012,763,51,35,35,34,51,51,828,1014,0,0,0,0,0,0,0,946,1330,1331,1332,1333,1012,947,67,50,36,820,4115,4116,4117,2228,5015,4978,4994,4979,5012,4739,5026,5028,5009,4757,0,0,0,0,0,0,0,0,0,0,0,0,4753,5039,4995,4996,4977,4754,4983,4980,4977,4994,5009,4754,5030,4977,4757,0,0,0,0,0,0,0,0,0,0,0,0,0,0,0,0,0,0,0,0,0,0,0,0,4753,4995,4977,5024,4755,5001,5026,4755,5001,4754,4979,4980,4993,5027,4980,4757,0,0,0,0,0,0,0,0,0,0,0,0,0,0,0,0,0,0,0,0,0,0,0,0,0,0,0,0,0,0,0,0,0,0,0,0,0,0,0,0,0,0,0,8305,8323,8614,8306,8291,8918,0,0,8914,8595,8626,8597,8595,8611,8307,8597,8613,8629,8612,8628,8597,8610,8595,8631,8629,8612,8594,8610,8306,8615,8918,0,0,8914,8626,8308,8596,8308,8309,0,0,0,0,0,0,0,0,
0,0,0,0,0,0,33,51,35,34,19,35,51,35,35,51,35,19,51,36,51,51,19,37,0,0,0,0,0,0,0,0,0,0,49,1576,1577,1578,1579,53,0,0,0,0,0,0,0,0,0,0,1075,1076,832,67,50,35,35,51,52,53,0,0,0,0,0,0,0,0,1010,1394,1395,1396,1397,1076,1011,1012,763,51,51,4179,4180,4181,2356,4787,4787,4787,4787,4787,4770,4995,4994,4995,4757,0,0,0,0,0,0,0,0,0,0,0,0,4753,5010,4996,4754,4996,4991,5010,4996,4978,5010,4996,4771,4979,4993,4757,0,0,0,0,0,0,0,0,0,0,0,0,0,0,0,0,0,0,0,0,0,0,0,0,4753,4986,4756,5012,4978,5026,4979,5025,5030,5028,5009,5022,4978,4979,5013,4757,0,0,0,0,0,0,0,0,0,0,0,0,0,0,0,0,0,0,0,0,0,0,0,0,0,0,0,0,0,0,0,0,0,0,0,0,0,0,0,0,0,0,0,8305,8629,8291,8596,8594,8918,0,0,8914,8594,8612,8306,8614,8308,8596,8595,8610,8323,8323,8306,8612,8291,8599,8613,8596,8596,8599,8629,8597,8307,8918,0,0,8914,8306,8628,8594,8628,8309,0,0,0,0,0,0,0,0,
0,0,0,0,0,0,33,51,35,51,51,35,35,34,36,36,35,35,35,34,35,51,51,37,0,0,0,0,0,0,0,0,0,0,0,1640,1641,1642,1643,0,0,0,0,0,0,0,0,0,0,0,0,0,946,1012,947,50,34,34,764,950,0,0,0,0,0,0,0,0,0,0,0,0,0,0,1075,1076,1020,67,67,4243,4244,4245,4803,4803,4803,4803,4803,4803,4746,4994,5004,5025,4757,0,0,0,0,0,0,0,0,0,0,0,0,4753,4993,5010,5025,5039,5022,4993,4771,4978,4978,4979,5026,4995,4996,4757,0,0,0,0,0,0,0,0,0,0,0,0,0,0,0,0,0,0,0,0,0,0,0,0,4753,4756,5027,5027,4754,4978,5010,4980,5026,5017,4993,5028,4978,4771,4979,4757,0,0,0,0,0,0,0,0,0,0,0,0,0,0,0,0,0,0,0,0,0,0,0,0,0,0,0,0,0,0,0,0,0,0,0,0,0,0,0,0,0,0,0,8305,8630,8307,8594,8628,8918,0,0,8914,8627,8595,8594,8629,8596,8610,8626,8594,8594,8611,8596,8629,8612,8308,8626,8323,8611,8628,8291,8307,8627,8918,0,0,8914,8611,8631,8307,8610,8309,0,0,0,0,0,0,0,0,
0,0,0,0,0,0,33,51,36,35,35,51,34,34,35,35,35,36,51,34,19,36,36,37,0,0,0,0,7838,7839,7840,0,0,0,0,1704,1705,1706,1707,0,0,0,0,0,7834,7835,7836,7837,0,0,0,0,1010,1012,1012,763,51,51,828,1014,0,0,0,0,0,0,0,0,0,0,0,0,0,0,0,0,946,1012,1012,4307,4308,4309,4819,4819,4819,4819,4819,4819,4762,5028,5025,4978,4757,0,0,0,0,0,0,0,0,0,0,0,0,4753,4996,4755,4992,4771,5036,4755,4979,5027,4981,4979,4978,4977,5030,4757,0,0,0,0,0,0,0,0,0,0,0,0,0,0,0,0,0,0,0,0,0,0,0,0,4753,4979,4978,5012,4994,4755,5000,5025,5026,4977,4979,4755,5027,4993,4996,4757,0,0,0,0,0,0,0,0,0,0,0,0,0,0,0,0,0,0,0,0,0,0,0,0,0,0,0,0,0,0,0,0,0,0,0,0,0,0,0,0,0,0,0,8305,8610,8614,8628,8306,8918,0,0,8914,8614,8626,8308,8596,8628,8307,8610,8598,8308,8627,8630,8631,8323,8612,8594,8307,8308,8597,8306,8626,8613,8918,0,0,8914,8630,8594,8611,8610,8309,0,0,0,0,0,0,0,0,
0,0,0,0,0,0,49,67,67,67,67,50,36,36,51,51,51,35,51,35,51,52,67,53,0,0,0,0,7902,7903,7904,0,0,0,0,0,0,0,0,0,0,0,0,0,7898,7899,7900,7901,0,0,0,0,0,1076,1076,827,19,36,37,0,0,0,0,0,0,0,0,0,0,0,0,0,0,0,0,0,1075,1076,1076,4371,4372,4373,0,0,0,0,0,0,4753,5025,4754,4989,4757,0,0,0,0,0,0,0,0,0,0,0,0,4753,5003,5011,4977,4993,4771,4978,5030,4756,4755,5012,4996,5026,5026,4757,0,0,0,0,0,0,0,0,0,0,0,0,0,0,0,0,0,0,0,0,0,0,0,0,4753,5028,4998,5039,5025,4979,5026,5012,4977,4979,4987,4755,5007,4980,4756,4757,0,0,0,0,0,0,0,0,0,0,0,0,0,0,0,0,0,0,0,0,0,0,0,0,0,0,0,0,0,0,0,0,0,0,0,0,0,0,0,0,0,0,0,8305,8626,8306,8627,8612,8918,0,0,8914,8599,8306,8594,8323,8323,8306,8308,8627,8596,8323,8594,8627,8613,8614,8627,8611,8613,8611,8627,8627,8613,8918,0,0,8914,8595,8596,8627,8597,8309,0,0,0,0,0,0,0,0,
0,0,0,0,0,0,946,1012,1012,1012,1012,947,67,67,67,67,50,51,35,36,36,764,1012,950,0,0,0,0,7966,7967,7968,0,0,0,0,0,0,0,0,0,0,0,0,0,7962,7963,7964,7965,0,0,0,0,0,0,0,33,36,35,37,0,0,0,0,0,0,0,0,0,0,0,0,0,0,0,0,0,0,0,0,0,0,0,0,0,0,0,0,0,4753,4983,4755,5025,4740,4723,4723,4723,4723,4723,4723,4723,4723,4723,4723,4723,4723,4738,4771,4977,4996,5023,5011,4981,4980,4739,5027,5025,5011,5012,5009,4757,0,0,0,0,0,0,0,0,0,0,0,0,0,0,0,0,0,0,0,0,0,0,0,0,4753,4995,5010,4996,4979,5011,5011,5011,4756,4756,4978,5012,5012,5028,4980,4757,0,0,0,0,0,0,0,0,0,0,0,0,0,0,0,0,0,0,0,0,0,0,0,0,0,0,0,0,0,0,0,0,0,0,0,0,0,0,0,0,0,0,0,8305,8597,8307,8629,8599,8918,0,0,8914,8596,8595,8291,8630,8307,8308,8291,8595,8612,8291,8610,8595,8323,8628,8596,8610,8629,8595,8611,8594,8628,8918,0,0,8914,8613,8610,8626,8594,8309,0,0,0,0,0,0,0,0,
0,0,0,0,0,0,1010,1396,1397,1398,1399,1011,1339,1340,1341,1342,947,67,67,50,51,828,1076,1014,0,0,0,0,8030,8031,8032,0,0,0,0,0,0,0,0,0,0,0,0,0,8026,8027,8028,8029,0,0,0,0,0,0,0,33,35,19,37,0,0,0,0,0,0,7834,7835,7836,7837,0,0,0,0,0,0,0,0,0,0,0,0,0,0,0,0,0,0,0,4753,4755,5028,4980,5028,5025,5027,4980,4995,4993,5011,5012,5007,4978,4997,5025,4993,5033,4981,5025,4754,4771,5026,5027,4978,5012,5011,4978,5026,4994,4995,4757,0,0,0,0,0,0,0,0,0,0,0,0,0,0,0,0,0,0,0,0,0,0,0,0,2226,2164,2164,2229,2229,2164,2164,2164,2164,2229,2228,2228,2228,2228,2228,2230,0,0,0,0,0,0,0,0,0,0,0,0,0,0,0,0,0,0,0,0,0,0,0,0,0,0,0,0,0,0,0,0,0,0,0,0,0,0,0,0,0,0,0,8305,8629,8613,8323,8611,8918,0,0,8914,8615,8628,8323,8630,8595,8306,8307,8628,8613,8626,8627,8628,8595,8596,8308,8628,8594,8597,8307,8597,8611,8918,0,0,8914,8291,8594,8629,8629,8309,0,0,0,0,0,0,0,0,
0,0,0,0,0,0,0,0,0,0,0,1075,1396,1397,1398,1399,1011,1334,1334,763,36,37,0,0,0,0,0,0,8094,8095,8096,0,0,0,0,0,0,0,0,0,0,0,0,0,8090,8091,8092,8093,0,0,0,0,0,0,0,33,19,34,37,0,0,0,0,0,0,7898,7899,7900,7901,0,0,0,0,0,0,0,0,0,0,0,0,0,0,0,0,0,0,0,4753,4995,5033,5036,5026,5027,5025,5012,4977,4771,4980,4987,4739,4995,5015,5009,5010,4985,5028,4994,5026,5011,4979,4756,5017,5009,5028,5011,4977,4980,4996,4757,0,0,0,0,0,0,0,0,0,0,0,0,0,0,0,0,0,0,0,0,0,0,0,3634,2290,2356,2356,2356,3639,3640,3641,3642,3643,3644,3645,3646,3647,3648,3141,2294,0,0,0,0,0,0,0,0,0,0,0,0,0,0,0,0,0,0,0,0,0,0,0,0,0,0,0,0,0,0,0,0,0,0,0,0,0,0,0,0,0,0,0,8305,8599,8629,8306,8291,8918,0,0,8914,8610,8626,8308,8596,8307,8628,8630,8306,8610,8631,8597,8628,8628,8611,8615,8594,8626,8308,8594,8613,8594,8918,0,0,8914,8627,8595,8308,8610,8309,0,0,0,0,0,0,0,0,
0,0,0,0,0,0,0,0,0,0,0,0,0,0,0,0,1075,1397,1398,827,51,37,0,0,0,0,0,0,0,0,0,0,0,0,0,0,0,0,0,0,0,0,0,0,0,0,0,0,0,17,3,3,3,3,3,18,51,35,37,0,0,0,0,0,0,7962,7963,7964,7965,0,0,0,0,0,0,0,0,0,0,0,0,0,0,0,0,0,0,0,4753,5009,4994,5010,4978,4996,5025,4993,5023,4980,5025,4977,5011,5027,4771,4978,5026,4979,4980,5022,4977,4978,5012,4997,4980,4977,5003,4771,4995,4995,4992,4757,0,0,0,0,0,0,0,0,0,0,0,0,0,0,0,0,0,0,0,0,0,0,0,3698,2354,2420,2420,2420,3703,3704,3705,3706,3707,3708,3709,3710,3711,3712,3205,2358,0,0,0,0,0,0,0,0,0,0,0,0,0,0,0,0,0,0,0,0,0,0,0,0,0,0,0,0,0,0,0,0,0,0,0,0,0,0,0,0,0,0,0,8305,8323,8627,8596,8610,8853,8788,8788,8851,8615,8306,8629,8595,8611,8596,8612,8323,8631,8307,8596,8628,8307,8613,8308,8613,8610,8628,8323,8596,8598,8853,8788,8788,8851,8596,8595,8595,8628,8309,0,0,0,0,0,0,0,0,
0,0,0,0,0,0,0,0,0,0,0,0,0,0,0,0,0,0,17,18,34,20,21,0,0,0,0,0,0,0,0,0,0,0,0,0,0,0,0,0,0,0,0,0,0,0,0,0,0,33,19,36,35,35,35,36,35,35,37,0,0,0,0,0,0,8026,8027,8028,8029,0,0,0,0,0,0,0,0,0,0,0,0,0,0,0,0,0,0,0,4753,4995,4979,5009,4772,4787,4787,2882,4787,4787,4787,4787,3138,4787,4787,4787,4787,4770,5012,4771,5038,4994,5026,4995,5025,5011,4979,4994,4771,5025,4756,4757,0,0,0,0,0,0,0,0,0,0,0,0,0,0,0,0,0,0,0,0,0,0,0,3762,2418,2484,2484,2484,3767,3768,3769,3770,3771,3772,3773,3774,3775,3776,3269,2422,0,0,0,0,0,0,0,0,0,0,0,0,0,0,0,0,0,0,0,0,0,0,0,0,0,0,0,0,0,0,0,0,0,0,0,0,0,0,0,0,0,0,0,8978,8979,8323,8594,8613,8611,8307,8594,8323,8626,8598,8307,8610,8323,8627,8599,8595,8630,8612,8626,8613,8595,8308,8630,8627,8628,8631,8628,8628,8628,8597,8323,8323,8612,8596,8597,8594,8324,8982,0,0,0,0,0,0,0,0,
0,0,0,0,0,0,0,0,0,0,0,0,0,0,0,0,0,17,18,35,35,35,20,21,0,0,0,0,0,0,0,0,0,0,0,0,0,0,0,0,0,0,0,0,0,0,17,3,3,18,35,52,67,67,67,50,35,36,37,0,0,0,0,0,0,8090,8091,8092,8093,0,0,0,0,0,0,0,0,0,0,0,0,0,0,0,0,0,0,0,4753,4993,5026,5039,4747,4803,4803,2946,4803,4803,4803,4803,3202,4803,4803,4803,4803,4746,4996,4989,5007,4993,4996,5025,5021,4755,5027,4756,4999,5015,4739,4757,0,0,0,0,0,0,0,0,0,0,0,0,0,0,0,0,0,0,0,0,0,0,0,3826,3827,3828,3829,3830,3831,3832,3833,3834,3835,3836,3837,3838,3839,3840,0,0,0,0,0,0,0,0,0,0,0,0,0,0,0,0,0,0,0,0,0,0,0,0,0,0,0,0,0,0,0,0,0,0,0,0,0,0,0,0,0,0,0,0,0,9042,9043,8322,8613,8291,8596,8307,8612,10288,10289,10289,8308,8631,8597,8610,8611,8627,8307,8323,8594,8596,8599,8308,8597,8594,8308,8627,8596,10288,10288,10289,8595,8307,8306,8598,8308,8324,9045,9046,0,0,0,0,0,0,0,0,
0,0,0,0,0,0,0,0,0,0,0,0,0,0,0,0,17,18,35,35,34,51,51,20,3,21,0,0,0,0,0,0,0,17,3,3,3,3,3,3,3,21,0,0,0,17,18,35,35,51,51,764,1012,1012,1012,763,36,34,37,0,0,0,0,0,0,0,0,0,0,0,0,0,0,0,0,0,0,0,0,0,0,0,0,0,0,0,0,0,4753,4755,5000,5005,4763,4819,4819,3010,4819,4819,4819,4819,3266,4819,4819,4819,4819,4762,4996,4994,5028,4755,5037,4771,4978,4993,4996,5038,5026,4756,4994,4757,0,0,0,0,0,0,0,0,0,0,0,0,0,0,0,0,0,0,0,0,0,0,0,3890,3891,3892,3893,3894,3895,3896,3897,3898,3899,3900,3901,3902,3903,3904,0,0,0,0,0,0,4737,4723,4723,4723,4723,4723,4723,4723,4723,4723,4741,0,0,0,0,0,0,0,0,0,0,0,0,0,0,0,0,0,0,0,0,0,0,0,0,0,0,0,0,9106,9107,9043,8339,8322,8594,8611,8613,10352,10353,10289,10289,8594,8308,8323,8613,8613,8599,8612,8629,8627,8613,8598,8323,8308,8306,8626,10288,10288,10352,10353,8610,8306,8306,8324,8339,9045,9109,9110,0,0,0,0,0,0,0,0,
0,0,0,0,0,0,0,0,0,0,0,0,0,0,0,17,18,34,35,35,35,35,34,51,51,20,3,3,21,0,0,0,17,18,51,19,35,51,51,51,36,20,21,0,0,33,35,35,52,67,67,949,1076,1076,1076,827,36,51,37,0,0,0,0,0,0,0,0,0,0,0,0,0,0,0,0,0,0,0,0,0,0,0,0,0,0,0,0,0,4753,4979,4755,4995,4757,0,0,0,0,0,0,0,0,0,0,0,0,4753,5012,4994,4992,4993,5039,5009,4991,4995,4980,5011,4995,5021,5012,4757,0,0,0,0,0,0,0,0,0,0,0,0,0,0,0,0,0,0,0,0,0,0,0,3954,3955,3956,3957,3958,3959,3960,3961,3962,3963,3964,3965,3966,3967,3968,0,0,0,0,0,0,4753,4994,4755,4987,4987,5018,4979,4979,4982,4979,4757,0,0,0,0,0,0,0,0,0,0,0,0,0,0,0,0,0,0,0,0,0,0,0,0,0,0,0,0,0,9171,9107,9108,8859,8595,8627,8630,8628,10352,10353,10289,10289,8594,8629,8612,8306,8306,8612,8612,8598,8306,8629,8611,8291,8610,10288,10288,10352,10353,8306,8612,8614,8627,8860,9108,9109,9173,0,0,0,0,0,0,0,0,0,
0,0,0,0,0,0,0,0,0,0,0,0,0,0,17,18,19,19,34,52,67,67,67,50,34,36,35,35,20,3,3,21,33,36,35,35,51,36,34,34,51,35,20,3,3,18,51,52,949,1012,1012,1013,0,0,0,33,51,36,37,0,0,0,0,0,0,0,0,0,0,0,0,0,0,0,0,0,0,0,0,0,0,0,0,0,0,0,0,0,4753,5027,4995,4978,4757,0,0,0,0,0,0,0,0,0,0,0,0,4753,4771,4993,4979,5026,4771,5028,4979,5012,4979,5009,4739,5025,5028,4757,0,0,0,0,0,0,0,0,0,0,0,0,0,0,0,0,0,0,0,0,0,0,0,4018,4019,4020,4021,4022,4023,4024,4025,4026,4027,4028,4029,4030,4031,4032,0,0,0,0,0,0,4753,4980,5007,4771,4995,4982,4739,5002,5009,4977,4757,0,0,0,0,0,0,0,0,0,0,0,0,0,0,0,0,0,0,0,0,0,0,0,0,0,0,0,0,0,0,9171,9172,9043,8339,8322,8307,8614,8610,10352,10353,10288,10289,8612,8323,8610,8627,8596,8629,8626,8291,8610,8597,8612,10288,10289,10352,10353,8306,8599,8291,8324,8339,9045,9172,9173,0,0,0,0,0,0,0,0,0,0,
0,0,0,0,0,0,0,0,0,0,0,0,0,17,18,35,35,19,52,949,1012,1012,1012,947,67,67,50,36,35,36,35,20,18,19,35,35,35,51,36,35,51,35,35,51,35,36,35,764,1013,1076,1076,1077,0,0,0,33,35,35,37,0,0,0,0,0,0,0,0,0,0,0,0,0,0,0,0,0,0,0,0,0,0,0,0,0,0,0,0,0,4753,5010,5011,4995,4757,0,0,0,0,0,0,0,0,0,0,0,0,4753,5027,4980,5026,5028,5012,4977,4979,5008,4994,4998,5010,4755,4980,4757,0,0,0,0,0,0,0,0,0,0,0,0,0,0,0,0,0,0,0,0,0,0,0,4082,4083,4084,4085,4086,4087,4088,4089,4090,4091,4092,4093,4094,4095,4096,0,0,0,0,0,0,4753,5029,5010,5007,5010,5026,4755,4977,5010,4980,4757,0,0,0,0,0,0,0,0,0,0,0,0,0,0,0,0,0,0,0,0,0,0,0,0,0,0,0,0,0,0,0,0,9107,9108,9043,8339,8322,8597,8595,8628,10352,10353,8307,8629,8627,8630,8306,8307,8308,8610,8614,8306,8627,10352,10353,8628,8630,8307,8324,8339,9045,9108,9109,0,0,0,0,0,0,0,0,0,0,0,0,
0,0,0,0,0,0,0,0,0,0,0,0,17,18,35,36,19,52,949,1013,1076,1076,1076,1011,1012,1012,947,67,67,50,36,36,36,36,19,36,34,51,35,35,36,51,35,51,52,67,67,949,1077,0,0,0,0,0,0,33,35,36,37,0,0,0,0,0,0,0,0,0,0,0,0,0,0,0,0,0,0,0,0,0,0,0,0,0,0,0,0,0,4753,5024,5028,4994,4757,0,0,0,0,0,0,0,0,0,0,0,0,4753,5011,4979,5012,5028,5028,4977,4992,5028,4994,4755,4995,5028,5037,4757,0,0,0,0,0,0,0,0,0,0,0,0,0,0,0,0,0,0,0,0,0,0,0,4146,4147,4148,4149,4150,4151,4152,4153,4154,4155,4156,4157,4158,4159,4160,0,0,0,0,0,0,4753,5011,4977,5028,5017,5010,5017,4771,4771,4979,4757,0,0,0,0,0,0,0,0,0,0,0,0,0,0,0,0,0,0,0,0,0,0,0,0,0,0,0,1957,1958,1959,1960,1961,9171,9172,9107,9108,9043,8339,8322,8610,8612,8627,8596,8307,8323,8594,8596,8595,8629,8308,8291,8596,8291,8614,8627,8597,8324,8339,9045,9108,9109,9172,9173,0,0,0,0,0,0,0,0,0,0,0,0,
0,0,0,0,0,0,0,0,0,0,0,17,18,19,34,51,52,949,1013,1077,0,0,0,1075,1076,1076,1011,1332,1333,947,67,50,36,35,35,35,35,34,35,35,35,51,36,52,949,1012,1012,1013,0,0,0,0,0,0,17,18,36,34,20,3,21,0,0,0,0,0,0,0,0,0,0,0,0,0,0,0,0,0,0,0,0,0,0,0,0,0,0,0,4753,4996,4754,4994,4757,0,0,0,0,0,0,0,0,0,0,0,0,2147488421,4865,4866,4867,3143,4869,4870,4865,4866,4867,4868,4869,3142,4870,4773,0,0,0,0,0,0,0,0,0,0,0,0,0,0,0,0,0,0,0,4737,4723,4723,4723,2163,2229,2164,2228,2165,4723,4723,4723,4723,4723,4723,4723,4723,4723,4723,4723,4723,4723,4723,4723,4723,4738,4771,5012,4755,5028,4994,4978,5011,5025,4996,4757,0,0,0,0,0,0,0,0,0,0,0,0,0,0,0,0,0,0,0,0,0,0,0,0,0,0,0,2021,2022,2023,2024,2025,0,0,9171,9172,9107,9108,9043,8339,8322,8307,8627,8596,8611,8627,8595,8612,8323,8612,8629,8596,8613,8308,8324,8339,9045,9108,9109,9172,9173,0,0,0,0,0,0,0,0,0,0,0,0,0,0,
0,0,0,0,0,0,0,0,0,0,17,18,35,51,36,52,949,1013,1077,0,7777,7778,7779,7780,0,0,1075,1396,1397,1011,1012,763,36,36,35,36,51,34,35,36,51,35,36,764,1013,1076,1076,1077,0,0,0,0,0,17,18,35,51,51,35,19,37,0,0,0,0,0,0,0,0,0,0,0,0,0,0,0,0,0,0,0,0,0,0,0,0,0,0,0,4753,5006,5028,5032,4757,0,0,0,0,0,0,0,0,0,0,0,0,2147488437,4881,4882,4883,3207,4885,4886,4881,4882,4883,4884,4885,3206,4886,4789,0,0,0,0,0,0,0,0,0,0,0,0,0,0,0,0,0,4737,4723,4738,4979,4755,5009,5011,5012,4754,5027,5009,5010,5010,4996,4755,4739,5025,4739,4981,5012,5012,5026,5013,4771,5026,4771,5000,4978,4978,5025,4996,5025,4979,4994,5025,4977,5011,4757,0,0,0,0,0,0,0,0,0,0,0,0,0,0,0,0,0,0,0,0,0,0,0,0,0,0,0,2085,2086,2087,2088,2089,0,0,0,0,9171,9172,9107,9108,9043,8339,8322,8628,8323,8599,8308,8610,8306,8615,8597,8626,8324,8339,9045,9108,9109,9172,9173,0,0,0,0,0,0,0,0,0,0,0,0,0,0,0,0,
0,0,0,0,0,0,0,0,0,17,18,35,36,51,52,949,1013,1077,0,0,7841,7842,7843,7844,0,0,0,0,0,1075,1076,827,35,51,35,36,51,35,35,51,35,51,36,828,1077,0,0,7959,7960,7961,0,0,17,18,36,35,36,35,51,19,20,3,21,0,0,0,0,0,0,0,0,0,0,0,0,0,0,0,0,0,0,0,0,0,0,0,0,0,4753,4756,4978,5010,4757,0,0,0,0,0,0,0,0,0,0,0,0,2147488453,4897,4898,4899,3271,4901,4902,4897,4898,4899,4900,4901,3270,4902,4805,0,0,0,0,0,0,0,0,0,0,0,0,0,0,0,0,4737,4738,4993,5028,5019,5039,4739,4995,4991,5012,5026,4755,5009,4755,4993,5034,5014,5011,4979,5007,4755,5002,4977,4979,4990,5027,4755,4981,4995,5009,4979,5010,5011,5026,4756,5033,4979,5037,4757,0,0,0,0,0,0,0,0,0,0,0,0,0,0,0,0,0,0,0,0,0,0,0,0,0,0,0,2149,2150,2151,2152,2153,0,0,0,0,0,0,9171,9172,9107,9108,9043,8339,8979,8980,8980,8980,8980,8980,8981,8339,9045,9108,9109,9172,9173,0,0,0,0,0,0,0,0,0,0,0,0,0,0,0,0,0,0,
0,0,0,0,0,0,0,0,17,18,51,36,35,35,764,1013,1077,0,0,0,7905,7906,7907,7908,0,0,0,0,0,0,0,882,67,50,51,36,34,35,36,36,34,36,51,37,0,0,0,8023,8024,8025,0,0,33,34,51,36,36,34,35,51,35,51,37,0,0,0,0,0,0,0,0,0,0,0,0,0,0,0,0,0,0,0,0,0,0,0,0,0,4753,4994,5027,4771,4757,0,0,0,0,0,0,0,0,0,0,0,0,0,0,0,0,0,0,0,0,0,0,0,0,0,0,0,0,0,0,0,0,0,0,0,0,0,0,0,0,0,0,4737,4738,4994,4771,5025,4990,5034,5009,4980,4994,5027,4977,4756,4978,4755,5039,4771,5028,4755,5012,5028,4771,4994,4755,5019,4978,5028,4771,4979,5009,5032,4756,4979,4987,4977,5027,5026,4996,4996,4757,0,0,0,0,0,0,0,0,0,0,0,0,0,0,0,0,0,0,0,0,0,0,0,0,0,0,0,2213,2214,2215,2216,2217,0,0,0,0,0,0,0,0,9171,9172,9107,9108,8859,9328,9329,9330,9329,9330,8860,9108,9109,9172,9173,0,0,0,0,0,0,0,0,0,0,0,0,0,0,0,0,0,0,0,0,
0,0,0,0,0,0,0,0,33,19,35,51,51,52,949,1077,0,0,0,0,7969,7970,7971,7972,0,0,0,0,0,0,0,946,1012,947,67,50,51,36,52,67,67,67,67,53,0,0,0,8087,8088,8089,0,0,33,35,51,34,51,34,51,51,36,51,37,0,0,0,0,0,0,0,0,0,0,0,0,0,0,0,0,0,0,0,0,0,0,0,0,0,4753,4999,4755,4982,4757,0,0,0,0,0,0,0,0,0,0,0,0,0,0,0,0,0,0,0,0,0,0,0,0,0,0,0,0,0,0,0,0,0,0,0,0,0,0,0,0,0,4737,4738,5009,5012,4993,5012,5003,4772,4865,4866,4867,3143,4869,4870,4870,4865,3139,4867,4868,4869,4870,4865,4866,4867,4865,3138,4867,4868,4869,4870,4770,4977,5005,4996,4993,4995,5026,5024,5010,5009,4757,0,0,0,0,0,0,0,0,0,0,0,0,0,0,0,0,0,0,0,0,0,0,0,0,0,0,0,0,0,0,0,0,0,0,0,0,0,0,0,0,0,0,9171,9172,8923,9200,9201,9202,9201,9202,8924,9172,9173,0,0,0,0,0,0,0,0,0,0,0,0,0,0,0,0,0,0,0,0,0,0,
0,0,0,0,0,0,0,17,18,35,51,35,52,949,1013,0,0,0,0,0,8033,8034,8035,8036,0,0,0,0,0,0,0,1010,1076,1011,1012,763,51,36,764,1012,1012,1012,1012,950,0,0,0,0,0,0,0,0,33,51,35,35,36,34,51,19,19,51,37,0,0,0,0,0,0,0,0,0,0,0,0,0,0,0,0,0,0,0,0,0,0,0,0,0,4753,4739,5039,5026,4740,4741,0,0,0,0,0,0,0,0,0,0,0,0,0,0,0,0,0,0,0,0,0,0,0,0,0,0,0,0,0,0,0,0,0,0,0,0,0,0,0,4737,4738,4984,4996,4981,5000,5031,4772,4788,4881,4882,4883,3207,4885,4886,4886,4881,3203,4883,4884,4885,4886,4881,4882,4883,4881,3202,4883,4884,4885,4886,4746,4979,4995,5019,4980,5009,4977,4771,5012,5026,4757,0,0,0,0,0,0,0,0,0,0,0,0,0,0,0,0,0,0,0,0,0,0,0,0,0,0,0,0,0,0,0,0,0,0,0,0,8289,8275,8275,8293,0,0,0,0,9327,9328,9329,9328,9329,9330,9331,0,0,0,0,8289,8275,8275,8293,0,0,0,0,0,0,0,0,0,0,0,0,0,0,0,0,
0,0,0,0,0,0,17,18,36,35,36,52,949,1013,1077,0,0,0,0,0,8097,8098,8099,8100,0,0,0,0,0,0,0,0,0,1075,1076,827,36,35,828,1394,1395,1396,1397,1014,0,0,0,0,0,0,0,0,33,51,35,34,35,51,19,51,35,35,37,0,0,0,0,0,0,0,0,0,0,0,0,0,0,0,0,0,0,0,0,0,0,0,0,0,4769,4770,5029,4755,4771,4740,4741,0,0,0,0,0,0,0,0,0,0,0,0,0,0,0,0,0,0,0,0,0,0,0,0,0,0,0,0,0,0,0,4737,4723,4723,4723,4723,4723,4723,4738,5012,4739,5019,5026,4756,4772,4788,4804,4897,4898,4899,3271,4901,4902,4902,4897,3267,4899,4900,4901,4902,4897,4898,4899,4897,3266,4899,4900,4901,4902,4762,4993,4996,4994,5028,4999,5010,4993,4977,4994,4757,0,0,0,0,0,0,0,0,0,0,0,0,0,0,0,0,0,0,0,0,0,0,0,0,0,0,0,0,0,0,0,0,0,0,0,8289,8290,8614,8323,8292,8293,0,0,0,9199,9200,9201,9392,9393,9394,9203,0,0,0,8289,8290,8631,8612,8292,8293,0,0,0,0,0,0,0,0,0,0,0,0,0,0,0,
0,0,0,0,0,0,33,51,35,35,52,949,1013,1077,0,0,0,0,0,0,0,0,0,0,0,0,0,0,0,0,0,0,0,0,0,33,51,51,37,0,0,0,0,0,0,0,0,0,0,0,0,0,33,51,19,34,19,51,51,36,35,35,37,0,0,0,0,0,0,0,0,0,0,0,0,0,0,0,0,0,0,0,0,0,0,0,0,0,4785,4786,4770,5025,4754,4996,4740,4741,0,0,0,0,0,0,0,0,0,0,0,0,0,0,0,0,0,0,0,0,0,0,0,0,0,0,0,0,0,0,4753,4755,4979,5028,5023,4977,4739,4995,4739,5033,4771,4996,4772,4788,4804,4820,0,0,0,0,0,0,0,0,0,0,0,0,0,0,0,0,0,0,0,0,0,0,4753,5026,4755,5025,5010,4980,4990,5009,4978,5012,4757,0,0,0,0,0,0,0,0,0,0,0,0,0,0,0,0,0,0,0,0,0,0,0,0,0,0,0,0,0,0,0,0,0,0,8289,8290,8614,8612,8612,8626,8292,8293,0,0,8305,8597,8630,8594,8595,8306,8309,0,0,8289,8290,8610,8306,8610,8306,8292,8293,0,0,0,0,0,0,0,0,0,0,0,0,0,0,
0,0,0,0,0,17,18,35,19,19,764,1013,1077,0,0,0,0,0,0,0,0,0,0,0,0,0,0,3926,3927,3928,0,0,0,0,0,33,36,36,37,0,0,0,0,0,0,0,0,0,0,0,0,0,49,67,67,67,67,50,19,19,52,67,53,0,0,0,0,0,0,0,0,0,0,0,0,0,0,0,0,0,0,0,0,0,0,0,0,0,4801,4802,4786,4770,4977,4978,5011,4740,4741,0,0,0,0,0,0,0,0,0,0,0,0,0,0,0,0,0,0,0,0,0,0,0,0,0,0,0,0,0,4753,4977,4996,4980,4978,4979,4755,4980,5016,4979,4756,4772,4788,4804,4820,0,0,0,0,0,0,0,0,0,0,0,0,0,0,0,0,0,0,0,0,0,0,0,4769,4787,4787,3139,4787,4787,4787,3141,4787,4787,4773,0,0,0,0,0,0,0,0,0,0,0,0,0,0,0,0,0,0,0,0,0,0,0,0,0,0,0,0,0,0,0,0,0,0,8305,8597,8613,8627,8610,8596,8306,8309,0,0,8305,8599,8629,8596,8613,8628,8309,0,0,8305,8610,8612,8629,8627,8627,8594,8309,0,0,0,0,0,0,0,0,0,0,0,0,0,0,
0,0,0,0,0,33,35,35,35,36,828,1077,0,0,0,0,0,0,0,0,0,0,0,0,0,0,0,3990,3991,3992,3926,3927,0,0,17,18,34,36,20,21,0,0,0,0,0,0,0,0,0,0,0,0,946,1012,1012,1012,1012,763,51,51,764,1012,950,0,0,0,0,0,0,0,0,0,0,0,0,0,0,0,0,0,0,0,0,0,0,0,0,0,0,4818,4802,4786,4770,4771,5028,4771,4740,4741,0,0,0,0,0,0,0,0,0,0,0,0,0,0,0,0,0,0,0,0,0,0,0,0,0,0,0,0,4753,4739,4755,4996,4771,5010,5000,4996,4995,4772,4787,4788,4804,4820,0,0,0,0,0,0,0,0,0,0,0,0,0,0,0,0,0,0,0,0,0,0,0,0,4785,4803,4803,3203,4803,4803,4803,3205,4803,4803,4789,0,0,0,0,0,0,0,0,0,0,0,0,0,0,0,0,0,0,0,0,0,0,0,0,0,0,0,0,0,0,0,0,0,0,8305,8631,8594,8308,8594,8629,8611,8309,0,0,8305,8612,8611,8629,8598,8629,8309,0,0,8305,8626,8596,8323,8610,8291,8597,8309,0,0,0,0,0,0,0,0,0,0,0,0,0,0,
0,0,0,0,0,33,51,51,35,35,20,21,0,0,0,0,0,0,0,0,0,0,0,0,0,0,0,4054,4055,4056,3990,3991,3992,692,18,51,51,34,35,20,3,21,0,0,0,0,0,0,0,0,0,0,1010,1076,1076,1076,825,889,19,35,828,1076,1014,0,0,0,0,0,0,0,0,0,0,0,0,0,0,0,0,0,0,0,0,0,0,0,0,0,0,0,4818,4802,4786,4770,4771,5001,5010,4740,4741,0,0,0,0,0,0,0,0,0,0,0,0,0,0,0,0,0,0,0,0,0,0,0,0,0,0,0,4753,5027,4990,4754,5026,5006,4980,5025,5009,4747,4803,4804,4820,0,0,0,0,0,0,0,0,0,0,0,0,0,0,0,0,0,0,0,0,0,0,0,0,0,4801,4819,4819,3267,4819,4819,4819,3269,4819,4819,4805,0,0,0,0,0,0,0,0,0,0,0,0,0,0,0,0,0,0,0,0,0,0,0,0,0,0,0,0,0,0,0,0,0,0,8305,8597,8595,8611,8628,8612,8307,8309,0,0,8305,8610,8291,8308,8629,8306,8309,0,0,8305,8613,8627,8308,8612,8627,8628,8309,0,0,0,0,0,0,0,0,0,0,0,0,0,0,
0,0,0,0,0,882,50,34,19,51,35,37,0,0,0,0,0,0,0,0,0,0,0,0,0,0,0,4118,4119,4120,4054,4055,4056,820,51,35,35,34,51,51,36,37,0,0,0,0,0,0,0,0,0,0,0,0,0,17,18,35,19,19,37,0,0,0,0,0,0,0,0,0,0,0,0,0,0,0,0,0,0,0,0,0,0,0,0,0,0,0,0,0,0,4818,4802,4786,4770,4993,5021,4756,4740,4741,0,0,0,0,0,0,0,0,0,0,0,0,0,0,0,0,0,0,0,0,0,0,0,0,0,0,4753,4979,4987,4979,5036,5026,5040,4979,4994,4763,4819,4820,0,0,0,0,0,0,0,0,0,0,0,0,0,0,0,0,0,0,0,0,0,0,0,0,0,0,0,0,0,0,0,0,0,0,0,0,0,0,0,0,0,0,0,0,0,0,0,0,0,0,0,0,0,0,0,0,0,0,0,0,0,0,0,0,0,0,0,0,0,0,8289,8290,8626,8626,8597,8323,8595,8629,8292,8275,8275,8290,8627,8307,8323,8611,8306,8292,8275,8275,8290,8307,8595,8308,8630,8596,8613,8292,8293,0,0,0,0,0,0,0,0,0,0,0,0,0,
0,0,0,0,0,946,947,50,51,35,51,20,21,0,0,0,0,0,0,0,0,0,0,0,0,0,0,4182,4183,4184,4118,4119,4120,35,35,19,36,35,51,36,36,37,0,0,0,0,0,0,0,0,0,0,0,0,17,18,51,36,51,52,886,0,0,0,0,0,0,0,0,0,0,0,0,0,0,0,0,0,0,0,0,0,0,0,0,0,0,0,0,0,0,0,4818,4802,4786,4770,5025,4754,5027,4740,4741,0,0,0,0,0,0,0,0,0,0,0,0,0,0,0,0,0,0,0,0,0,0,0,0,4737,4738,5027,5026,5028,5011,5010,5011,4755,5025,4757,0,0,0,0,0,0,0,0,0,0,0,0,0,0,0,0,0,0,0,0,0,0,0,0,0,0,0,0,0,0,0,0,0,0,0,0,0,0,0,0,0,0,0,0,0,0,0,0,0,0,0,0,0,0,0,0,0,0,0,8826,8827,8828,0,0,0,0,0,0,0,0,0,8289,8290,8629,8611,8595,8595,8597,8628,8597,8615,8595,8614,8627,8629,8612,8323,8596,8291,8626,8307,8611,8595,8596,8596,8627,8613,8610,8629,8629,8292,8293,0,0,0,0,0,0,0,0,0,0,0,0,
0,0,0,0,0,1010,1011,947,50,36,51,19,20,21,0,0,0,0,0,0,0,0,0,0,0,0,0,4246,4247,4248,4182,4183,4120,820,19,34,35,36,51,19,885,886,0,0,0,0,0,0,0,0,0,0,0,17,18,35,35,19,34,764,950,0,0,0,0,0,0,0,0,0,0,0,0,0,0,0,0,0,0,0,0,0,0,0,0,0,0,0,0,0,0,0,0,4818,4802,4786,4770,4979,5028,4995,4740,4723,4723,4723,4723,4723,4723,4723,4723,4723,4723,4723,4723,4723,4723,4723,4723,4723,4723,4723,4723,4723,4723,4723,4723,4738,4980,5011,5009,4755,4771,4771,4980,5008,5002,4757,0,0,0,0,0,0,0,0,0,0,0,0,0,0,0,0,0,0,0,0,0,0,0,0,0,0,0,0,0,0,0,0,0,0,0,0,0,0,0,0,0,0,0,0,0,0,0,0,0,0,0,0,0,0,0,0,0,0,0,8890,8891,8892,0,0,0,0,0,0,0,0,0,8305,8613,8306,8291,8627,8596,8612,8307,8595,8291,8611,8596,8306,8599,8629,8610,8594,8626,8597,8595,8595,8291,8631,8626,8610,8596,8594,8610,8323,8629,8309,0,0,0,0,0,0,0,0,0,0,0,0,
0,0,0,0,0,0,1075,1011,947,50,51,51,36,37,0,0,0,0,0,0,0,0,0,0,0,0,0,4310,4311,4312,4246,4247,4248,948,710,34,51,36,51,52,949,950,0,0,0,0,0,0,0,0,0,0,0,33,36,51,51,52,67,949,1014,0,0,0,0,0,0,0,0,0,0,0,0,0,0,0,0,0,0,0,0,0,0,0,0,0,0,0,0,0,0,0,0,0,4818,4802,4746,5028,4755,4977,4996,5033,5028,5028,4771,4978,4993,5011,4980,4978,4755,4995,4980,4979,5039,5008,5009,4977,5010,4992,4755,4994,4980,5024,4995,4994,4980,4771,5025,5028,5004,5009,4979,5010,4771,4757,0,0,0,0,0,0,0,0,0,0,0,0,0,0,0,0,0,0,0,0,0,0,0,0,0,0,0,0,0,0,0,0,0,0,0,0,0,0,0,0,0,0,0,0,0,0,0,0,0,0,0,0,0,0,0,0,0,0,0,8954,8955,8956,0,0,0,0,0,0,0,0,0,8321,8322,8595,8611,8291,8629,8307,8597,8307,8627,8627,8626,8628,8597,8628,8306,8306,8596,8308,8613,8308,8307,8595,8323,8628,8307,8307,8597,8610,8324,8325,0,0,0,0,0,0,0,0,0,0,0,0,
0,0,0,0,0,0,0,1075,1011,947,50,19,35,37,0,0,0,0,0,7959,7960,7961,0,0,0,0,0,4374,4375,4376,4310,4311,4312,1012,947,67,67,67,67,949,1013,1014,0,0,0,0,0,0,0,0,0,0,0,33,35,35,52,949,1012,950,0,0,0,0,0,0,0,0,0,0,0,0,0,0,0,0,0,0,0,0,0,0,0,0,0,0,0,0,0,0,0,0,0,0,0,4818,4786,4770,4995,5006,5027,5027,4755,4980,4981,5025,4987,5016,4996,4995,4994,5027,5028,5028,4754,5012,4979,4996,5033,4980,4993,4978,5027,4995,5027,4995,4995,5028,4772,4787,4787,4787,3142,4787,4787,4773,0,0,0,0,0,0,0,0,0,0,0,0,0,0,0,0,0,0,0,0,0,0,0,0,0,0,0,0,0,0,0,0,0,0,0,0,0,0,0,0,0,0,0,0,0,0,0,0,0,0,0,0,0,0,0,0,0,0,0,9018,9019,9020,0,0,0,0,0,0,0,0,0,9241,8983,8615,8626,8291,8610,8612,8614,8596,8627,8306,8308,8308,8612,8308,8610,8610,8627,8307,8612,8597,8610,8594,8596,8611,8613,8594,8611,8594,8984,9239,0,0,0,0,0,0,0,0,0,0,0,0,
0,0,0,0,0,0,17,3,953,952,889,36,34,37,0,0,0,0,0,8023,8024,8025,0,0,0,0,0,0,0,0,0,4375,4376,1076,1011,1012,1012,1012,1012,1013,1014,0,0,0,0,0,0,0,0,0,0,0,0,33,35,34,764,1013,1076,1014,0,0,0,0,0,0,0,0,0,0,0,0,0,0,0,0,0,0,0,0,0,0,0,0,0,0,0,0,0,0,0,0,0,0,0,0,4802,4786,4770,5011,5025,5026,4978,4978,4993,4995,5010,5011,4996,4979,5037,4739,5025,5001,5021,5008,5023,5001,4993,4755,5012,4996,4771,4981,5009,4755,4977,4772,4788,4881,4882,4883,3206,4885,4886,4789,0,0,0,0,0,0,0,0,0,0,0,0,0,0,0,0,0,0,0,0,0,0,0,0,0,0,0,0,0,0,0,0,0,0,0,0,0,0,0,0,0,0,0,0,0,0,0,0,0,0,0,0,0,0,0,0,0,0,0,9082,9083,9084,0,0,0,0,0,0,0,0,0,8305,8595,8596,8596,8628,8631,8307,8629,8612,8596,8306,8628,8306,8610,8306,8595,8291,8611,8598,8596,8628,8611,8308,8598,8306,8613,8612,8306,8306,8308,8309,0,0,0,0,0,0,0,0,0,0,0,0,
0,0,0,0,0,17,18,35,51,51,35,51,52,886,0,0,0,0,0,8087,8088,8089,0,0,0,0,0,0,0,0,0,0,0,0,1010,1076,1076,1076,1076,1077,0,0,7959,7960,7961,0,0,0,0,0,0,0,0,33,36,51,890,703,0,0,0,0,0,0,0,0,0,0,0,0,0,0,0,0,0,0,0,0,0,0,0,0,0,0,0,0,0,0,0,0,0,0,0,0,0,0,4818,4802,4786,4865,4868,4869,4870,4865,3141,4867,4870,4870,4770,4998,5028,4977,4771,4772,4865,4866,4867,3141,4869,4870,4865,4865,4866,4867,3139,4869,4870,4788,4804,4897,4898,4899,3270,4901,4902,4805,0,0,0,0,0,0,0,0,0,0,0,0,0,0,0,0,0,0,0,0,0,0,0,0,0,0,0,0,0,0,0,0,0,8289,8275,8275,8275,8275,8275,8275,8275,8275,8275,8275,8275,8275,8293,0,0,0,0,0,0,0,0,0,0,0,0,0,0,0,0,0,0,0,0,0,0,0,0,8978,8322,8323,8306,8820,8821,8822,8628,8291,8594,8291,8323,8291,8614,8597,8306,8612,8306,8613,8323,8610,8308,8611,8291,8820,8821,8822,8610,8598,8981,8982,0,0,0,0,0,0,0,0,0,0,0,0,
0,0,0,0,0,33,35,51,35,52,67,67,949,950,0,0,0,0,0,0,0,0,0,0,0,0,17,3,3,3,3,21,0,0,0,0,0,0,0,0,0,0,8023,8024,8025,0,0,0,0,0,0,0,0,33,36,51,36,20,21,17,3,3,3,3,3,21,0,0,0,0,0,0,0,0,0,0,0,0,0,0,0,0,0,0,0,0,0,0,0,0,0,0,0,0,0,0,0,4818,4802,4881,4884,4885,4886,4881,3205,4883,4886,4886,4746,4995,5025,4756,5025,4747,4881,4882,4883,3205,4885,4886,4881,4881,4882,4883,3203,4885,4886,4804,4820,0,0,0,0,0,0,0,0,0,0,0,0,0,0,0,0,0,0,0,0,0,0,0,0,0,0,0,0,0,0,0,0,0,0,0,0,0,0,0,0,8305,8306,8291,8627,8629,8610,8597,8628,8596,8613,8610,8598,8323,8309,0,0,0,0,0,0,0,0,0,0,0,0,0,0,0,0,0,0,0,0,0,0,0,0,9042,9043,9372,9373,8884,8885,8886,9362,9363,9364,9365,9366,8322,8596,8628,8628,8629,8307,8324,9370,9371,9371,9372,9373,8884,8885,8886,8339,8339,9045,9046,0,0,0,0,0,0,0,0,0,0,0,0,
0,0,0,0,0,33,51,35,35,764,1012,1012,1013,1014,0,0,0,0,0,0,0,0,0,0,17,3,18,35,51,51,34,20,3,3,3,3,3,3,21,0,0,0,8087,8088,8089,0,0,0,0,0,0,0,0,882,50,34,35,35,20,18,35,35,36,51,34,37,0,0,0,2274,2275,2276,2277,2278,2279,2280,2281,2282,2283,2284,2285,0,0,0,0,0,0,0,0,0,0,0,0,0,0,0,0,0,4818,4897,4900,4901,4902,4897,3269,4899,4902,4902,4762,4995,5010,4993,5011,4763,4897,4898,4899,3269,4901,4902,4897,4897,4898,4899,3267,4901,4902,4820,0,0,0,0,0,0,0,0,0,0,0,0,0,0,0,0,0,0,0,0,0,0,0,0,0,0,0,0,0,0,0,0,0,0,0,0,0,0,0,0,0,8305,8629,8306,8613,8595,8306,8612,8323,8626,8626,8610,8307,8628,8309,0,0,0,0,0,0,0,0,0,0,8289,8275,8275,8275,8275,8293,0,0,0,0,0,0,0,0,9106,9107,9436,9437,8948,8949,8950,9426,9427,9428,9429,9430,8859,8631,8595,8596,8594,8629,8860,9434,9435,9435,9436,9437,8948,8949,8950,9108,9108,9109,9110,0,0,0,0,0,0,0,0,0,0,0,0,
0,0,0,0,0,33,51,51,35,828,1076,1076,1077,0,0,0,0,0,0,0,0,0,0,17,18,35,51,35,51,51,35,19,35,19,36,36,35,36,20,21,0,0,0,0,0,0,0,0,0,0,0,0,0,946,947,50,35,19,51,36,35,36,35,51,35,20,3,21,0,2338,2339,2340,2341,2342,2343,2344,2345,2346,2347,2348,2349,0,0,0,0,0,0,1957,1958,1959,1960,1961,0,0,0,0,0,0,0,0,0,0,0,0,0,0,0,0,4753,5027,5009,4996,4755,4757,0,0,0,0,0,0,0,0,0,0,0,0,0,0,0,0,0,0,0,0,0,0,0,0,0,0,0,0,0,0,0,0,0,0,0,0,0,0,0,0,0,0,0,0,0,0,0,0,0,0,0,0,0,0,0,8305,8596,8291,8307,8614,8595,8308,8323,8611,8594,8628,8291,8613,8309,0,0,0,0,0,0,0,0,0,0,8305,8596,8611,8308,8610,8309,0,0,0,0,0,0,0,0,0,9106,9500,9501,9012,9013,9014,9490,9491,9492,9493,9494,8928,8322,8627,8627,8595,8981,9115,9498,9499,9499,9500,9501,9012,9013,9014,9172,9172,9110,0,0,0,0,0,0,0,0,0,0,0,0,0,
0,0,0,0,0,33,36,35,35,37,0,0,0,0,0,17,3,3,3,3,3,3,3,18,35,51,36,35,51,35,36,51,19,34,36,35,36,35,51,20,21,0,0,0,0,0,0,0,0,0,0,0,0,1010,1011,947,50,51,35,51,35,35,36,51,35,36,51,37,0,2402,2403,2404,2405,2406,2407,2408,2409,2410,2411,2412,2413,0,0,0,0,0,0,2021,2022,2023,2024,2025,0,0,0,0,0,0,0,0,0,0,0,0,0,0,0,0,4753,4980,5011,5010,5025,4757,0,0,0,0,0,0,0,0,0,0,0,0,0,0,0,0,0,0,0,0,0,0,0,0,0,0,0,0,0,0,0,0,0,0,0,0,0,0,0,0,0,0,0,0,0,0,0,0,0,0,0,0,0,0,0,8305,8291,8599,8627,8323,8629,8629,8629,8598,8629,8627,8611,8308,8309,0,0,0,0,0,0,0,0,0,0,8305,8627,8615,8612,8595,8309,0,0,0,0,0,0,0,0,0,0,0,0,9076,9077,9078,0,0,0,0,0,9042,8859,8596,8627,8614,8860,9046,0,0,0,0,0,9076,9077,9078,0,0,0,0,0,0,0,0,0,0,0,0,0,0,0,0,
0,0,0,0,0,33,35,51,34,20,3,3,3,3,3,18,35,36,51,35,35,51,36,51,51,51,35,36,35,19,51,36,36,35,35,34,34,34,51,19,37,0,0,0,0,0,0,0,0,0,0,0,0,0,1075,1011,947,50,35,36,36,19,35,34,36,34,51,20,692,2466,2467,2468,2469,2470,2471,2472,2473,2474,2475,2476,2477,0,0,0,0,0,0,2085,2086,2087,2088,2089,0,0,0,0,0,0,0,0,0,0,0,0,0,0,0,0,4753,5018,4993,4739,4986,4757,0,0,0,0,0,0,0,0,0,0,0,0,0,0,0,0,0,0,0,0,0,0,0,0,0,0,0,0,0,0,0,0,0,0,0,0,0,0,0,0,0,0,0,0,0,0,0,0,0,0,0,0,0,0,0,8305,8594,8598,8323,8615,8323,8612,8595,8615,8610,8629,8611,8308,8309,0,0,0,0,0,0,0,0,0,0,8305,8612,8291,8613,8628,8309,0,0,0,0,0,0,0,0,0,0,0,0,0,0,0,0,0,0,0,0,9106,8923,8615,8627,8306,8924,9110,0,0,0,0,0,0,0,0,0,0,0,0,0,0,0,0,0,0,0,0,0,0,0,0,
0,0,0,0,0,882,50,35,36,19,51,36,35,19,35,51,51,52,67,67,67,50,36,36,51,35,34,51,19,35,35,35,36,51,35,36,51,35,36,52,53,0,0,0,0,0,7777,7778,7779,7780,0,0,0,0,0,1075,1011,763,51,36,36,51,36,35,35,35,19,51,820,2530,2531,2532,2533,2534,2535,2536,2537,2538,2539,2540,2541,0,0,0,0,0,0,2149,2150,2151,2152,2153,0,0,0,0,0,0,0,0,0,0,0,0,0,0,0,0,4753,5040,4994,4993,4995,4757,0,0,0,0,0,0,0,0,0,0,0,0,0,0,0,0,0,0,0,0,0,0,0,0,0,0,0,0,0,0,0,0,0,0,0,0,0,0,0,0,0,0,0,0,0,0,0,0,0,0,0,0,0,0,0,8305,8596,8595,8323,8323,8594,8630,8595,8628,8598,8612,8596,8613,8309,0,0,0,0,0,0,0,0,0,0,8305,8626,8594,8291,8323,8309,0,0,0,0,0,0,0,0,0,0,0,0,0,0,0,0,0,0,0,0,8814,8815,8816,9450,8817,8818,8819,0,0,0,0,0,0,0,0,0,0,0,0,0,0,0,0,0,0,0,0,0,0,0,0,
0,0,0,0,0,946,763,36,34,34,51,51,52,67,67,67,67,949,1012,1012,1012,947,948,50,36,36,35,35,34,36,35,51,51,36,36,35,51,36,51,37,0,0,0,0,0,0,7841,7842,7843,7844,0,0,0,0,0,0,1075,827,35,35,51,35,35,36,35,51,36,34,820,2594,2595,2596,2597,2598,2599,2600,2601,2602,2603,2604,2605,0,0,0,0,0,0,2213,2214,2215,2216,2217,0,0,0,0,0,0,0,0,0,0,0,0,0,0,0,0,4753,5038,5027,4771,4755,4757,0,0,0,0,0,0,0,0,0,0,0,0,0,0,0,0,0,0,0,0,0,0,0,0,0,0,0,0,0,0,0,0,0,0,0,0,0,0,0,0,0,0,0,0,0,0,0,0,0,0,0,0,0,0,0,8305,8594,8611,8614,8307,8596,8628,8613,8308,8629,8291,8291,8323,8309,0,0,0,0,0,0,0,0,0,0,8305,8615,8610,8597,8323,8309,0,0,0,0,0,0,0,0,0,0,0,0,0,0,0,0,0,0,0,0,8878,8879,8880,9514,8881,8882,8883,0,0,0,0,0,0,0,0,0,0,0,0,0,0,0,0,0,0,0,0,0,0,0,0,
0,0,0,0,0,946,947,50,35,35,35,51,890,696,1012,1012,1012,1013,1076,1076,1076,1011,1012,947,50,51,36,19,35,51,35,35,19,34,34,36,19,51,36,37,0,0,0,0,0,0,7905,7906,7907,7908,0,0,0,0,0,0,0,33,36,19,51,51,34,51,36,19,35,34,820,2658,2659,2660,2661,2662,2663,2664,2665,2666,2667,2668,2669,0,0,0,0,0,0,0,0,0,0,0,0,0,0,0,0,0,0,0,0,0,0,0,0,0,0,0,4753,5025,4978,4978,4994,4757,0,0,0,0,0,0,0,0,0,0,0,0,0,0,0,0,0,0,0,0,0,0,0,0,0,0,0,0,0,0,0,0,0,0,0,0,0,0,0,0,0,0,0,0,0,0,0,0,0,0,0,0,0,0,0,8305,8614,8611,8594,8308,8308,8291,8610,8612,8629,8627,8323,8306,8292,8275,8275,8275,8275,8275,8275,8275,8275,8275,8275,8290,8613,8627,8628,8629,8309,0,0,0,0,0,9351,9558,9686,9622,9686,9558,9622,9352,0,0,0,0,0,0,0,8942,8943,8944,9578,8945,8946,8947,0,0,0,0,0,0,0,0,0,0,0,0,0,0,0,0,0,0,0,0,0,0,0,0,
0,0,0,0,0,1010,1011,763,36,19,19,35,34,828,1076,1076,1076,1077,0,0,0,1075,1076,1011,763,51,36,51,51,51,51,34,36,34,35,51,51,51,36,37,0,0,0,0,0,0,7969,7970,7971,7972,0,0,0,0,0,0,0,33,35,36,36,35,51,51,51,35,51,52,948,2722,2723,2724,2725,2726,2727,2728,2729,2730,2731,2732,2733,0,0,0,0,0,0,0,0,0,0,0,0,0,0,0,0,0,0,0,0,0,0,0,0,0,0,0,4753,4755,4754,5025,5028,4757,0,0,0,0,0,0,0,0,0,0,0,0,0,0,0,0,0,0,0,0,0,0,0,0,0,0,0,0,0,0,0,0,0,0,0,0,0,0,0,0,0,0,0,0,0,0,0,0,0,0,0,0,0,0,0,8305,8599,8307,8323,8612,8323,8626,8307,8611,8291,8594,8629,8610,8627,8627,8627,8626,8627,8628,8613,8629,8629,8595,8613,8629,8308,8628,8307,8631,8309,0,0,0,0,0,9415,9446,9447,9448,9449,9450,9451,9416,0,0,0,0,0,0,0,9006,9007,9008,8614,9009,9010,9011,0,0,0,0,0,0,0,0,0,0,0,0,0,0,0,0,0,0,0,0,0,0,0,0,
0,0,0,0,0,0,0,947,67,67,50,36,36,37,0,0,0,0,0,0,0,0,0,1075,827,36,19,51,35,34,35,19,36,35,35,34,51,52,948,886,0,0,0,0,0,0,8033,8034,8035,8036,0,0,0,0,0,0,0,882,67,50,51,51,36,35,35,51,19,764,1012,2786,2787,2788,2789,2790,2791,2792,2793,2794,2795,2796,2797,0,0,0,0,0,0,0,0,0,0,0,0,0,0,0,0,0,0,0,0,0,0,0,0,0,0,0,4753,4995,5011,5020,4990,4757,0,0,0,0,0,0,0,0,0,0,0,0,0,0,0,0,0,0,0,0,0,0,0,0,0,0,0,0,0,0,0,0,0,0,0,0,0,0,0,0,0,0,0,0,0,0,0,0,0,0,0,0,0,0,0,8305,8598,8291,8323,8628,8291,8596,8610,8308,8628,8594,8594,8629,8611,8291,8612,8612,8628,8323,8629,8306,8614,8596,8611,8596,8626,8597,8626,8627,8309,0,0,0,0,0,9479,9510,9511,9512,9513,9514,9515,9480,0,0,0,0,0,0,0,9070,9071,9072,8613,9073,9074,9075,0,0,0,0,0,0,0,0,0,0,0,0,0,0,0,0,0,0,0,0,0,0,0,0,
0,0,0,0,0,0,0,1011,1332,1333,763,35,34,20,21,0,0,0,0,0,0,0,0,0,882,50,35,36,34,34,36,35,36,36,35,52,948,949,1012,950,0,0,0,0,0,0,8097,8098,8099,8100,0,0,0,0,0,0,0,946,1012,947,1381,1382,1383,1384,1385,1386,1387,1019,1076,2850,2851,2852,2853,2854,2855,2856,2857,2858,2859,2860,2861,0,0,0,0,0,0,0,0,0,0,0,0,0,0,0,0,0,0,0,0,0,0,0,0,0,0,0,4753,4739,4977,5025,4995,4757,0,0,0,0,0,0,0,0,0,0,0,0,0,0,0,0,0,0,4737,4723,4723,4723,4723,4723,4723,4723,4723,4723,4723,4723,4723,4723,4723,4723,4741,0,0,0,0,0,0,0,0,0,0,0,0,0,0,0,0,0,0,0,0,8305,8323,8306,8611,8307,8308,8323,8308,8611,8594,8629,8629,8596,8611,8610,8611,8614,8323,8291,8629,8627,8612,8307,8612,8291,8628,8594,8595,8307,8309,0,0,0,0,0,9543,9574,9575,9576,9577,9578,9579,9544,0,0,0,0,0,0,0,0,9443,8597,8594,8628,2147493091,0,0,0,0,0,0,0,0,0,0,0,0,0,0,0,0,0,0,0,0,0,0,0,0,0,
0,0,0,0,0,0,0,1075,1396,1397,827,36,35,35,37,0,0,0,0,0,0,0,0,0,946,947,67,67,1381,1382,1383,1384,1385,1386,1387,949,1012,1013,1076,1014,0,0,0,0,0,0,0,0,0,0,0,0,0,0,0,0,0,1010,1076,1011,1445,1446,1447,1448,1449,1450,1451,950,0,2914,2915,2916,2917,2918,2919,2920,2921,2922,2923,2924,2925,0,0,0,0,0,0,0,0,0,0,0,0,0,0,0,0,0,0,0,0,0,0,0,0,0,0,0,4753,4755,5033,4756,5023,4757,0,0,0,0,0,0,0,0,0,0,0,0,0,0,0,0,0,0,4753,4979,4980,5040,4979,5012,4996,4978,5002,5010,5009,5012,5005,4996,5012,5025,4757,0,0,0,0,0,0,0,0,0,0,0,0,0,0,0,0,0,0,0,0,8305,8613,8628,8307,8626,8594,8598,8628,8629,8611,8308,8612,8323,8324,8339,8339,9816,8339,8339,8339,8339,9816,8339,8339,8322,8323,8595,8323,8323,8309,0,0,0,0,0,9607,9369,9815,9371,9372,9373,9374,9608,0,0,0,0,0,0,0,0,9507,8306,8611,8596,2147493155,0,0,0,0,0,0,0,0,0,0,0,0,0,0,0,0,0,0,0,0,0,0,0,0,0,
0,0,0,0,0,0,0,0,0,0,33,51,35,51,37,0,0,0,0,0,0,0,0,0,1010,1011,1331,1331,1445,1446,1447,1448,1449,1450,1451,1013,1076,1077,0,0,0,0,0,0,0,0,0,0,0,0,0,0,0,0,0,0,0,0,0,1075,1509,1510,1511,1512,1513,1514,1515,1014,0,2978,2979,2980,2981,2982,2983,2984,2985,2986,2987,2988,2989,0,0,0,0,0,0,0,0,0,0,0,0,0,0,0,0,0,0,0,0,0,0,0,0,0,0,0,4753,5011,4994,5028,4996,4757,0,0,0,0,0,0,0,0,0,0,0,0,0,0,0,0,0,0,4753,4771,4993,4771,5028,4996,5019,5011,4980,4994,5025,4982,4739,5012,5034,4771,4757,0,0,0,0,0,0,0,0,0,0,0,0,0,0,0,0,0,0,0,0,8305,8598,8612,8615,8291,8610,8307,8613,8615,8597,8596,8291,8631,8860,9108,9108,9880,9108,9108,9108,9108,9880,9108,9108,8859,8628,8626,8611,8626,8309,0,0,0,0,0,9671,9433,9879,9435,9436,9437,9438,9672,0,0,0,0,0,0,0,0,9571,8611,8626,8308,2147493219,0,0,0,0,0,0,0,0,0,0,0,0,0,0,0,0,0,0,0,0,0,0,0,0,0,
0,0,0,0,0,0,0,0,0,0,33,19,36,35,37,0,0,0,0,0,0,0,0,0,0,1075,1395,1395,1509,1510,1511,1512,1513,1514,1515,1077,0,0,0,0,0,0,0,0,0,0,0,0,0,0,0,0,0,0,0,0,0,0,0,0,0,0,0,0,0,0,0,0,0,0,0,0,0,0,0,0,0,0,0,0,0,0,0,0,0,0,0,0,0,0,0,0,0,0,0,0,0,0,0,0,0,0,0,0,0,0,0,0,4753,5012,5010,5012,4771,4757,0,0,0,0,0,0,0,0,0,0,0,0,0,0,0,0,0,0,4753,4992,4756,4978,4993,5035,5026,5033,4754,4993,4755,4995,5009,5010,5009,5026,4757,0,0,0,0,0,0,0,0,0,0,0,0,0,0,0,0,0,0,0,0,8305,8597,8627,8613,8613,8308,8308,8323,8627,8307,8597,8597,8597,8924,9172,9172,9944,9172,9172,9172,9172,9944,9172,9172,8923,8613,8629,8612,8613,8309,0,0,0,0,0,9735,9497,9943,9499,9500,9501,9502,9736,0,0,0,0,0,0,0,0,8305,8613,8291,8611,8309,0,0,0,0,0,0,0,0,0,0,0,0,0,0,0,0,0,0,0,0,0,0,0,0,0,
0,0,7834,7835,7836,7837,0,0,0,0,33,35,35,35,37,0,0,0,0,0,0,0,0,0,0,0,0,0,0,0,0,0,0,0,0,0,0,0,0,0,0,0,0,0,0,0,0,0,0,0,0,0,0,0,0,0,0,0,0,0,0,0,0,0,0,0,0,0,0,0,0,0,0,0,0,0,0,0,0,0,0,0,0,0,0,0,0,0,0,0,0,0,0,0,0,0,0,0,0,0,0,0,0,0,0,0,0,0,4753,4755,4996,4755,4978,4757,0,0,0,0,0,0,0,0,0,0,0,0,0,0,0,0,0,0,4753,5012,4980,4995,4739,5040,5027,5012,5025,4755,4983,5030,4997,4993,5012,5009,4757,0,0,0,0,0,0,0,0,0,0,0,0,0,0,0,0,0,0,0,0,8305,8610,8613,8613,8597,8631,8627,8595,8613,8598,8610,8615,8307,8309,0,0,0,0,0,0,0,0,0,0,8305,8628,8596,8308,8596,8309,0,0,0,0,0,0,0,0,0,0,0,0,0,0,0,8289,8275,8275,8275,8275,8275,8290,8291,8628,8628,8292,8275,8275,8275,8275,8275,8293,0,0,0,0,0,0,0,0,0,8289,8275,8275,8275,8275,8275,8275,8293,0,0,
0,0,7898,7899,7900,7901,0,0,0,0,33,51,35,19,37,0,0,0,0,0,0,0,0,0,0,0,0,0,0,0,0,0,0,0,0,0,0,0,0,0,0,0,0,0,0,0,0,0,0,0,0,0,0,0,0,0,0,0,0,0,0,0,0,0,0,0,0,0,0,0,0,0,0,0,0,0,0,0,0,0,0,0,0,0,0,0,0,0,0,0,0,0,0,0,0,0,0,0,0,0,0,0,0,0,0,0,0,0,4753,5007,5035,5009,5010,4757,0,0,0,0,0,0,0,0,0,0,0,0,0,0,0,0,0,0,4753,4993,5028,5012,4977,4977,4998,5012,4994,4980,4995,5030,4739,5012,4980,4977,4757,0,0,0,0,0,0,0,0,0,0,0,0,0,0,0,0,0,0,0,0,8305,8626,8306,8595,8308,8596,8613,8612,8597,8307,8323,8610,8627,8309,0,0,0,0,8826,8827,8828,0,0,0,8305,8308,8628,8630,8323,8309,0,0,0,0,0,0,0,0,0,0,0,0,0,0,8289,8290,8629,8612,8629,8291,8596,8629,8291,8595,8595,8629,8599,8307,8628,8629,8308,8292,8293,0,0,0,0,0,0,0,0,8305,8611,8626,8597,8612,8597,8626,8309,0,0,
0,0,7962,7963,7964,7965,0,0,0,0,49,50,35,36,20,21,0,0,0,0,0,0,0,0,0,0,0,0,0,0,0,0,0,0,0,0,0,0,0,0,0,0,0,0,0,0,0,0,0,0,0,0,0,0,0,0,0,0,0,0,0,0,0,0,0,0,0,0,0,0,0,0,0,0,0,0,0,0,0,0,0,0,0,0,0,0,0,0,0,0,0,0,0,4737,4723,4723,4723,4723,4723,4723,4723,4723,4741,0,0,0,0,0,4753,4996,5027,4989,4994,4757,0,0,0,0,0,0,0,0,0,0,0,0,0,0,0,0,0,0,4753,5025,4981,5012,5000,4977,5011,4995,4756,5025,5028,5011,4755,4994,4991,5031,4757,0,0,0,0,0,0,0,0,0,0,0,0,0,0,0,0,0,0,0,0,8305,8629,8596,8610,8610,8631,8629,8308,8613,8614,8611,8611,8323,8309,0,0,0,0,8890,8891,8892,0,0,0,8305,8626,8610,8594,8626,8309,0,0,0,0,0,0,0,0,0,0,0,0,0,8289,8290,8611,8613,8595,8308,8595,8610,8595,8597,8596,8594,8307,8323,8308,8630,8598,8627,8323,8292,8293,0,0,0,0,0,0,0,8305,8308,8629,8597,8594,8307,8595,8309,0,0,
0,0,8026,8027,8028,8029,0,0,0,0,0,33,35,35,51,37,0,0,0,0,0,0,0,0,0,0,0,0,0,0,0,0,0,0,0,0,0,0,0,0,0,0,0,0,0,0,0,0,0,0,0,0,0,0,0,0,0,0,0,0,0,0,0,0,0,0,0,0,0,0,0,0,0,0,0,0,0,0,0,0,0,0,0,0,0,0,0,0,0,0,0,0,0,4753,5027,5009,4995,5035,5011,4994,5027,4979,4740,4723,4741,3923,3924,3925,4738,5010,5012,5012,5026,4757,0,0,0,0,0,0,0,0,0,0,0,0,0,0,0,0,0,0,4753,5010,5026,5028,5026,4994,4980,5027,5028,4991,4989,4985,5025,4979,5023,5032,4757,0,0,0,0,0,0,0,0,0,0,0,0,0,0,0,0,0,0,0,0,8305,8596,8307,8306,8612,8611,8308,8610,8595,8291,8612,8628,8323,8309,0,0,0,0,8954,8955,8956,0,0,0,8305,8596,8629,8599,8629,8309,0,0,0,0,0,0,0,0,0,0,0,0,8289,8290,8308,8597,8597,8595,8595,8594,8596,8610,8594,8612,8596,8308,8628,8629,8627,8613,8306,8597,8306,8292,8293,0,0,0,0,0,0,8305,8631,8291,8615,8308,8612,8628,8309,0,0,
0,0,8090,8091,8092,8093,0,0,0,0,0,33,36,51,36,37,0,0,0,0,0,0,0,0,0,0,0,0,0,0,0,0,0,0,0,0,0,0,0,0,0,0,0,0,0,0,0,0,0,0,0,0,0,0,0,0,0,0,0,0,0,0,0,0,0,0,0,0,0,0,0,0,0,0,0,0,0,0,0,0,0,0,0,0,0,0,0,0,0,0,0,0,0,4753,4988,5009,4993,4755,5012,4996,5027,4978,4993,5025,2165,3987,3988,3989,4985,5028,4979,4978,4755,4757,0,0,0,0,0,0,0,0,0,0,0,0,0,0,0,0,0,0,4753,4994,5025,5007,4978,4977,5027,5028,5017,4995,4996,4739,5028,4994,5011,4979,4757,0,0,0,0,0,0,0,0,0,0,0,0,0,0,0,0,0,0,0,0,8305,8595,8307,8627,8612,8612,8613,8291,8627,8308,8307,8597,8306,8309,0,0,0,0,9018,9019,9020,0,0,0,8305,8323,8612,8323,8610,8309,0,0,0,0,0,0,0,0,0,0,0,0,8305,8610,8613,8307,8626,8629,8307,8323,8610,8597,8291,8626,8291,8597,8306,8323,8614,8627,8613,8291,8307,8597,8309,0,0,0,0,0,0,8321,8339,8322,8615,8323,8324,8339,8982,0,0,
0,0,0,0,0,0,0,0,0,0,0,33,51,51,34,37,0,0,0,0,0,0,0,0,0,0,0,0,0,0,0,0,0,0,0,0,0,0,0,0,0,0,0,0,0,0,0,0,0,0,0,0,0,0,0,0,0,0,0,0,0,0,0,0,0,0,0,0,0,0,0,0,0,0,0,0,0,0,0,0,0,0,0,0,0,0,0,0,0,0,0,0,0,4753,5005,4980,5027,5028,5004,5012,4996,5010,4996,5026,2228,4051,4052,4053,2228,2228,4756,4771,4771,4757,0,0,0,0,0,0,0,0,0,0,0,0,0,0,0,0,0,0,4753,4982,5012,4978,4993,4979,5015,4977,5025,5033,5025,4996,4996,4755,5021,5026,4757,0,0,0,0,0,0,0,0,0,0,0,0,0,0,0,0,0,0,0,0,8978,9362,9363,9364,9365,9366,9367,9369,8820,8821,8822,9373,9374,8982,0,0,0,0,9082,9083,9084,0,0,9070,9620,8916,8916,8916,8916,9621,0,0,0,0,0,0,0,0,0,0,0,0,8305,8613,8611,8307,8628,8628,8306,8307,8629,8611,8594,8615,8306,8307,8291,8323,8595,8595,8597,8596,8610,8626,8309,0,0,0,0,0,0,9042,9108,8859,8629,8611,8860,9108,9046,0,0,
0,0,0,0,0,0,0,0,0,0,0,33,36,36,51,37,0,0,0,0,0,0,0,0,0,0,0,0,0,0,0,0,0,0,0,0,0,0,0,0,0,0,0,0,0,0,0,0,0,0,0,0,0,0,0,0,0,0,0,0,0,0,0,0,0,0,0,0,0,0,0,0,0,0,0,0,0,0,0,0,0,0,0,0,0,0,0,0,0,0,0,0,0,4753,4756,4978,5014,5027,5012,4994,4987,4993,5016,5026,2228,4115,4116,4117,2228,2228,4993,5031,4978,3080,0,0,0,0,0,0,0,0,0,0,0,0,0,0,0,0,0,0,4753,5039,4994,5010,5034,4987,5029,5010,4771,5027,5025,4996,4979,4996,4771,4755,4757,0,0,0,0,0,0,0,0,0,0,0,0,0,0,0,0,0,0,0,0,9042,9426,9427,9428,9429,9430,9431,9433,8884,8885,8886,9437,9438,9046,0,0,0,0,0,0,0,0,0,0,9327,9328,9329,9330,9330,9331,0,0,0,0,0,0,0,0,0,0,0,0,8305,8615,8626,8291,8612,8594,8308,8612,8596,8308,8613,8594,8626,8610,8594,8308,8629,8628,8610,8597,8597,8307,8292,8275,8275,8275,8275,8275,8275,8864,9114,8992,8308,8611,8986,9179,9110,0,0,
0,0,0,0,0,0,0,0,0,0,0,33,35,51,51,37,0,0,0,0,0,0,0,0,0,0,0,0,0,0,0,0,0,0,0,0,0,0,0,0,0,0,0,0,0,0,0,0,0,0,0,0,0,0,0,0,0,0,0,0,0,0,0,0,0,0,0,0,0,0,0,0,0,0,0,0,0,0,0,0,0,0,0,0,0,0,0,0,0,0,0,0,0,4753,5039,5029,4996,4754,4995,5027,4754,5024,5010,4994,2228,4179,4180,4181,2291,2228,5023,4771,5026,3144,0,0,0,0,0,0,0,0,0,0,0,0,0,0,0,0,0,0,4753,4980,5012,5010,4980,5027,4994,5032,5010,4755,4994,4771,5028,4978,4996,5010,4757,0,0,0,0,0,0,0,0,0,0,0,0,0,0,0,0,0,0,0,0,9106,9490,9491,9492,9493,9494,9495,9497,8948,8949,8950,9501,9502,9110,0,0,0,0,0,0,0,0,0,0,9199,9200,9201,9202,9202,9203,0,0,0,0,0,0,0,0,0,0,0,0,8305,8323,8612,8307,8596,8596,8628,8323,8611,8323,8610,8610,8594,8629,8610,8614,8611,8628,8615,8598,8306,8596,8291,8596,8323,8630,8629,8631,8597,8308,8613,8291,8594,8595,8596,8309,0,0,0,
0,0,0,0,0,0,0,0,0,0,0,33,35,34,36,37,0,0,0,0,0,0,0,0,0,0,0,0,0,0,0,0,0,0,0,0,0,0,0,0,0,0,0,0,0,0,0,0,0,0,0,0,0,0,0,17,3,3,3,3,3,21,0,0,0,0,0,0,0,0,0,0,0,0,0,0,0,0,0,0,0,0,0,0,0,0,0,0,0,0,0,0,0,4753,5003,5028,5028,4977,5011,4979,4993,4994,4993,5027,2293,4243,4244,4245,2171,5009,4978,5038,4754,3208,0,0,0,0,0,0,0,0,0,0,0,0,0,0,0,0,0,0,4753,4755,4977,4994,4994,5025,4771,4994,4978,4771,5026,5012,5005,4771,5009,5010,4757,0,0,0,0,0,0,0,0,0,0,0,0,0,0,0,0,0,0,0,0,0,0,0,0,0,0,0,0,9012,9013,9014,0,0,0,0,0,0,0,0,0,0,0,0,0,8305,8597,8613,8597,8291,8309,0,0,0,0,0,0,0,0,0,0,0,0,8305,8291,8630,8597,8594,8594,8597,8610,8626,8597,8291,8594,8612,8595,8308,8323,8629,8306,8291,8628,8323,8612,8628,8614,8595,8306,8611,8308,8610,8598,8306,8323,8599,8615,8308,8309,0,0,0,
0,0,0,0,0,0,0,0,0,0,0,33,19,35,36,20,3,3,3,3,3,3,21,0,0,0,0,0,0,0,0,0,0,0,0,0,0,0,0,0,0,0,0,0,0,0,0,0,0,0,0,17,3,3,3,18,35,35,35,51,35,20,3,3,3,21,0,0,0,0,0,0,0,0,0,0,0,0,0,0,0,0,0,0,0,0,0,0,0,0,0,0,0,4753,5010,5034,4999,4994,4771,4771,5010,5010,4755,4980,2172,4307,4308,4309,2235,4996,4756,4771,4993,3272,0,0,0,0,0,0,0,0,0,0,0,0,0,0,0,0,0,0,4753,5007,5025,4988,5025,4996,5000,4994,4994,5010,4993,5012,5010,5035,5009,5027,4757,0,0,0,0,0,0,0,0,0,0,0,0,0,0,0,0,0,0,0,0,0,0,0,0,0,0,0,0,9076,9077,9078,0,0,0,0,0,0,0,0,0,0,0,0,0,8305,8631,8594,8626,8615,8309,0,0,0,0,0,0,0,0,0,0,0,0,8305,8308,8610,8306,8597,8628,8306,8629,8308,8630,8598,8308,8612,8306,8626,8308,8627,8612,8306,8610,8615,8307,8324,8339,8339,8339,8339,9817,8339,8339,8339,8339,8339,9817,8339,8982,0,0,0,
0,0,0,0,0,0,0,0,17,3,3,18,51,51,35,19,36,34,51,35,34,35,20,3,3,3,21,0,0,0,0,0,0,0,0,0,0,0,0,0,0,0,0,0,0,0,0,0,0,17,3,18,34,51,34,51,35,51,19,34,36,36,51,36,35,20,3,21,0,0,0,0,0,0,0,0,0,0,0,0,0,0,0,0,0,0,0,0,0,0,0,0,0,4753,5015,4980,4996,5032,5022,4995,4978,4981,4772,4787,2427,4371,4372,4373,4753,5024,5012,5009,4979,4757,0,0,0,0,0,0,0,0,0,0,0,0,0,0,0,0,0,0,4753,5012,4996,4771,5010,5026,4999,5028,4980,4978,4995,4980,4986,5025,4996,5026,4757,0,0,0,0,0,0,0,0,0,0,0,0,0,0,0,0,0,0,0,0,0,0,0,0,0,0,0,0,0,0,0,0,0,0,0,0,0,0,0,0,0,0,0,0,8305,8626,8630,8594,8595,8309,0,0,0,0,0,0,0,0,0,0,0,0,8978,8339,8339,8322,8628,8291,8594,8306,8324,8339,8339,8339,9812,8339,8339,8339,8339,8339,9814,8339,8339,8339,9045,9108,9108,9108,9108,9881,9108,9108,9108,9108,9108,9881,9108,9046,0,0,0,
0,0,0,0,0,0,0,0,33,36,19,51,51,35,51,36,34,36,35,35,35,51,35,51,36,36,20,3,21,0,0,0,0,0,0,0,0,0,0,0,0,0,0,0,0,0,0,17,3,18,51,34,36,36,35,35,51,35,36,36,19,51,19,35,35,51,35,37,0,0,0,0,0,0,0,0,0,0,0,0,0,0,0,0,0,0,0,0,0,0,0,0,0,4769,4787,4787,4787,3136,4787,4787,3139,4787,2357,2420,2358,0,0,0,4753,5027,5011,4979,4771,4757,0,0,0,0,0,0,0,0,0,0,0,0,0,0,0,0,0,0,2226,2228,2228,2228,2228,2228,2228,2228,2228,2228,2228,2228,2228,2228,2228,2228,2230,0,0,0,0,0,0,0,0,0,0,0,0,0,0,0,0,0,0,0,0,0,0,0,0,0,0,0,0,0,0,0,0,0,0,0,0,0,0,0,0,0,0,0,0,9707,8612,8598,8612,8610,2147493355,0,0,0,0,0,0,0,0,0,0,0,0,9042,9108,9108,8859,8594,8626,8306,8323,8860,9108,9108,9108,9876,9108,9108,9108,9108,9108,9878,9108,9108,9108,9109,9172,9172,9172,9172,9945,9172,9172,9172,9172,9172,9945,9172,9110,0,0,0,
0,0,0,0,0,0,0,17,18,51,35,35,35,19,35,36,51,35,36,35,51,34,36,35,34,36,35,19,37,0,0,0,0,0,0,0,0,0,0,0,0,0,0,0,17,3,3,18,51,35,35,51,35,34,35,34,51,51,35,51,19,51,51,35,51,35,35,20,21,0,0,0,0,0,0,0,0,0,0,0,0,0,0,0,0,0,0,0,0,0,0,0,0,2354,2420,2420,2420,3200,2420,2420,3203,2420,2420,2421,2422,0,0,0,4753,4771,4982,5027,5026,4757,0,0,0,0,0,0,0,0,0,0,0,0,0,0,0,0,0,0,2290,2356,3142,2356,2356,3639,3640,3641,3642,3643,3644,3645,3646,3647,3648,2356,2294,0,0,0,0,0,0,0,0,0,0,0,0,0,0,0,0,0,0,0,0,0,0,0,0,0,0,0,0,0,0,0,0,0,0,0,0,0,0,0,0,0,0,0,0,9443,8612,8626,8615,8631,2147493091,0,0,0,0,0,0,0,0,0,0,0,0,9106,9172,9172,8923,8630,8612,8610,8613,8924,9172,9172,9172,9940,9172,9172,9172,9172,9172,9942,9172,9172,9172,9173,0,0,0,0,0,0,0,0,0,0,0,0,0,0,0,0,
0,0,0,0,0,0,0,33,19,51,34,51,34,36,36,51,51,51,19,51,36,51,51,35,51,36,34,34,20,3,21,0,0,0,0,0,0,0,0,0,0,0,17,3,18,19,35,35,36,35,51,51,51,51,34,36,36,51,35,35,19,35,36,35,36,36,35,19,37,0,0,0,0,0,0,0,0,0,0,0,0,0,0,0,0,0,0,0,0,0,0,0,0,2418,2484,2484,2484,3264,2484,2484,3267,2484,2484,2485,0,0,0,0,4753,5001,5009,4754,4996,4757,0,0,0,0,0,0,0,0,0,0,0,0,0,0,0,0,0,0,2354,2420,3206,2420,2420,3703,3704,3705,3706,3707,3708,3709,3710,3711,3712,2420,2358,0,0,0,0,0,0,0,0,0,0,0,0,0,0,0,0,0,0,0,0,0,0,0,0,0,0,0,0,0,0,0,0,0,0,0,0,0,0,0,0,0,0,0,0,9507,8629,8610,8291,8594,2147493155,0,0,0,0,0,0,0,0,0,0,0,0,0,0,0,8305,8323,8628,8597,8611,8309,0,0,0,0,0,0,0,0,0,0,0,0,0,0,0,0,0,0,0,0,0,0,0,0,0,0,0,0,0,0,
0,0,0,0,0,0,0,33,35,19,34,51,19,19,19,35,36,35,51,34,51,19,35,36,19,36,35,35,35,51,20,21,0,0,0,0,0,0,0,0,0,0,33,34,19,35,35,34,35,19,51,51,35,51,19,35,51,51,35,36,34,34,51,34,35,34,36,51,37,0,0,0,0,0,0,0,0,0,0,0,0,0,0,0,0,0,0,0,0,0,0,0,0,0,0,0,0,0,0,0,0,0,0,0,0,0,0,0,4753,5014,4981,5007,5025,4757,0,0,0,0,0,0,0,0,0,0,0,0,0,0,0,0,0,0,2418,2484,3270,2484,2484,3767,3768,3769,3770,3771,3772,3773,3774,3775,3776,2484,2422,0,0,0,0,0,0,0,0,0,0,0,0,0,0,0,0,0,0,0,0,0,0,0,0,0,0,0,0,0,0,0,0,0,0,0,0,0,0,0,0,0,0,0,0,9571,8612,8626,8610,8595,2147493219,0,0,0,0,0,0,0,0,0,0,0,0,0,0,0,8305,8323,8610,8613,8596,8309,0,0,0,0,0,0,0,0,0,0,0,0,0,0,0,0,0,0,0,0,0,0,0,0,0,0,0,0,0,0,
0,0,0,0,0,0,0,33,35,35,19,19,34,51,34,35,36,34,35,35,36,19,51,35,51,36,35,36,35,35,35,37,0,0,0,0,0,0,0,0,0,0,33,19,51,36,35,35,19,36,19,34,36,35,51,51,35,34,51,36,35,36,35,35,36,35,35,36,37,0,0,0,0,0,0,0,0,0,0,0,0,0,0,0,0,0,0,0,0,0,0,0,0,0,0,0,0,0,0,0,0,0,0,0,0,0,0,0,4753,4977,4990,5028,5028,4757,0,0,0,0,0,0,0,0,0,0,0,0,0,0,0,0,0,0,3826,3827,3828,3829,3830,3831,3832,3833,3834,3835,3836,3837,3138,3839,3840,0,0,0,0,0,0,0,0,0,0,0,0,0,0,0,0,0,0,0,0,0,0,0,0,0,0,0,0,0,0,0,0,0,0,0,0,0,0,0,0,0,0,0,0,0,0,9707,8627,8626,8291,8611,2147493355,0,0,0,0,0,0,0,0,0,0,0,0,0,0,0,8305,8307,8610,8308,8627,8309,0,0,0,0,0,0,1957,1958,1959,1960,1961,0,0,0,0,0,0,0,0,0,0,0,0,0,0,0,0,0,0,0,
0,0,0,0,0,0,0,49,50,35,36,51,19,34,51,19,51,51,34,51,36,19,35,34,51,34,51,35,36,51,36,37,0,0,0,0,0,0,0,0,0,0,33,34,36,51,51,35,36,51,35,35,35,36,19,51,19,35,35,35,35,36,51,36,35,35,34,35,37,0,0,0,0,0,0,0,0,0,0,0,0,0,0,0,0,0,0,0,0,0,0,0,0,0,0,0,0,0,0,0,0,0,0,0,0,0,0,0,4753,5011,5010,5026,5011,4757,0,0,0,0,0,0,0,0,0,0,0,0,0,0,0,0,0,0,3890,3891,3892,3893,3894,3895,3896,3897,3898,3899,3900,3901,3202,3903,3904,0,0,0,0,0,0,0,0,0,0,0,0,0,0,0,0,0,0,0,0,0,0,0,0,0,0,0,0,0,0,0,0,0,0,0,0,0,0,0,0,0,0,0,0,0,0,9771,8610,8611,8596,8630,2147493419,0,0,0,0,0,0,0,0,0,0,0,0,0,0,0,8305,8612,8596,8597,8611,8309,0,0,0,0,0,0,2021,2022,2023,2024,2025,0,0,0,0,0,0,0,0,0,0,0,0,0,0,0,0,0,0,0,
0,0,0,0,0,0,0,0,49,67,50,51,36,36,35,51,35,51,35,51,36,36,36,51,36,51,51,36,51,36,35,37,0,0,0,0,0,0,0,0,0,0,33,51,19,35,36,51,19,51,51,34,35,51,36,35,35,35,36,51,35,51,51,35,35,35,35,19,37,0,0,0,0,0,0,0,0,0,0,0,0,0,0,0,0,0,0,0,0,0,0,0,0,0,0,0,0,0,0,0,0,0,0,0,0,0,0,0,4753,5026,5028,5014,4994,4757,0,0,0,0,0,0,0,0,0,0,0,0,0,0,0,0,0,0,3954,3955,3956,3957,3958,3959,3960,3961,3962,3963,3964,3965,3266,3967,3968,0,0,0,0,0,0,0,0,0,0,0,0,0,0,0,0,0,0,0,0,0,0,0,0,0,0,0,0,0,0,0,0,0,0,0,0,0,0,0,0,0,0,0,0,0,0,9835,8308,8613,8627,8597,2147493483,0,0,0,0,0,0,0,0,0,0,0,0,0,0,0,8571,8613,8596,8323,8594,8619,0,0,0,0,0,0,2085,2086,2087,2088,2089,0,0,0,0,0,0,0,0,0,0,0,0,0,0,0,0,0,0,0,
0,0,0,0,0,0,0,0,0,0,49,67,67,50,35,36,36,51,51,35,35,51,19,51,35,34,19,19,51,36,34,37,0,0,0,0,0,0,0,0,0,0,33,34,35,36,35,35,19,35,34,51,51,51,36,35,19,51,51,35,51,51,34,51,35,51,51,52,53,0,0,0,0,0,0,0,0,0,0,0,0,0,0,0,0,0,0,0,0,0,0,0,0,0,0,0,0,0,0,0,0,0,0,0,0,0,0,0,4753,4755,5028,4980,4977,4757,0,0,0,0,0,0,0,0,0,0,0,0,0,0,0,0,0,0,4018,4019,4020,4021,4022,4023,4024,4025,4026,4027,4028,4029,4030,4031,4032,0,0,0,0,0,0,0,0,0,0,0,0,0,0,0,0,0,0,0,0,0,0,0,0,0,0,0,0,0,0,0,0,0,0,0,0,0,0,0,0,0,0,0,0,0,0,8305,8291,8626,8599,8610,8309,0,0,0,0,0,0,0,0,0,0,0,0,0,0,0,9707,8597,8594,8626,8307,2147493357,0,0,0,0,0,0,2149,2150,2151,2152,2153,0,0,0,0,0,0,0,0,0,0,0,0,0,0,0,0,0,0,0,
0,0,0,0,0,0,0,0,0,0,0,0,0,33,51,36,35,34,51,36,51,19,19,36,36,51,36,51,36,36,52,53,0,0,0,0,0,0,0,0,0,0,49,50,19,35,51,36,35,51,51,36,35,36,35,35,19,36,36,34,34,36,51,19,51,35,52,53,0,0,0,0,0,0,0,0,0,0,0,0,0,0,0,0,0,0,0,0,0,0,0,0,0,0,0,0,0,0,0,0,0,0,0,0,0,0,0,0,4753,5031,5036,4996,5012,4757,0,0,0,0,0,0,0,0,0,0,0,0,0,0,0,0,0,0,4082,4083,4084,4085,4086,4087,4088,4089,4090,4091,4092,4093,4094,4095,4096,0,0,0,0,0,0,0,0,0,0,0,0,0,0,0,0,0,0,0,0,0,0,0,0,0,0,0,0,0,0,0,0,0,0,0,0,0,0,0,0,0,0,0,8289,8275,8275,8290,8596,8612,8595,8630,8292,8275,8275,8293,0,0,0,0,0,0,0,0,0,0,0,0,9771,8613,8628,8611,8594,2147493421,0,0,0,0,0,0,2213,2214,2215,2216,2217,0,0,0,0,0,0,0,0,0,0,0,0,0,0,0,0,0,0,0,
0,0,0,0,0,0,0,0,0,0,0,0,0,49,50,51,51,51,19,35,51,35,51,35,51,51,19,51,51,52,53,0,0,0,0,0,0,0,0,0,0,0,0,33,51,35,35,35,51,35,51,51,51,36,35,35,51,19,19,35,51,51,35,35,35,52,53,0,0,0,0,0,0,0,0,0,0,0,0,0,0,0,0,0,0,0,0,0,0,0,0,0,0,0,0,0,0,0,0,0,0,0,0,0,0,0,0,0,4753,5027,4993,4771,4986,4757,0,0,0,0,0,0,0,0,0,0,0,0,0,0,0,0,0,0,4146,4147,4148,4149,4150,4151,4152,4153,4154,4155,4156,4157,4158,4159,4160,0,0,0,0,0,0,0,0,0,0,0,0,0,0,0,0,0,0,0,0,0,0,0,0,0,0,0,0,0,0,0,0,0,0,0,0,0,0,0,0,0,0,0,8305,8610,8626,8627,8596,8614,8595,8308,8596,8596,8594,8309,0,0,0,0,0,0,0,0,0,0,0,0,9835,8323,8611,8611,8596,2147493485,0,0,0,0,0,0,0,0,0,0,0,0,0,0,0,0,0,8289,8275,8275,8275,8275,8275,8275,8275,8275,8275,8293,0,0,
0,0,0,0,0,0,0,0,0,0,0,0,0,0,49,67,1381,1382,1383,1384,1385,1386,1387,1388,1389,1390,67,67,67,53,0,0,0,0,0,0,0,0,0,0,0,0,0,49,67,67,67,50,35,36,34,35,51,19,51,51,36,19,19,36,51,34,51,52,67,53,0,0,0,0,0,0,0,0,0,0,0,0,0,0,0,0,0,0,0,0,0,0,0,0,0,0,0,0,0,0,0,0,0,0,0,0,0,0,0,0,0,0,4753,4755,4755,4754,5017,4740,4741,0,0,0,0,0,0,0,0,0,0,4737,4723,4723,4723,4723,4723,4723,2163,2228,2228,2228,2165,4723,4723,4723,4723,4723,4741,0,0,0,0,0,0,0,0,0,0,0,0,0,0,0,0,0,0,0,0,0,0,0,0,0,0,0,0,0,0,0,0,0,0,0,0,0,0,0,0,0,0,0,0,0,0,0,9707,8612,8307,8307,8597,8595,8596,8611,8596,8630,8595,2147493355,0,0,0,0,0,0,0,0,0,0,0,0,8305,8595,8611,8306,8613,8309,0,0,0,0,0,0,0,0,0,0,0,0,0,0,0,0,0,8305,8307,8596,8308,8627,8307,8629,8291,8595,8594,8309,0,0,
0,0,0,0,0,0,0,0,0,0,0,0,0,0,0,0,1445,1446,1447,1448,1449,1450,1451,1452,1453,1454,0,0,0,0,0,0,0,0,0,0,0,0,0,0,0,0,0,0,0,0,0,49,67,50,51,19,19,35,51,51,52,67,67,1000,1001,1002,1003,53,0,0,0,0,0,0,0,0,0,0,0,0,0,0,0,0,0,0,0,0,0,0,0,0,0,0,0,0,0,0,0,0,0,0,0,0,0,0,0,0,0,0,0,0,4753,4977,4995,5026,4995,4995,4740,4741,0,0,0,0,0,0,0,0,0,4753,4980,4995,5009,5025,4994,4978,5026,5027,5028,4756,4756,4979,5025,4996,5007,4755,4757,0,0,0,0,0,0,0,0,0,0,0,0,0,0,0,0,0,0,0,0,0,0,0,0,0,0,0,0,0,0,0,0,0,0,0,0,0,0,0,0,0,0,0,0,0,0,0,9771,8596,8291,8626,8628,8613,8308,8307,8626,8626,8306,2147493419,0,0,0,0,0,0,0,0,0,0,0,0,8305,8291,8611,8627,8611,8309,0,0,0,0,0,0,0,0,0,0,0,0,0,0,0,0,0,8305,8598,8308,8595,8613,8611,8626,8626,8323,8626,8309,0,0,
0,0,0,0,0,0,0,0,0,0,0,0,0,0,0,0,1509,1510,1511,1512,1513,1514,1515,1516,1517,1518,0,0,0,0,0,0,0,0,0,0,0,0,0,0,0,0,0,0,0,0,0,0,0,49,805,806,807,808,809,810,53,0,0,1064,1065,1066,1067,0,0,0,0,0,0,0,0,0,0,0,0,0,0,0,0,0,0,0,0,0,0,0,0,0,0,0,0,0,0,0,0,0,0,0,0,0,0,0,0,0,0,0,0,0,4753,5040,5028,4754,4984,5039,5037,4740,4741,0,0,0,0,0,0,0,0,4753,5004,5009,4994,5011,4992,5025,4739,5025,5011,5007,5025,4984,5012,5028,5010,4994,4757,0,0,0,0,0,0,0,0,0,0,0,0,0,0,0,0,0,0,0,0,3923,3924,3925,2100,2100,2100,2100,2100,2100,2100,2100,2100,2100,2100,3926,9275,9276,0,0,0,0,0,0,0,0,0,0,9835,8627,8613,8628,8612,8596,8595,8594,8597,8594,8595,2147493483,0,0,0,0,0,0,0,0,0,0,0,0,8305,8612,8594,8594,8323,8309,0,0,0,0,0,0,0,0,0,0,0,0,0,0,9294,9295,9296,8851,8306,8596,8596,8615,8323,8628,8291,8626,8307,8309,0,0,
0,0,0,0,0,0,0,0,0,0,0,0,0,0,0,0,0,0,0,0,0,0,0,0,0,0,0,0,0,0,0,7777,7778,7779,7780,0,0,0,0,0,0,0,0,0,0,0,0,0,0,0,869,870,871,872,873,874,0,0,0,1128,1129,1130,1131,0,0,0,0,0,0,0,0,0,0,0,0,0,0,0,0,0,0,0,0,0,0,0,0,0,0,0,0,0,0,0,0,0,0,0,0,0,0,0,0,0,0,0,0,0,4753,4980,4756,5010,5025,5028,5012,5025,4740,4741,0,0,0,0,3923,3924,3925,2163,4980,5025,4989,4982,5000,4978,5010,5019,5026,5026,4992,5003,5008,5023,4993,5028,4740,4723,4723,4723,4723,4723,4723,4723,4723,4723,4723,4723,4723,4723,4723,4723,4723,4723,4723,4723,2100,3987,3988,3989,2228,4754,4978,5027,5028,5000,4771,5007,5037,5028,2228,4118,9339,9340,8788,8275,8275,8275,8275,8275,8275,8275,8275,8275,8290,8596,8308,8627,8323,8612,8631,8627,8291,8594,8594,8292,8275,8275,8275,8275,8275,8275,8275,8275,8275,8275,8275,8275,8290,8594,8611,8611,8323,8292,8275,8275,8275,8275,8275,8275,8275,8275,8275,8275,8275,8275,8275,8788,9358,9359,9360,8916,8594,8307,8595,8291,8611,8627,8613,8306,8612,8309,0,0,
0,0,0,0,0,0,0,0,0,7838,7839,7840,0,0,0,0,0,0,0,0,0,0,0,0,0,0,0,0,0,0,0,7841,7842,7843,7844,0,0,0,0,0,0,0,0,0,0,0,0,0,0,0,933,934,935,936,937,938,0,0,0,0,0,0,0,0,0,0,0,0,0,0,0,0,0,0,0,0,0,0,0,0,0,0,0,0,0,0,0,0,0,0,0,0,0,0,0,0,0,0,0,0,0,0,0,0,0,0,0,0,4753,5011,4996,4739,4993,4995,5011,4995,4979,4740,4723,4723,4723,2100,3987,3988,3989,2228,4995,5027,5011,5018,4739,5025,4978,5027,5003,5005,4978,4978,5011,4979,5012,4978,4996,4977,4739,5028,5009,4993,5012,4979,5027,5027,5010,5028,5027,5026,5026,5000,5026,5026,5027,5027,2228,4051,4052,4053,2228,4990,4986,4996,4995,4755,5000,5008,4994,5012,2228,4118,9403,9404,8916,8612,8610,8306,8628,8610,8596,8594,8611,8626,8595,8596,8629,8307,8628,8306,8629,8631,8595,8597,8291,8613,8628,8629,8627,8599,8291,8629,8629,8306,8594,8628,8615,8306,8307,8595,8597,8610,8612,8612,8306,8611,8291,8611,8596,8596,8614,8629,8306,8308,8597,8628,8612,8916,9422,9423,9424,8916,8613,8627,8612,8596,8610,8613,8627,8626,8596,8309,0,0,
0,0,0,0,0,0,0,0,0,7902,7903,7904,0,0,0,0,0,0,0,0,0,0,0,0,0,0,0,0,0,0,0,7905,7906,7907,7908,0,0,0,0,0,0,0,0,0,0,0,0,0,0,0,0,0,0,0,0,0,0,0,0,0,0,0,0,0,0,0,0,0,0,0,0,0,0,0,0,0,0,0,0,0,0,0,0,0,0,0,0,0,0,0,0,0,0,0,0,0,0,0,0,0,0,0,0,0,0,0,0,0,4769,4770,5028,4996,5010,4771,4979,4739,5010,4979,5032,5011,5026,2228,4051,4052,4053,2228,4980,5005,5026,5033,5009,4994,4977,4977,4978,4978,5021,5005,5012,4980,5011,5012,4996,5002,4978,4980,5011,4996,4994,5010,5012,4994,4998,5022,4756,5026,4996,5039,4978,4979,5022,4771,2228,4115,4116,4117,2228,5025,5009,5010,5000,4994,4771,5028,5029,5027,2228,4118,9467,9468,8916,8629,8612,8306,8307,8291,8306,8323,8308,8612,8610,8627,8308,8596,8596,8308,8628,8306,8629,8596,8323,8629,8596,8597,8595,8291,8627,8598,8307,8594,8613,8611,8596,8597,8630,8628,8612,8597,8594,8612,8307,8595,8308,8594,8615,8597,8630,8595,8291,8597,8628,8291,8597,8916,9486,9487,9488,8916,8307,8612,8594,8626,8595,8610,8611,8629,8596,8309,0,0,
0,0,0,0,0,0,0,0,0,7966,7967,7968,0,0,0,0,0,0,0,0,0,0,0,0,0,0,0,0,0,0,0,7969,7970,7971,7972,0,0,0,0,0,0,0,0,0,0,0,0,0,0,0,0,0,0,0,0,0,0,0,0,0,0,0,0,0,0,0,0,0,0,0,0,0,0,0,0,0,0,0,0,0,0,0,0,0,0,0,0,0,0,0,0,0,0,0,0,0,0,0,0,0,0,0,0,0,0,0,0,0,4785,4786,4770,4996,4755,5010,5011,4995,4980,4771,4996,5032,5011,2228,4115,4116,4117,2228,4771,5011,4978,5012,5030,4993,4978,4756,4978,4755,5027,4995,5011,4980,5033,5027,5011,4978,4978,4993,4771,5010,4978,4771,5025,5010,4979,5024,4995,4978,5035,4978,5026,5040,4978,5010,2228,4179,4180,4181,4865,4866,4867,4868,4869,4870,4865,4866,4867,4868,4869,4870,9531,9532,8916,8612,8595,8307,8307,8612,8627,8596,8629,8597,8595,8629,8308,8627,8612,8610,8627,8613,8594,8308,8613,8627,8594,8308,8610,8629,8627,8594,8613,8610,8291,8610,8627,8323,8599,8612,8594,8628,8614,8610,8595,8596,8627,8595,8627,8610,8615,8613,8611,8595,8612,8631,8308,8916,9550,9551,9552,8979,8308,8596,8611,8306,8306,8308,8611,8615,8308,8309,0,0,
0,0,0,0,0,0,0,0,0,8030,8031,8032,0,0,0,0,0,0,0,0,0,0,0,0,0,0,0,0,0,0,0,8033,8034,8035,8036,0,0,0,0,0,0,0,0,0,0,0,0,0,0,0,0,0,0,0,0,0,0,0,0,0,0,0,0,0,0,0,0,0,0,0,0,0,0,0,0,0,0,0,0,0,0,0,0,0,0,0,0,0,0,0,0,0,0,0,0,0,0,0,0,0,0,0,0,0,0,0,0,0,4801,4802,4786,4770,5026,5010,4978,4993,5010,5011,4993,5009,4754,2228,4179,4180,4181,2291,5006,4994,4980,5011,5026,4996,5011,4980,4755,5025,5034,4756,4993,4755,5001,4993,2293,4865,4866,4867,4868,4869,4870,4865,4866,4867,4868,4869,4870,4865,4866,4865,4866,4867,4868,4869,4870,4243,4244,4245,4881,4882,4883,4884,4885,4886,4881,4882,4883,4884,4885,4886,9595,9596,9369,9370,9812,9372,9369,9370,9371,9812,9373,9374,8322,8323,8627,8306,8323,8596,8594,8308,8596,8596,8597,8324,8417,8418,8419,8420,8421,9811,8417,8417,8417,8417,8424,8425,8535,8427,8428,8429,8417,8535,8417,8417,8417,8417,8417,8417,8417,8530,8417,8418,8419,8420,8421,8422,9614,9615,9616,8859,8291,8630,8291,8611,8627,8594,8308,8610,8597,8309,0,0,
0,0,0,0,0,0,0,0,0,8094,8095,8096,0,0,0,0,0,0,0,0,0,0,0,0,0,0,0,0,0,0,0,8097,8098,8099,8100,0,0,0,0,0,0,0,0,0,0,0,0,0,0,0,0,0,0,0,0,0,0,0,0,0,0,0,0,0,0,0,0,0,0,0,0,0,0,0,0,0,0,0,0,0,0,0,0,0,0,0,0,0,0,0,0,0,0,0,0,0,0,0,0,0,0,0,0,0,0,0,0,0,0,4818,4802,4786,4787,4787,4787,3141,4787,4787,4787,4787,4787,2356,4243,4244,4245,4746,5027,5026,5028,4995,5012,5037,4978,5010,5029,5020,5031,5026,4994,4755,5028,4739,4747,4881,4882,4883,4884,4885,4886,4881,4882,4883,4884,4885,4886,4881,4882,4881,4882,4883,4884,4885,4886,4307,4308,4309,4897,4898,4899,4900,4901,4902,4897,4898,4899,4900,4901,4902,9659,9660,9433,9434,9876,9436,9433,9434,9435,9876,9437,9438,8859,8596,8629,8307,8308,8612,8629,8306,8595,8612,8323,8860,8433,8434,8435,8436,8437,9875,8433,8433,8433,8433,8440,8441,8551,8443,8444,8445,8433,8551,8433,8433,8433,8433,8433,8433,8433,8546,8433,8434,8435,8436,8437,8438,9678,9679,9680,8923,8306,8307,8291,8629,8291,8629,8595,8594,8627,8309,0,0,
0,0,0,0,0,0,0,0,0,0,0,0,0,0,0,0,0,0,0,0,0,0,0,0,0,0,0,0,0,0,0,0,0,0,0,0,0,0,0,0,0,0,0,0,0,0,0,0,0,0,0,0,0,0,0,0,0,0,0,0,0,0,0,0,0,0,0,0,0,0,0,0,0,0,0,0,0,0,0,0,0,0,0,0,0,0,0,0,0,0,0,0,0,0,0,0,0,0,0,0,0,0,0,0,0,0,0,0,0,0,4818,4802,4803,4803,4803,3205,4803,4803,4803,4803,4803,4803,4307,4308,4309,4762,5010,5028,5028,4996,5011,4978,4995,4979,4979,4991,4980,5009,4739,5025,5010,4996,4763,4897,4898,4899,4900,4901,4902,4897,4898,4899,4900,4901,4902,4897,4898,4897,4898,4899,4900,4901,4902,4371,4372,4373,0,0,0,0,0,0,0,0,0,0,0,9722,9723,9724,9497,9498,9940,9500,9497,9498,9499,9940,9501,9502,8923,8611,8307,8627,8307,8611,8613,8596,8306,8595,8306,8924,8449,8450,8451,8452,8453,9939,8449,8449,8449,8449,8456,8457,8567,8459,8460,8461,8449,8567,8449,8449,8449,8449,8449,8449,8449,8562,8449,8450,8451,8452,8453,8454,9742,9743,9744,8305,8291,8613,8615,8630,8611,8597,8611,8291,8323,8309,0,0,
0,0,0,0,0,0,0,0,0,0,0,0,0,0,0,0,0,0,0,0,0,0,0,0,0,0,0,0,0,0,0,0,0,0,0,0,0,0,0,0,0,0,0,0,0,0,0,0,0,0,0,0,0,0,0,0,0,0,0,0,0,0,0,0,0,0,0,0,0,0,0,0,0,0,0,0,0,0,0,0,0,0,0,0,0,0,0,0,0,0,0,0,0,0,0,0,0,0,0,0,0,0,0,0,0,0,0,0,0,0,0,4818,4819,4819,4819,3269,4819,4819,4819,4819,4819,4819,4371,4372,4373,4753,4994,4771,4994,5026,5028,4771,5025,5003,5028,5028,5028,5004,4979,4978,5028,4739,4757,0,0,0,0,0,0,0,0,0,0,0,0,0,0,0,0,0,0,0,0,0,0,0,0,0,0,0,0,0,0,0,0,0,0,0,0,0,0,0,0,0,0,0,0,0,0,0,8305,8597,8596,8291,8291,8611,8626,8599,8594,8613,8629,8309,0,0,0,0,0,0,0,0,0,0,0,0,0,0,0,0,0,0,0,0,0,0,0,0,0,0,0,0,0,0,0,0,0,0,0,8978,8339,8339,9817,8339,8339,8339,8339,9813,8339,8982,0,0,
0,0,0,0,0,0,0,0,0,0,0,0,0,0,0,0,0,0,0,0,0,0,0,0,0,0,0,0,0,0,0,0,0,0,0,0,0,0,0,0,0,0,0,0,0,0,0,0,0,0,0,0,0,0,0,0,0,0,0,0,0,0,0,0,0,0,0,0,0,0,0,0,0,0,0,0,0,0,0,0,0,0,0,0,0,0,0,0,0,0,0,0,0,0,0,0,0,0,0,0,0,0,0,0,0,0,0,0,0,0,0,0,0,0,0,0,0,0,0,0,0,0,0,0,0,4769,4865,4866,4867,4868,3138,4870,4865,4866,4867,4868,3136,4866,4867,4868,4869,4870,4773,0,0,0,0,0,0,0,0,0,0,0,0,0,0,0,0,0,0,0,0,0,0,0,0,0,0,0,0,0,0,0,0,0,0,0,0,0,0,0,0,0,0,0,0,0,0,0,8305,8613,8610,8291,8306,8610,8323,8613,8595,8323,8610,8309,0,0,0,0,0,0,0,0,0,0,0,0,0,0,0,0,0,0,0,0,0,0,0,0,0,0,0,0,0,0,0,0,0,0,0,9042,9108,9108,9881,9108,9108,9108,9108,9877,9108,9046,0,0,
0,0,0,0,0,0,0,0,0,0,0,0,0,0,0,0,0,0,0,0,0,0,0,0,0,0,0,0,0,0,0,0,0,0,0,0,0,0,0,0,0,0,0,0,0,0,0,0,0,0,0,0,0,0,0,0,0,0,0,0,0,0,0,0,0,0,0,0,0,0,0,0,0,0,0,0,0,0,0,0,0,0,0,0,0,0,0,0,0,0,0,0,0,0,0,0,0,0,0,0,0,0,0,0,0,0,0,0,0,0,0,0,0,0,0,0,0,0,0,0,0,0,0,0,0,4785,4881,4882,4883,4884,3202,4886,4881,4882,4883,4884,3200,4882,4883,4884,4885,4886,4789,0,0,0,0,0,0,0,0,0,0,0,0,0,0,0,0,0,0,0,0,0,0,0,0,0,0,0,0,0,0,0,0,0,0,0,0,0,0,0,0,0,0,0,0,0,0,0,8978,8417,8418,9813,8420,8417,8418,8419,9813,8421,8422,8982,0,0,0,0,0,0,0,0,0,0,0,0,0,0,0,0,0,0,0,0,0,0,0,0,0,0,0,0,0,0,0,0,0,0,0,9106,9172,9172,9945,9172,9172,9172,9172,9941,9172,9110,0,0,
0,0,0,0,0,0,0,0,0,0,0,0,0,0,0,0,0,0,0,0,0,0,0,0,0,0,0,0,0,0,0,0,0,0,0,0,0,0,0,0,0,0,0,0,0,0,0,0,0,0,0,0,0,0,0,0,0,0,0,0,0,0,0,0,0,0,0,0,0,0,0,0,0,0,0,0,0,0,0,0,0,0,0,0,0,0,0,0,0,0,0,0,0,0,0,0,0,0,0,0,0,0,0,0,0,0,0,0,0,0,0,0,0,0,0,0,0,0,0,0,0,0,0,0,0,4801,4897,4898,4899,4900,3266,4902,4897,4898,4899,4900,3264,4898,4899,4900,4901,4902,4805,0,0,0,0,0,0,0,0,0,0,0,0,0,0,0,0,0,0,0,0,0,0,0,0,0,0,0,0,0,0,0,0,0,0,0,0,0,0,0,0,0,0,0,0,0,0,0,9042,8433,8434,9877,8436,8433,8434,8435,9877,8437,8438,9046,0,0,0,0,0,0,0,0,0,0,0,0,0,0,0,0,0,0,0,0,0,0,0,0,0,0,0,0,0,0,0,0,0,0,0,0,0,0,0,0,0,0,0,0,0,0,0,0,
0,0,0,0,0,0,0,0,0,0,0,0,0,0,0,0,0,0,0,0,0,0,0,0,0,0,0,0,0,0,0,0,0,0,0,0,0,0,0,0,0,0,0,0,0,0,0,0,0,0,0,0,0,0,0,0,0,0,0,0,0,0,0,0,0,0,0,0,0,0,0,0,0,0,0,0,0,0,0,0,0,0,0,0,0,0,0,0,0,0,0,0,0,0,0,0,0,0,0,0,0,0,0,0,0,0,0,0,0,0,0,0,0,0,0,0,0,0,0,0,0,0,0,0,0,0,0,0,0,0,0,0,0,0,0,0,0,0,0,0,0,0,0,0,0,0,0,0,0,0,0,0,0,0,0,0,0,0,0,0,0,0,0,0,0,0,0,0,0,0,0,0,0,0,0,0,0,0,0,0,0,0,0,0,0,0,0,0,0,0,9106,8449,8450,9941,8452,8449,8450,8451,9941,8453,8454,9110,0,0,0,0,0,0,0,0,0,0,0,0,0,0,0,0,0,0,0,0,0,0,0,0,0,0,0,0,0,0,0,0,0,0,0,0,0,0,0,0,0,0,0,0,0,0,0,0,
0,0,0,0,0,0,0,0,0,0,0,0,0,0,0,0,0,0,0,0,0,0,0,0,0,0,0,0,0,0,0,0,0,0,0,0,0,0,0,0,0,0,0,0,0,0,0,0,0,0,0,0,0,0,0,0,0,0,0,0,0,0,0,0,0,0,0,0,0,0,0,0,0,0,0,0,0,0,0,0,0,0,0,0,0,0,0,0,0,0,0,0,0,0,0,0,0,0,0,0,0,0,0,0,0,0,0,0,0,0,0,0,0,0,0,0,0,0,0,0,0,0,0,0,0,0,0,0,0,0,0,0,0,0,0,0,0,0,0,0,0,0,0,0,0,0,0,0,0,0,0,0,0,0,0,0,0,0,0,0,0,0,0,0,0,0,0,0,0,0,0,0,0,0,0,0,0,0,0,0,0,0,0,0,0,0,0,0,0,0,0,0,0,0,0,0,0,0,0,0,0,0,0,0,0,0,0,0,0,0,0,0,0,0,0,0,0,0,0,0,0,0,0,0,0,0,0,0,0,0,0,0,0,0,0,0,0,0,0,0,0,0,0,0,0,0,0,0,0,0
</data>
 </layer>
 <layer id="8" name="most" width="250" height="110">
  <data encoding="csv">
0,0,0,0,0,0,0,0,0,0,0,0,0,0,0,0,0,0,0,0,0,0,0,0,0,0,0,0,0,0,0,0,0,0,0,0,0,0,0,0,0,0,0,0,0,0,0,0,0,0,0,0,0,0,0,0,0,0,0,0,0,0,0,0,0,0,0,0,0,0,0,0,0,0,0,0,0,0,0,0,0,0,0,0,0,0,0,0,0,0,0,0,0,0,0,0,0,0,0,0,0,0,0,0,0,0,0,0,0,0,0,0,0,0,0,0,0,0,0,0,0,0,0,0,0,0,0,0,0,0,0,0,0,0,0,0,0,0,0,0,0,0,0,0,0,0,0,0,0,0,0,0,0,0,0,0,0,0,0,0,0,0,0,0,0,0,0,0,0,0,0,0,0,0,0,0,0,0,0,0,0,0,0,0,0,0,0,0,0,0,0,0,0,0,0,0,0,0,0,0,0,0,0,0,0,0,0,0,0,0,0,0,0,0,0,0,0,0,0,0,0,0,0,0,0,0,0,0,0,0,0,0,0,0,0,0,0,0,0,0,0,0,0,0,0,0,0,0,0,0,
0,0,0,0,0,0,0,0,0,0,0,0,0,0,0,0,0,0,0,0,0,0,0,0,0,0,0,0,0,0,0,0,0,0,0,0,0,0,0,0,0,0,0,0,0,0,0,0,0,0,0,0,0,0,0,0,0,0,0,0,0,0,0,0,0,0,0,0,0,0,0,0,0,0,0,0,0,0,0,0,0,0,0,0,0,0,0,0,0,0,0,0,0,0,0,0,0,0,0,0,0,0,0,0,0,0,0,0,0,0,0,0,0,0,0,0,0,0,0,0,0,0,0,0,0,0,0,0,0,0,0,0,0,0,0,0,0,0,0,0,0,0,0,0,0,0,0,0,0,0,0,0,0,0,0,0,0,0,0,0,0,0,0,0,0,0,0,0,0,0,0,0,0,0,0,0,0,0,0,0,0,0,0,0,0,0,0,0,0,0,0,0,0,0,0,0,0,0,0,0,0,0,0,0,0,0,0,0,0,0,0,0,0,0,0,0,0,0,0,0,0,0,0,0,0,0,0,0,0,0,0,0,0,0,0,0,0,0,0,0,0,0,0,0,0,0,0,0,0,0,
0,0,0,0,0,0,0,0,0,0,0,0,0,0,0,0,0,0,0,0,0,0,0,0,0,0,0,0,0,0,0,0,0,0,0,0,0,0,0,0,0,0,0,0,0,0,0,0,0,0,0,0,0,0,0,0,0,0,0,0,0,0,0,0,0,0,0,0,0,0,0,0,0,0,0,0,0,0,0,0,0,0,0,0,0,0,0,0,0,0,0,0,0,0,0,0,0,0,0,0,0,0,0,0,0,0,0,0,0,0,0,0,0,0,0,0,0,0,0,0,0,0,0,0,0,0,0,0,0,0,0,0,0,0,0,0,0,0,0,0,0,0,0,0,0,0,0,0,0,0,0,0,0,0,0,0,0,0,0,0,0,0,0,0,0,0,0,0,0,0,0,0,0,0,0,0,0,0,0,0,0,0,0,0,0,0,0,0,0,0,0,0,0,0,0,0,0,0,0,0,0,0,0,0,0,0,0,0,0,0,0,0,0,0,0,0,0,0,0,0,0,0,0,0,0,0,0,0,0,0,0,0,0,0,0,0,0,0,0,0,0,0,0,0,0,0,0,0,0,0,
0,0,0,0,0,0,0,0,0,0,0,0,0,0,0,0,0,0,0,0,0,0,0,0,0,0,0,0,0,0,0,0,0,0,0,0,0,0,0,0,0,0,0,0,0,0,0,0,0,0,0,0,0,0,0,0,0,0,0,0,0,0,0,0,0,0,0,0,0,0,0,0,0,0,0,0,0,0,0,0,0,0,0,0,0,0,0,0,0,0,0,0,0,0,0,0,0,0,0,0,0,0,0,0,0,0,0,0,0,0,0,0,0,0,0,0,0,0,0,0,0,0,0,0,0,0,0,0,0,0,0,0,0,0,0,0,0,0,0,0,0,0,0,0,0,0,0,0,0,0,0,0,0,0,0,0,0,0,0,0,0,0,0,0,0,0,0,0,0,0,0,0,0,0,0,0,0,0,0,0,0,0,0,0,0,0,0,0,0,0,0,0,0,0,0,0,0,0,0,0,0,0,0,0,0,0,0,0,0,0,0,0,0,0,0,0,0,0,0,0,0,0,0,0,0,0,0,0,0,0,0,0,0,0,0,0,0,0,0,0,0,0,0,0,0,0,0,0,0,0,
0,0,0,0,0,0,0,0,0,0,0,0,0,0,0,0,0,0,0,0,0,0,0,0,0,0,0,0,0,0,0,0,0,0,0,0,0,0,0,0,0,0,0,0,0,0,0,0,0,0,0,0,0,0,0,0,0,0,0,0,0,0,0,0,0,0,0,0,0,0,0,0,0,0,0,0,0,0,0,0,0,0,0,0,0,0,0,0,0,0,0,0,0,0,0,0,0,0,0,0,0,0,0,0,0,0,0,0,0,0,0,0,0,0,0,0,0,0,0,0,0,0,0,0,0,0,0,0,0,0,0,0,0,0,0,0,0,0,0,0,0,0,0,0,0,0,0,0,0,0,0,0,0,0,0,0,0,0,0,0,0,0,0,0,0,0,0,0,0,0,0,0,0,0,0,0,0,0,0,0,0,0,0,0,0,0,0,0,0,0,0,0,0,0,0,0,0,0,0,0,0,0,0,0,0,0,0,0,0,0,0,0,0,0,0,0,0,0,0,0,0,0,0,0,0,0,0,0,0,0,0,0,0,0,0,0,0,0,0,0,0,0,0,0,0,0,0,0,0,0,
0,0,0,0,0,0,0,0,0,0,0,0,0,0,0,0,0,0,0,0,0,0,0,0,0,0,0,0,0,0,0,0,0,0,0,0,0,0,0,0,0,0,0,0,0,0,0,0,0,0,0,0,0,0,0,0,0,0,0,0,0,0,0,0,0,0,0,0,0,0,0,0,0,0,0,0,0,0,0,0,0,0,0,0,0,0,0,0,0,0,0,0,0,0,0,0,0,0,0,0,0,0,0,0,0,0,0,0,0,0,0,0,0,0,0,0,0,0,0,0,0,0,0,0,0,0,0,0,0,0,0,0,0,0,0,0,0,0,0,0,0,0,0,0,0,0,0,0,0,0,0,0,0,0,0,0,0,0,0,0,0,0,0,0,0,0,0,0,0,0,0,0,0,0,0,0,0,0,0,0,0,0,0,0,0,0,0,0,0,0,0,0,0,0,0,0,0,0,0,0,0,0,0,0,0,0,0,0,0,0,0,0,0,0,0,0,0,0,0,0,0,0,0,0,0,0,0,0,0,0,0,0,0,0,0,0,0,0,0,0,0,0,0,0,0,0,0,0,0,0,
0,0,0,0,0,0,0,0,0,0,0,0,0,0,0,0,0,0,0,0,0,0,0,0,0,0,0,0,0,0,0,0,0,0,0,0,0,0,0,0,0,0,0,0,0,0,0,0,0,0,0,0,0,0,0,0,0,0,0,0,0,0,0,0,0,0,0,0,0,0,0,0,0,0,0,0,0,0,0,0,0,0,0,0,0,0,0,0,0,0,0,0,0,0,0,0,0,0,0,0,0,0,0,0,0,0,0,0,0,0,0,0,0,0,0,0,0,0,0,0,0,0,0,0,0,0,0,0,0,0,0,0,0,0,0,0,0,0,0,0,0,0,0,0,0,0,0,0,0,0,0,0,0,0,0,0,0,0,0,0,0,0,0,0,0,0,0,0,0,0,0,0,0,0,0,0,0,0,0,0,0,0,0,0,0,0,0,0,0,0,0,0,0,0,0,0,0,0,0,0,0,0,0,0,0,0,0,0,0,0,0,0,0,0,0,0,0,0,0,0,0,0,0,0,0,0,0,0,0,0,0,0,0,0,0,0,0,0,0,0,0,0,0,0,0,0,0,0,0,0,
0,0,0,0,0,0,0,0,0,0,0,0,0,0,0,0,0,0,0,0,0,0,0,0,0,0,0,0,0,0,0,0,0,0,0,0,0,0,0,0,0,0,0,0,0,0,0,0,0,0,0,0,0,0,0,0,0,0,0,0,0,0,0,0,0,0,0,0,0,0,0,0,0,0,0,0,0,0,0,0,0,0,0,0,0,0,0,0,0,0,0,0,0,0,0,0,0,0,0,0,0,0,0,0,0,0,0,0,0,0,0,0,0,0,0,0,0,0,0,0,0,0,0,0,0,0,0,0,0,0,0,0,0,0,0,0,0,0,0,0,0,0,0,0,0,0,0,0,0,0,0,0,0,0,0,0,0,0,0,0,0,0,0,0,0,0,0,0,0,0,0,0,0,0,0,0,0,0,0,0,0,0,0,0,0,0,0,0,0,0,0,0,0,0,0,0,0,0,0,0,0,0,0,0,0,0,0,0,0,0,0,0,0,0,0,0,0,0,0,0,0,0,0,0,0,0,0,0,0,0,0,0,0,0,0,0,0,0,0,0,0,0,0,0,0,0,0,0,0,0,
0,0,0,0,0,0,0,0,0,0,0,0,0,0,0,0,0,0,0,0,0,0,0,0,0,0,0,0,0,0,0,0,0,0,0,0,0,0,0,0,0,0,0,0,0,0,0,0,0,0,0,0,0,0,0,0,0,0,0,0,0,0,0,0,0,0,0,0,0,0,0,0,0,0,0,0,0,0,0,0,0,0,0,0,0,0,0,0,0,0,0,0,0,0,0,0,0,0,0,0,0,0,0,0,0,0,0,0,0,0,0,0,0,0,0,0,0,0,0,0,0,0,0,0,0,0,0,0,0,0,0,0,0,0,0,0,0,0,0,0,0,0,0,0,0,0,0,0,0,0,0,0,0,0,0,0,0,0,0,0,0,0,0,0,0,0,0,0,0,0,0,0,0,0,0,0,0,0,0,0,0,0,0,0,0,0,0,0,0,0,0,0,0,0,0,0,0,0,0,0,0,0,0,0,0,0,0,0,0,0,0,0,0,0,0,0,0,0,0,0,0,0,0,0,0,0,0,0,0,0,0,0,0,0,0,0,0,0,0,0,0,0,0,0,0,0,0,0,0,0,
0,0,0,0,0,0,0,0,0,0,0,0,0,0,0,0,0,0,0,0,0,0,0,0,0,0,0,0,0,0,0,0,0,0,0,0,0,0,0,0,0,0,0,0,0,0,0,0,0,0,0,0,0,0,0,0,0,0,0,0,0,0,0,0,0,0,0,0,0,0,0,0,0,0,0,0,0,0,0,0,0,0,0,0,0,0,0,0,0,0,0,0,0,0,0,0,0,0,0,0,0,0,0,0,0,0,0,0,0,0,0,0,0,0,0,0,0,0,0,0,0,0,0,0,0,0,0,0,0,0,0,0,0,0,0,0,0,0,0,0,0,0,0,0,0,0,0,0,0,0,0,0,0,0,0,0,0,0,0,0,0,0,0,0,0,0,0,0,0,0,0,0,0,0,0,0,0,0,0,0,0,0,0,0,0,0,0,0,0,0,0,0,0,0,0,0,0,0,0,0,0,0,0,0,0,0,0,0,0,0,0,0,0,0,0,0,0,0,0,0,0,0,0,0,0,0,0,0,0,0,0,0,0,0,0,0,0,0,0,0,0,0,0,0,0,0,0,0,0,0,
0,0,0,0,0,0,0,0,0,0,0,0,0,0,0,0,0,0,0,0,0,0,0,0,0,0,0,0,0,0,0,0,0,0,0,0,0,0,0,0,0,0,0,0,0,0,0,0,0,0,0,0,0,0,0,0,0,0,0,0,0,0,0,0,0,0,0,0,0,0,0,0,0,0,0,0,0,0,0,0,0,0,0,0,0,0,0,0,0,0,0,0,0,0,0,0,0,0,0,0,0,0,0,0,0,0,0,0,0,0,0,0,0,0,0,0,0,0,0,0,0,0,0,0,0,0,0,0,0,0,0,0,0,0,0,0,0,0,0,0,0,0,0,0,0,0,0,0,0,0,0,0,0,0,0,0,0,0,0,0,0,0,0,0,0,0,0,0,0,0,0,0,0,0,0,0,0,0,0,0,0,0,0,0,0,0,0,0,0,0,0,0,0,0,0,0,0,0,0,0,0,0,0,0,0,0,0,0,0,0,0,0,0,0,0,0,0,0,0,0,0,0,0,0,0,0,0,0,0,0,0,0,0,0,0,0,0,0,0,0,0,0,0,0,0,0,0,0,0,0,
0,0,0,0,0,0,0,0,0,0,0,0,0,0,0,0,0,0,0,0,0,0,0,0,0,0,0,0,0,0,0,0,0,0,0,0,0,0,0,0,0,0,0,0,0,0,0,0,0,0,0,0,0,0,0,0,0,0,0,0,0,0,0,0,0,0,0,0,0,0,0,0,0,0,0,0,0,0,0,0,0,0,0,0,0,0,0,0,0,0,0,0,0,0,0,0,0,0,0,0,0,0,0,0,0,0,0,0,0,0,0,0,0,0,0,0,0,0,0,0,0,0,0,0,0,0,0,0,0,0,0,0,0,0,0,0,0,0,0,0,0,0,0,0,0,0,0,0,0,0,0,0,0,0,0,0,0,0,0,0,0,0,0,0,0,0,0,0,0,0,0,0,0,0,0,0,0,0,0,0,0,0,0,0,0,0,0,0,0,0,0,0,0,0,0,0,0,0,0,0,0,0,0,0,0,0,0,0,0,0,0,0,0,0,0,0,0,0,0,0,0,0,0,0,0,0,0,0,0,0,0,0,0,0,0,0,0,0,0,0,0,0,0,0,0,0,0,0,0,0,
0,0,0,0,0,0,0,0,0,0,0,0,0,0,0,0,0,0,0,0,0,0,0,0,0,0,0,0,0,0,0,0,0,0,0,0,0,0,0,0,0,0,0,0,0,0,0,0,0,0,0,0,0,0,0,0,0,0,0,0,0,0,0,0,0,0,0,0,0,0,0,0,0,0,0,0,0,0,0,0,0,0,0,0,0,0,0,0,0,0,0,0,0,0,0,0,0,0,0,0,0,0,0,0,0,0,0,0,0,0,0,0,0,0,0,0,0,0,0,0,0,0,0,0,0,0,0,0,0,0,0,0,0,0,0,0,0,0,0,0,0,0,0,0,0,0,0,0,0,0,0,0,0,0,0,0,0,0,0,0,0,0,0,0,0,0,0,0,0,0,0,0,0,0,0,0,0,0,0,0,0,0,0,0,0,0,0,0,0,0,0,0,0,0,0,0,0,0,0,0,0,0,0,0,0,0,0,0,0,0,0,0,0,0,0,0,0,0,0,0,0,0,0,0,0,0,0,0,0,0,0,0,0,0,0,0,0,0,0,0,0,0,0,0,0,0,0,0,0,0,
0,0,0,0,0,0,0,0,0,0,0,0,0,0,0,0,0,0,0,0,0,0,0,0,0,0,0,0,0,0,0,0,0,0,0,0,0,0,0,0,0,0,0,0,0,0,0,0,0,0,0,0,0,0,0,0,0,0,0,0,0,0,0,0,0,0,0,0,0,0,0,0,0,0,0,0,0,0,0,0,0,0,0,0,0,0,0,0,0,0,0,0,0,0,0,0,0,0,0,0,0,0,0,0,0,0,0,0,0,0,0,0,0,0,0,0,0,0,0,0,0,0,0,0,0,0,0,0,0,0,0,0,0,0,0,0,0,0,0,0,0,0,0,0,0,0,0,0,0,0,0,0,0,0,0,0,0,0,0,0,0,0,0,0,0,0,0,0,0,0,0,0,0,0,0,0,0,0,0,0,0,0,0,0,0,0,0,0,0,0,0,0,0,0,0,0,0,0,0,0,0,0,0,0,0,0,0,0,0,0,0,0,0,0,0,0,0,0,0,0,0,0,0,0,0,0,0,0,0,0,0,0,0,0,0,0,0,0,0,0,0,0,0,0,0,0,0,0,0,0,
0,0,0,0,0,0,0,0,0,0,0,0,0,0,0,0,0,0,0,0,0,0,0,0,0,0,0,0,0,0,0,0,0,0,0,0,0,0,0,0,0,0,0,0,0,0,0,0,0,0,0,0,0,0,0,0,0,0,0,0,0,0,0,0,0,0,0,0,0,0,0,0,0,0,0,0,0,0,0,0,0,0,0,0,0,0,0,0,0,0,0,0,0,0,0,0,0,0,0,0,0,0,0,0,0,0,0,0,0,0,0,0,0,0,0,0,0,0,0,0,0,0,0,0,0,0,0,0,0,0,0,0,0,0,0,0,0,0,0,0,0,0,0,0,0,0,0,0,0,0,0,0,0,0,0,0,0,0,0,0,0,0,0,0,0,0,0,0,0,0,0,0,0,0,0,0,0,0,0,0,0,0,0,0,0,0,0,0,0,0,0,0,0,0,0,0,0,0,0,0,0,0,0,0,0,0,0,0,0,0,0,0,0,0,0,0,0,0,0,0,0,0,0,0,0,0,0,0,0,0,0,0,0,0,0,0,0,0,0,0,0,0,0,0,0,0,0,0,0,0,
0,0,0,0,0,0,0,0,0,0,0,0,0,0,0,0,0,0,0,0,0,0,0,0,0,0,0,0,0,0,0,0,0,0,0,0,0,0,0,0,0,0,0,0,0,0,0,0,0,0,0,0,0,0,0,0,0,0,0,0,0,0,0,0,0,0,0,0,0,0,0,0,0,0,0,0,0,0,0,0,0,0,0,0,0,0,0,0,0,0,0,0,0,0,0,0,0,0,0,0,0,0,0,0,0,0,0,0,0,0,0,0,0,0,0,0,0,0,0,0,0,0,0,0,0,0,0,0,0,0,0,0,0,0,0,0,0,0,0,0,0,0,0,0,0,0,0,0,0,0,0,0,0,0,0,0,0,0,0,0,0,0,0,0,0,0,0,0,0,0,0,0,0,0,0,0,0,0,0,0,0,0,0,0,0,0,0,0,0,0,0,0,0,0,0,0,0,0,0,0,0,0,0,0,0,0,0,0,0,0,0,0,0,0,0,0,0,0,0,0,0,0,0,0,0,0,0,0,0,0,0,0,0,0,0,0,0,0,0,0,0,0,0,0,0,0,0,0,0,0,
0,0,0,0,0,0,0,0,0,0,0,0,0,0,0,0,0,0,0,0,0,0,0,0,0,0,0,0,0,0,0,0,0,0,0,0,0,0,0,0,0,0,0,0,0,0,0,0,0,0,0,0,0,0,0,0,0,0,0,0,0,0,0,0,0,0,0,0,0,0,0,0,0,0,0,0,0,0,0,0,0,0,0,0,0,0,0,0,0,0,0,0,0,0,0,0,0,0,0,0,0,0,0,0,0,0,0,0,0,0,0,0,0,0,0,0,0,0,0,0,0,0,0,0,0,0,0,0,0,0,0,0,0,0,0,0,0,0,0,0,0,0,0,0,0,0,0,0,0,0,0,0,0,0,0,0,0,0,0,0,0,0,0,0,0,0,0,0,0,0,0,0,0,0,0,0,0,0,0,0,0,0,0,0,0,0,0,0,0,0,0,0,0,0,0,0,0,0,0,0,0,0,0,0,0,0,0,0,0,0,0,0,0,0,0,0,0,0,0,0,0,0,0,0,0,0,0,0,0,0,0,0,0,0,0,0,0,0,0,0,0,0,0,0,0,0,0,0,0,0,
0,0,0,0,0,0,0,0,0,0,0,0,0,0,0,0,0,0,0,0,0,0,0,0,0,0,0,0,0,0,0,0,0,0,0,0,0,0,0,0,0,0,0,0,0,0,0,0,0,0,0,0,0,0,0,0,0,0,0,0,0,0,0,0,0,0,0,0,0,0,0,0,0,0,0,0,0,0,0,0,0,0,0,0,0,0,0,0,0,0,0,0,0,0,0,0,0,0,0,0,0,0,0,0,0,0,0,0,0,0,0,0,0,0,0,0,0,0,0,0,0,0,0,0,0,0,0,0,0,0,0,0,0,0,0,0,0,0,0,0,0,0,0,0,0,0,0,0,0,0,0,0,0,0,0,0,0,0,0,0,0,0,0,0,0,0,0,0,0,0,0,0,0,0,0,0,0,0,0,0,0,0,0,0,0,0,0,0,0,0,0,0,0,0,0,0,0,0,0,0,0,0,0,0,0,0,0,0,0,0,0,0,0,0,0,0,0,0,0,0,0,0,0,0,0,0,0,0,0,0,0,0,0,0,0,0,0,0,0,0,0,0,0,0,0,0,0,0,0,0,
0,0,0,0,0,0,0,0,0,0,0,0,0,0,0,0,0,0,0,0,0,0,0,0,0,0,0,0,0,0,0,0,0,0,0,0,0,0,0,0,0,0,0,0,0,0,0,0,0,0,0,0,0,0,0,0,0,0,0,0,0,0,0,0,0,0,0,0,0,0,0,0,0,0,0,0,0,0,0,0,0,0,0,0,0,0,0,0,0,0,0,0,0,0,0,0,0,0,0,0,0,0,0,0,0,0,0,0,0,0,0,0,0,0,0,0,0,0,0,0,0,0,0,0,0,0,0,0,0,0,0,0,0,0,0,0,0,0,0,0,0,0,0,0,0,0,0,0,0,0,0,0,0,0,0,0,0,0,0,0,0,0,0,0,0,0,0,0,0,0,0,0,0,0,0,0,0,0,0,0,0,0,0,0,0,0,0,0,0,0,0,0,0,0,0,0,0,0,0,0,0,0,0,0,0,0,0,0,0,0,0,0,0,0,0,0,0,0,0,0,0,0,0,0,0,0,0,0,0,0,0,0,0,0,0,0,0,0,0,0,0,0,0,0,0,0,0,0,0,0,
0,0,0,0,0,0,0,0,0,0,0,0,0,0,0,0,0,0,0,0,0,0,0,0,0,0,0,0,0,0,0,0,0,0,0,0,0,0,0,0,0,0,0,0,0,0,0,0,0,0,0,0,0,0,0,0,0,0,0,0,0,0,0,0,0,0,0,0,0,0,0,0,0,0,0,0,0,0,0,0,0,0,0,0,0,0,0,0,0,0,0,0,0,0,0,0,0,0,0,0,0,0,0,0,0,0,0,0,0,0,0,0,0,0,0,0,0,0,0,0,0,0,0,0,0,0,0,0,0,0,0,0,0,0,0,0,0,0,0,0,0,0,0,0,0,0,0,0,0,0,0,0,0,0,0,0,0,0,0,0,0,0,0,0,0,0,0,0,0,0,0,0,0,0,0,0,0,0,0,0,0,0,0,0,0,0,0,0,0,0,0,0,0,0,0,0,0,0,0,0,0,0,0,0,0,0,0,0,0,0,0,0,0,0,0,0,0,0,0,0,0,0,0,0,0,0,0,0,0,0,0,0,0,0,0,0,0,0,0,0,0,0,0,0,0,0,0,0,0,0,
0,0,0,0,0,0,0,0,0,0,0,0,0,0,0,0,0,0,0,0,0,0,0,0,0,0,0,0,0,0,0,0,0,0,0,0,0,0,0,0,0,0,0,0,0,0,0,0,0,0,0,0,0,0,0,0,0,0,0,0,0,0,0,0,0,0,0,0,0,0,0,0,0,0,0,0,0,0,0,0,0,0,0,0,0,0,0,0,0,0,0,0,0,0,0,0,0,0,0,0,0,0,0,0,0,0,0,0,0,0,0,0,0,0,0,0,0,0,0,0,0,0,0,0,0,0,0,0,0,0,0,0,0,0,0,0,0,0,0,0,0,0,0,0,0,0,0,0,0,0,0,0,0,0,0,0,0,0,0,0,0,0,0,0,0,0,0,0,0,0,0,0,0,0,0,0,0,0,0,0,0,0,0,0,0,0,0,0,0,0,0,0,0,0,0,0,0,0,0,0,0,0,0,0,0,0,0,0,0,0,0,0,0,0,0,0,0,0,0,0,0,0,0,0,0,0,0,0,0,0,0,0,0,0,0,0,0,0,0,0,0,0,0,0,0,0,0,0,0,0,
0,0,0,0,0,0,0,0,0,0,0,0,0,0,0,0,0,0,0,0,0,0,0,0,0,0,0,0,0,0,0,0,0,0,0,0,0,0,0,0,0,0,0,0,0,0,0,0,0,0,0,0,0,0,0,0,0,0,0,0,0,0,0,0,0,0,0,0,0,0,0,0,0,0,0,0,0,0,0,0,0,0,0,0,0,0,0,0,0,0,0,0,0,0,0,0,0,0,0,0,0,0,0,0,0,0,0,0,0,0,0,0,0,0,0,0,0,0,0,0,0,0,0,0,0,0,0,0,0,0,0,0,0,0,0,0,0,0,0,0,0,0,0,0,0,0,0,0,0,0,0,0,0,0,0,0,0,0,0,0,0,0,0,0,0,0,0,0,0,0,0,0,0,0,0,0,0,0,0,0,0,0,0,0,0,0,0,0,0,0,0,0,0,0,0,0,0,0,0,0,0,0,0,0,0,0,0,0,0,0,0,0,0,0,0,0,0,0,0,0,0,0,0,0,0,0,0,0,0,0,0,0,0,0,0,0,0,0,0,0,0,0,0,0,0,0,0,0,0,0,
0,0,0,0,0,0,0,0,0,0,0,0,0,0,0,0,0,0,0,0,0,0,0,0,0,0,0,0,0,0,0,0,0,0,0,0,0,0,0,0,0,0,0,0,0,0,0,0,0,0,0,0,0,0,0,0,0,0,0,0,0,0,0,0,0,0,0,0,0,0,0,0,0,0,0,0,0,0,0,0,0,0,0,0,0,0,0,0,0,0,0,0,0,0,0,0,0,0,0,0,0,0,0,0,0,0,0,0,0,0,0,0,0,0,0,0,0,0,0,0,0,0,0,0,0,0,0,0,0,0,0,0,0,0,0,0,0,0,0,0,0,0,0,0,0,0,0,0,0,0,0,0,0,0,0,0,0,0,0,0,0,0,0,0,0,0,0,0,0,0,0,0,0,0,0,0,0,0,0,0,0,0,0,0,0,0,0,0,0,0,0,0,0,0,0,0,0,0,0,0,0,0,0,0,0,0,0,0,0,0,0,0,0,0,0,0,0,0,0,0,0,0,0,0,0,0,0,0,0,0,0,0,0,0,0,0,0,0,0,0,0,0,0,0,0,0,0,0,0,0,
0,0,0,0,0,0,0,0,0,0,0,0,0,0,0,0,0,0,0,0,0,0,0,0,0,0,0,0,0,0,0,0,0,0,0,0,0,0,0,0,0,0,0,0,0,0,0,0,0,0,0,0,0,0,0,0,0,0,0,0,0,0,0,0,0,0,0,0,0,0,0,0,0,0,0,0,0,0,0,0,0,0,0,0,0,0,0,0,0,0,0,0,0,0,0,0,0,0,0,0,0,0,0,0,0,0,0,0,0,0,0,0,0,0,0,0,0,0,0,0,0,0,0,0,0,0,0,0,0,0,0,0,0,0,0,0,0,0,0,0,0,0,0,0,0,0,0,0,0,0,0,0,0,0,0,0,0,0,0,0,0,0,0,0,0,0,0,0,0,0,0,0,0,0,0,0,0,0,0,0,0,0,0,0,0,0,0,0,0,0,0,0,0,0,0,0,0,0,0,0,0,0,0,0,0,0,0,0,0,0,0,0,0,0,0,0,0,0,0,0,0,0,0,0,0,0,0,0,0,0,0,0,0,0,0,0,0,0,0,0,0,0,0,0,0,0,0,0,0,0,
0,0,0,0,0,0,0,0,0,0,0,0,0,0,0,0,0,0,0,0,0,0,0,0,0,0,0,0,0,0,0,0,0,0,0,0,0,0,0,0,0,0,0,0,0,0,0,0,0,0,0,0,0,0,0,0,0,0,0,0,0,0,0,0,0,0,0,0,0,0,0,0,0,0,0,0,0,0,0,0,0,0,0,0,0,0,0,0,0,0,0,0,0,0,0,0,0,0,0,0,0,0,0,0,0,0,0,0,0,0,0,0,0,0,0,0,0,0,0,0,0,0,0,0,0,0,0,0,0,0,0,0,0,0,0,0,0,0,0,0,0,0,0,0,0,0,0,0,0,0,0,0,0,0,0,0,0,0,0,0,0,0,0,0,0,0,0,0,0,0,0,0,0,0,0,0,0,0,0,0,0,0,0,0,0,0,0,0,0,0,0,0,0,0,0,0,0,0,0,0,0,0,0,0,0,0,0,0,0,0,0,0,0,0,0,0,0,0,0,0,0,0,0,0,0,0,0,0,0,0,0,0,0,0,0,0,0,0,0,0,0,0,0,0,0,0,0,0,0,0,
0,0,0,0,0,0,0,0,0,0,0,0,0,0,0,0,0,0,0,0,0,0,0,0,0,0,0,0,0,0,0,0,0,0,0,0,0,0,0,0,0,0,0,0,0,0,0,0,0,0,0,0,0,0,0,0,0,0,0,0,0,0,0,0,0,0,0,0,0,0,0,0,0,0,0,0,0,0,0,0,0,0,0,0,0,0,0,0,0,0,0,0,0,0,0,0,0,0,0,0,0,0,0,0,0,0,0,0,0,0,0,0,0,0,0,0,0,0,0,0,0,0,0,0,0,0,0,0,0,0,0,0,0,0,0,0,0,0,0,0,0,0,0,0,0,0,0,0,0,0,0,0,0,0,0,0,0,0,0,0,0,0,0,0,0,0,0,0,0,0,0,0,0,0,0,0,0,0,0,0,0,0,0,0,0,0,0,0,0,0,0,0,0,0,0,0,0,0,0,0,0,0,0,0,0,0,0,0,0,0,0,0,0,0,0,0,0,0,0,0,0,0,0,0,0,0,0,0,0,0,0,0,0,0,0,0,0,0,0,0,0,0,0,0,0,0,0,0,0,0,
0,0,0,0,0,0,0,0,0,0,0,0,0,0,0,0,0,0,0,0,0,0,0,0,0,0,0,0,0,0,0,0,0,0,0,0,0,0,0,0,0,0,0,0,0,0,0,0,0,0,0,0,0,0,0,0,0,0,0,0,0,0,0,0,0,0,0,0,0,0,0,0,0,0,0,0,0,0,0,0,0,0,0,0,0,0,0,0,0,0,0,0,0,0,0,0,0,0,0,0,0,0,0,0,0,0,0,0,0,0,0,0,0,0,0,0,0,0,0,0,0,0,0,0,0,0,0,0,0,0,0,0,0,0,0,0,0,0,0,0,0,0,0,0,0,0,0,0,0,0,0,0,0,0,0,0,0,0,0,0,0,0,0,0,0,0,0,0,0,0,0,0,0,0,0,0,0,0,0,0,0,0,0,0,0,0,0,0,0,0,0,0,0,0,0,0,0,0,0,0,0,0,0,0,0,0,0,0,0,0,0,0,0,0,0,0,0,0,0,0,0,0,0,0,0,0,0,0,0,0,0,0,0,0,0,0,0,0,0,0,0,0,0,0,0,0,0,0,0,0,
0,0,0,0,0,0,0,0,0,0,0,0,0,0,0,0,0,0,0,0,0,0,0,0,0,0,0,0,0,0,0,0,0,0,0,0,0,0,0,0,0,0,0,0,0,0,0,0,0,0,0,0,0,0,0,0,0,0,0,0,0,0,0,0,0,0,0,0,0,0,0,0,0,0,0,0,0,0,0,0,0,0,0,0,0,0,0,0,0,0,0,0,0,0,0,0,0,0,0,0,0,0,0,0,0,0,0,0,0,0,0,0,0,0,0,0,0,0,0,0,0,0,0,0,0,0,0,0,0,0,0,0,0,0,0,0,0,0,0,0,0,0,0,0,0,0,0,0,0,0,0,0,0,0,0,0,0,0,0,0,0,0,0,0,0,0,0,0,0,0,0,0,0,0,0,0,0,0,0,0,0,0,0,0,0,0,0,0,0,0,0,0,0,0,0,0,0,0,0,0,0,0,0,0,0,0,0,0,0,0,0,0,0,0,0,0,0,0,0,0,0,0,0,0,0,0,0,0,0,0,0,0,0,0,0,0,0,0,0,0,0,0,0,0,0,0,0,0,0,0,
0,0,0,0,0,0,0,0,0,0,0,0,0,0,0,0,0,0,0,0,0,0,0,0,0,0,0,0,0,0,0,0,0,0,0,0,0,0,0,0,0,0,0,0,0,0,0,0,0,0,0,0,0,0,0,0,0,0,0,0,0,0,0,0,0,0,0,0,0,0,0,0,0,0,0,0,0,0,0,0,0,0,0,0,0,0,0,0,0,0,0,0,0,0,0,0,0,0,0,0,0,0,0,0,0,0,0,0,0,0,0,0,0,0,0,0,0,0,0,0,0,0,0,0,0,0,0,0,0,0,0,0,0,0,0,0,0,0,0,0,0,0,0,0,0,0,0,0,0,0,0,0,0,0,0,0,0,0,0,0,0,0,0,0,0,0,0,0,0,0,0,0,0,0,0,0,0,0,0,0,0,0,0,0,0,0,0,0,0,0,0,0,0,0,0,0,0,0,0,0,0,0,0,0,0,0,0,0,0,0,0,0,0,0,0,0,0,0,0,0,0,0,0,0,0,0,0,0,0,0,0,0,0,0,0,0,0,0,0,0,0,0,0,0,0,0,0,0,0,0,
0,0,0,0,0,0,0,0,0,0,0,0,0,0,0,0,0,0,0,0,0,0,0,0,0,0,0,0,0,0,0,0,0,0,0,0,0,0,0,0,0,0,0,0,0,0,0,0,0,0,0,0,0,0,0,0,0,0,0,0,0,0,0,0,0,0,0,0,0,0,0,0,0,0,0,0,0,0,0,0,0,0,0,0,0,0,0,0,0,0,0,0,0,0,0,0,0,0,0,0,0,0,0,0,0,0,0,0,0,0,0,0,0,0,0,0,0,0,0,0,0,0,0,0,0,0,0,0,0,0,0,0,0,0,0,0,0,0,0,0,0,0,0,0,0,0,0,0,0,0,0,0,0,0,0,0,0,0,0,0,0,0,0,0,0,0,0,0,0,0,0,0,0,0,0,0,0,0,0,0,0,0,0,0,0,0,0,0,0,0,0,0,0,0,0,0,0,0,0,0,0,0,0,0,0,0,0,0,0,0,0,0,0,0,0,0,0,0,0,0,0,0,0,0,0,0,0,0,0,0,0,0,0,0,0,0,0,0,0,0,0,0,0,0,0,0,0,0,0,0,
0,0,0,0,0,0,0,0,0,0,0,0,0,1189,1190,1191,0,0,0,0,0,0,0,0,0,0,0,0,0,0,0,0,0,0,0,0,0,0,0,0,0,0,0,0,0,0,0,0,0,0,0,0,0,0,0,0,0,0,0,0,0,0,0,0,0,0,0,0,0,0,0,0,0,0,0,0,0,0,0,0,0,0,0,0,0,0,0,0,0,0,0,0,0,0,0,0,0,0,0,0,0,0,0,0,0,0,0,0,0,0,0,0,0,0,0,0,0,0,0,0,0,0,0,0,0,0,0,0,0,0,0,0,0,0,0,0,0,0,0,0,0,0,0,0,0,0,0,0,0,0,0,0,0,0,0,0,0,0,0,0,0,0,0,0,0,0,0,0,0,0,0,0,0,0,0,0,0,0,0,0,0,0,0,0,0,0,0,0,0,0,0,0,0,0,0,0,0,0,0,0,0,0,0,0,0,0,0,0,0,0,0,0,0,0,0,0,0,0,0,0,0,0,0,0,0,0,0,0,0,0,0,0,0,0,0,0,0,0,0,0,0,0,0,0,0,0,0,0,0,0,
0,0,0,0,0,0,0,0,0,0,0,0,0,1253,1254,1255,0,0,0,0,0,0,0,0,0,0,0,0,0,0,0,0,0,0,0,0,0,0,0,0,0,0,0,0,0,0,0,0,0,0,0,0,0,0,0,0,0,0,0,0,0,0,0,0,0,0,0,0,0,0,0,0,0,0,0,0,0,0,0,0,0,0,0,0,0,0,0,0,0,0,0,0,0,0,0,0,0,0,0,0,0,0,0,0,0,0,0,0,0,0,0,0,0,0,0,0,0,0,0,0,0,0,0,0,0,0,0,0,0,0,0,0,0,0,0,0,0,0,0,0,0,0,0,0,0,0,0,0,0,0,0,0,0,0,0,0,0,0,0,0,0,0,0,0,0,0,0,0,0,0,0,0,0,0,0,0,0,0,0,0,0,0,0,0,0,0,0,0,0,0,0,0,0,0,0,0,0,0,0,0,0,0,0,0,0,0,0,0,0,0,0,0,0,0,0,0,0,0,0,0,0,0,0,0,0,0,0,0,0,0,0,0,0,0,0,0,0,0,0,0,0,0,0,0,0,0,0,0,0,0,
0,0,0,0,0,0,0,0,0,0,0,0,0,1317,1318,1319,0,0,0,0,0,0,0,0,0,0,0,0,0,0,0,0,0,0,0,0,0,0,0,0,0,0,0,0,0,0,0,0,0,0,0,0,0,0,0,0,0,0,0,0,0,0,0,0,0,0,0,0,0,0,0,0,0,0,0,0,0,0,0,0,0,0,0,0,0,0,0,0,0,0,0,0,0,0,0,0,0,0,0,0,0,0,0,0,0,0,0,0,0,0,0,0,0,0,0,0,0,0,0,0,0,0,0,0,0,0,0,0,0,0,0,0,0,0,0,0,0,0,0,0,0,0,0,0,0,0,0,0,0,0,0,0,0,0,0,0,0,0,0,0,0,0,0,0,0,0,0,0,0,0,0,0,0,0,0,0,0,0,0,0,0,0,0,0,0,0,0,0,0,0,0,0,0,0,0,0,0,0,0,0,0,0,0,0,0,0,0,0,0,0,0,0,0,0,0,0,0,0,0,0,0,0,0,0,0,0,0,0,0,0,0,0,0,0,0,0,0,0,0,0,0,0,0,0,0,0,0,0,0,0,
0,0,0,0,0,0,0,0,0,0,0,0,0,0,0,0,0,0,0,0,0,0,0,0,0,0,0,0,0,0,0,0,0,0,0,0,0,0,0,0,0,0,0,0,0,0,0,0,0,0,0,0,0,0,0,0,0,0,0,0,0,0,0,0,0,0,0,0,0,0,0,0,0,0,0,0,0,0,0,0,0,0,0,0,0,0,0,0,0,0,0,0,0,0,0,0,0,0,0,0,0,0,0,0,0,0,0,0,0,0,0,0,0,0,0,0,0,0,0,0,0,0,0,0,0,0,0,0,0,0,0,0,0,0,0,0,0,0,0,0,0,0,0,0,0,0,0,0,0,0,0,0,0,0,0,0,0,0,0,0,0,0,0,0,0,0,0,0,0,0,0,0,0,0,0,0,0,0,0,0,0,0,0,0,0,0,0,0,0,0,0,0,0,0,0,0,0,0,0,0,0,0,0,0,0,0,0,0,0,0,0,0,0,0,0,0,0,0,0,0,0,0,0,0,0,0,0,0,0,0,0,0,0,0,0,0,0,0,0,0,0,0,0,0,0,0,0,0,0,0,
0,0,0,0,0,0,0,0,0,0,0,0,0,0,0,0,0,0,0,0,0,0,0,0,0,0,0,0,0,0,0,0,0,0,0,0,0,0,0,0,0,0,0,0,0,0,0,0,0,0,0,0,0,0,0,0,0,0,0,0,0,0,0,0,0,0,0,0,0,0,0,0,0,0,0,0,0,0,0,0,0,0,0,0,0,0,0,0,0,0,0,0,0,0,0,0,0,0,0,0,0,0,0,0,0,0,0,0,0,0,0,0,0,0,0,0,0,0,0,0,0,0,0,0,0,0,0,0,0,0,0,0,0,0,0,0,0,0,0,0,0,0,0,0,0,0,0,0,0,0,0,0,0,0,0,0,0,0,0,0,0,0,0,0,0,0,0,0,0,0,0,0,0,0,0,0,0,0,0,0,0,0,0,0,0,0,0,0,0,0,0,0,0,0,0,0,0,0,0,0,0,0,0,0,0,0,0,0,0,0,0,0,0,0,0,0,0,0,0,0,0,0,0,0,0,0,0,0,0,0,0,0,0,0,0,0,0,0,0,0,0,0,0,0,0,0,0,0,0,0,
0,0,0,0,0,0,0,0,0,0,0,0,0,0,0,0,0,0,0,0,0,0,0,0,0,0,0,0,0,0,0,0,0,0,0,0,0,0,0,0,0,0,0,0,0,0,0,0,0,0,0,0,0,0,0,0,0,0,0,0,0,0,0,0,0,0,0,0,0,0,0,0,0,0,0,0,0,0,0,0,0,0,0,0,0,0,0,0,0,0,0,0,0,0,0,0,0,0,0,0,0,0,0,0,0,0,0,0,0,0,0,0,0,0,0,0,0,0,0,0,0,0,0,0,0,0,0,0,0,0,0,0,0,0,0,0,0,0,0,0,0,0,0,0,0,0,0,0,0,0,0,0,0,0,0,0,0,0,0,0,0,0,0,0,0,0,0,0,0,0,0,0,0,0,0,0,0,0,0,0,0,0,0,0,0,0,0,0,0,0,0,0,0,0,0,0,0,0,0,0,0,0,0,0,0,0,0,0,0,0,0,0,0,0,0,0,0,0,0,0,0,0,0,0,0,0,0,0,0,0,0,0,0,0,0,0,0,0,0,0,0,0,0,0,0,0,0,0,0,0,
0,0,0,0,0,0,0,0,0,0,0,0,0,0,0,0,0,0,0,0,0,0,0,0,0,0,0,0,0,0,0,0,0,0,0,0,0,0,0,0,0,0,0,0,0,0,0,0,0,0,0,0,0,0,0,0,0,0,0,0,0,0,0,0,0,0,0,0,0,0,0,0,0,0,0,0,0,0,0,0,0,0,0,0,0,0,0,0,0,0,0,0,0,0,0,0,0,0,0,0,0,0,0,0,0,0,0,0,0,0,0,0,0,0,0,0,0,0,0,0,0,0,0,0,0,0,0,0,0,0,0,0,0,0,0,0,0,0,0,0,0,0,0,0,0,0,0,0,0,0,0,0,0,0,0,0,0,0,0,0,0,0,0,0,0,0,0,0,0,0,0,0,0,0,0,0,0,0,0,0,0,0,0,0,0,0,0,0,0,0,0,0,0,0,0,0,0,0,0,0,0,0,0,0,0,0,0,0,0,0,0,0,0,0,0,0,0,0,0,0,0,0,0,0,0,0,0,0,0,0,0,0,0,0,0,0,0,0,0,0,0,0,0,0,0,0,0,0,0,0,
0,0,0,0,0,0,0,0,0,0,0,0,0,0,0,0,0,0,0,0,0,0,0,0,0,0,0,0,0,0,0,0,0,0,0,0,0,0,0,0,0,0,0,0,0,0,0,0,0,0,0,0,0,0,0,0,0,0,0,0,0,0,0,0,0,0,0,0,0,0,0,0,0,0,0,0,0,0,0,0,0,0,0,0,0,0,0,0,0,0,0,0,0,0,0,0,0,0,0,0,0,0,0,0,0,0,0,0,0,0,0,0,0,0,0,0,0,0,0,0,0,0,0,0,0,0,0,0,0,0,0,0,0,0,0,0,0,0,0,0,0,0,0,0,0,0,0,0,0,0,0,0,0,0,0,0,0,0,0,0,0,0,0,0,0,0,0,0,0,0,0,0,0,0,0,0,0,0,0,0,0,0,0,0,0,0,0,0,0,0,0,0,0,0,0,0,0,0,0,0,0,0,0,0,0,0,0,0,0,0,0,0,0,0,0,0,0,0,0,0,0,0,0,0,0,0,0,0,0,0,0,0,0,0,0,0,0,0,0,0,0,0,0,0,0,0,0,0,0,0,
0,0,0,0,0,0,0,0,0,0,0,0,0,0,0,0,0,0,0,0,0,0,0,0,0,0,0,0,0,0,0,0,0,0,0,0,0,0,0,0,0,0,0,0,0,0,0,0,0,0,0,0,0,0,0,0,0,0,0,0,0,0,0,0,0,0,0,0,0,0,0,0,0,0,0,0,0,0,0,0,0,0,0,0,0,0,0,0,0,0,0,0,0,0,0,0,0,0,0,0,0,0,0,0,0,0,0,0,0,0,0,0,0,0,0,0,0,0,0,0,0,0,0,0,0,0,0,0,0,0,0,0,0,0,0,0,0,0,0,0,0,0,0,0,0,0,0,0,0,0,0,0,0,0,0,0,0,0,0,0,0,0,0,0,0,0,0,0,0,0,0,0,0,0,0,0,0,0,0,0,0,0,0,0,0,0,0,0,0,0,0,0,0,0,0,0,0,0,0,0,0,0,0,0,0,0,0,0,0,0,0,0,0,0,0,0,0,0,0,0,0,0,0,0,0,0,0,0,0,0,0,0,0,0,0,0,0,0,0,0,0,0,0,0,0,0,0,0,0,0,
0,0,0,0,0,0,0,0,0,0,0,0,0,0,0,0,0,0,0,0,1637,1638,0,0,0,0,0,0,0,0,0,0,0,0,0,0,0,0,0,0,0,0,0,0,0,0,0,0,0,0,0,0,0,0,0,0,0,0,0,0,0,0,0,0,0,0,0,0,0,0,0,0,0,0,0,0,0,0,0,0,0,0,0,0,0,0,0,0,0,0,0,0,0,0,0,0,0,0,0,0,0,0,0,0,0,0,0,0,0,0,0,0,0,0,0,0,0,0,0,0,0,0,0,0,0,0,0,0,0,0,0,0,0,0,0,0,0,0,0,0,0,0,0,0,0,0,0,0,0,0,0,0,0,0,0,0,0,0,0,0,0,0,0,0,0,0,0,0,0,0,0,0,0,0,0,0,0,0,0,0,0,0,0,0,0,0,0,0,0,0,0,0,0,0,0,0,0,0,0,0,0,0,0,0,0,0,0,0,0,0,0,0,0,0,0,0,0,0,0,0,0,0,0,0,0,0,0,0,0,0,0,0,0,0,0,0,0,0,0,0,0,0,0,0,0,0,0,0,0,0,
0,0,0,0,0,0,0,0,0,0,0,0,0,0,0,0,0,0,0,0,1701,1702,0,0,0,0,0,0,0,0,0,0,0,0,0,0,0,0,0,0,0,0,0,0,0,0,0,0,0,0,0,0,0,0,0,0,0,0,0,0,0,0,0,0,0,0,0,0,0,0,0,0,0,0,0,0,0,0,0,0,0,0,0,0,0,0,0,0,0,0,0,0,0,0,0,0,0,0,0,0,0,0,0,0,0,0,0,0,0,0,0,0,0,0,0,0,0,0,0,0,0,0,0,0,0,0,0,0,0,0,0,0,0,0,0,0,0,0,0,0,0,0,0,0,0,0,0,0,0,0,0,0,0,0,0,0,0,0,0,0,0,0,0,0,0,0,0,0,0,0,0,0,0,0,0,0,0,0,0,0,0,0,0,0,0,0,0,0,0,0,0,0,0,0,0,0,0,0,0,0,0,0,0,0,0,0,0,0,0,0,0,0,0,0,0,0,0,0,0,0,0,0,0,0,0,0,0,0,0,0,0,0,0,0,0,0,0,0,0,0,0,0,0,0,0,0,0,0,0,0,
0,0,0,0,0,0,0,0,0,0,0,0,0,0,0,0,0,0,0,0,0,0,0,0,0,0,0,0,0,0,0,0,0,0,0,0,0,0,0,0,0,0,0,0,0,0,0,0,0,0,0,0,0,0,0,0,0,0,0,0,0,0,0,0,0,0,0,0,0,0,0,0,0,0,0,0,0,0,0,0,0,0,0,0,0,0,0,0,0,0,0,0,0,0,0,0,0,0,0,0,0,0,0,0,0,0,0,0,0,0,0,0,0,0,0,0,0,0,0,0,0,0,0,0,0,0,0,0,0,0,0,0,0,0,0,0,0,0,0,0,0,0,0,0,0,0,0,0,0,0,0,0,0,0,0,0,0,0,0,0,0,0,0,0,0,0,0,0,0,0,0,0,0,0,0,0,0,0,0,0,0,0,0,0,0,0,0,0,0,0,0,0,0,0,0,0,0,0,0,0,0,0,0,0,0,0,0,0,0,0,0,0,0,0,0,0,0,0,0,0,0,0,0,0,0,0,0,0,0,0,0,0,0,0,0,0,0,0,0,0,0,0,0,0,0,0,0,0,0,0,
0,0,0,0,0,0,0,0,0,0,0,0,0,0,0,0,0,0,0,0,0,0,0,0,0,0,0,0,0,0,0,0,0,0,0,0,0,0,0,0,0,0,0,0,0,0,0,0,0,0,0,0,0,0,0,0,0,0,0,0,0,0,0,0,0,0,0,0,0,0,0,0,0,0,0,0,0,0,0,0,0,0,0,0,0,0,0,0,0,0,0,0,0,0,0,0,0,0,0,0,0,0,0,0,0,0,0,0,0,0,0,0,0,0,0,0,0,0,0,0,0,0,0,0,0,0,0,0,0,0,0,0,0,0,0,0,0,0,0,0,0,0,0,0,0,0,0,0,0,0,0,0,0,0,0,0,0,0,0,0,0,0,0,0,0,0,0,0,0,0,0,0,0,0,0,0,0,0,0,0,0,0,0,0,0,0,0,0,0,0,0,0,0,0,0,0,0,0,0,0,0,0,0,0,0,0,0,0,0,0,0,0,0,0,0,0,0,0,0,0,0,0,0,0,0,0,0,0,0,0,0,0,0,0,0,0,0,0,0,0,0,0,0,0,0,0,0,0,0,0,
0,0,0,0,0,0,0,0,0,0,0,0,0,0,0,0,0,0,0,0,0,0,0,0,0,0,0,0,0,0,0,0,0,0,0,0,0,0,0,0,0,0,0,0,0,0,0,0,0,0,0,0,0,0,0,0,0,0,0,0,0,0,0,0,0,0,0,0,0,0,0,0,0,0,0,0,0,0,0,0,0,0,0,0,0,0,0,0,0,0,0,0,0,0,0,0,0,0,0,0,0,0,0,0,0,0,0,0,0,0,0,0,0,0,0,0,0,0,0,0,0,0,0,0,0,0,0,0,0,0,0,0,0,0,0,0,0,0,0,0,0,0,0,0,0,0,0,0,0,0,0,0,0,0,0,0,0,0,0,0,0,0,0,0,0,0,0,0,0,0,0,0,0,0,0,0,0,0,0,0,0,0,0,0,0,0,0,0,0,0,0,0,0,0,0,0,0,0,0,0,0,0,0,0,0,0,0,0,0,0,0,0,0,0,0,0,0,0,0,0,0,0,0,0,0,0,0,0,0,0,0,0,0,0,0,0,0,0,0,0,0,0,0,0,0,0,0,0,0,0,
0,0,0,0,0,0,0,0,0,0,0,0,0,0,0,0,0,0,0,0,0,0,0,0,0,0,0,0,0,0,0,0,0,0,0,0,0,0,0,0,0,0,0,0,0,0,0,0,1950,0,0,0,0,0,0,0,0,0,0,0,0,0,0,0,0,0,0,0,0,0,0,0,0,0,0,0,0,0,0,0,0,0,0,0,0,0,0,0,0,0,0,0,0,0,0,0,0,0,0,0,0,0,0,0,0,0,0,0,0,0,0,0,0,0,0,0,0,0,0,0,0,0,0,0,0,0,0,0,0,0,0,0,0,0,0,0,0,0,0,0,0,0,0,0,0,0,0,0,0,0,0,0,0,0,0,0,0,0,0,0,0,0,0,0,0,0,0,0,0,0,0,0,0,0,0,0,0,0,0,0,0,0,0,0,0,0,0,0,0,0,0,0,0,0,0,0,0,0,0,0,0,0,0,0,0,0,0,0,0,0,0,0,0,0,0,0,0,0,0,0,0,0,0,0,0,0,0,0,0,0,0,0,0,0,0,0,0,0,0,0,0,0,0,0,0,0,0,0,0,0,
0,0,0,0,0,0,0,0,0,0,0,0,0,0,0,0,0,0,0,0,0,0,0,0,0,0,0,0,0,0,0,0,0,0,0,0,0,0,0,0,0,0,0,0,0,0,0,0,0,0,0,0,0,0,0,0,0,0,0,0,0,0,0,0,0,0,0,0,0,0,0,0,0,0,0,0,0,0,0,0,0,0,0,0,0,0,0,0,0,0,0,0,0,0,0,0,0,0,0,0,0,0,0,0,0,0,0,0,0,0,0,0,0,0,0,0,0,0,0,0,0,0,0,0,0,0,0,0,0,0,0,0,0,0,0,0,0,0,0,0,0,0,0,0,0,0,0,0,0,0,0,0,0,0,0,0,0,0,0,0,0,0,0,0,0,0,0,0,0,0,0,0,0,0,0,0,0,0,0,0,0,0,0,0,0,0,0,0,0,0,0,0,0,0,0,0,0,0,0,0,0,0,0,0,0,0,0,0,0,0,0,0,0,0,0,0,0,0,0,0,0,0,0,0,0,0,0,0,0,0,0,0,0,0,0,0,0,0,0,0,0,0,0,0,0,0,0,0,0,0,
0,0,0,0,0,0,0,0,0,0,0,0,0,0,0,0,0,0,0,0,0,0,0,0,0,0,0,0,0,0,0,0,0,0,0,0,0,0,0,0,0,0,0,0,0,0,0,0,0,0,0,0,0,0,0,0,0,0,0,0,0,0,0,0,0,0,0,0,0,0,0,0,0,0,0,0,0,0,0,0,0,0,0,0,0,0,0,0,0,0,0,0,0,0,0,0,0,0,0,0,0,0,0,0,0,0,0,0,0,0,0,0,0,0,0,0,0,0,0,0,0,0,0,0,0,0,0,0,0,0,0,0,0,0,0,0,0,0,0,0,0,0,0,0,0,0,0,0,0,0,0,0,0,0,0,0,0,0,0,0,0,0,0,0,0,0,0,0,0,0,0,0,0,0,0,0,0,0,0,0,0,0,0,0,0,0,0,0,0,0,0,0,0,0,0,0,0,0,0,0,0,0,0,0,0,0,0,0,0,0,0,0,0,0,0,0,0,0,0,0,0,0,0,0,0,0,0,0,0,0,0,0,0,0,0,0,0,0,0,0,0,0,0,0,0,0,0,0,0,0,
0,0,0,0,0,0,0,0,0,0,0,0,0,0,0,0,0,0,0,0,0,0,0,0,0,0,0,0,0,0,0,0,0,0,0,0,0,0,0,0,0,0,0,0,0,0,0,0,0,0,0,0,0,0,0,0,0,0,0,0,0,0,0,0,0,0,0,0,0,0,0,0,0,0,0,0,0,0,0,0,0,0,0,0,0,0,0,0,0,0,0,0,0,0,0,0,0,0,0,0,0,0,0,0,0,0,0,0,0,0,0,0,0,0,0,0,0,0,0,0,0,0,0,0,0,0,0,0,0,0,0,0,0,0,0,0,0,0,0,0,0,0,0,0,0,0,0,0,0,0,0,0,0,0,0,0,0,0,0,0,0,0,0,0,0,0,0,0,0,0,0,0,0,0,0,0,0,0,0,0,0,0,0,0,0,0,0,0,0,0,0,0,0,0,0,0,0,0,0,0,0,0,0,0,0,0,0,0,0,0,0,0,0,0,0,0,0,0,0,0,0,0,0,0,0,0,0,0,0,0,0,0,0,0,0,0,0,0,0,0,0,0,0,0,0,0,0,0,0,0,
0,0,0,0,0,0,0,0,0,0,0,0,0,0,0,0,0,0,0,0,0,0,0,0,0,0,0,0,0,0,0,0,0,0,0,0,0,0,0,0,0,0,0,0,0,0,0,0,0,0,0,0,0,0,0,0,0,0,0,0,0,0,0,0,0,0,0,0,0,0,0,0,0,0,0,0,0,0,0,0,0,0,0,0,0,0,0,0,0,0,0,0,0,0,0,0,0,0,0,0,0,0,0,0,0,0,0,0,0,0,0,0,0,0,0,0,0,0,0,0,0,0,0,0,0,0,0,0,0,0,0,0,0,0,0,0,0,0,0,0,0,0,0,0,0,0,0,0,0,0,0,0,0,0,0,0,0,0,0,0,0,0,0,0,0,0,0,0,0,0,0,0,0,0,0,0,0,0,0,0,0,0,0,0,0,0,0,0,0,0,0,0,0,0,0,0,0,0,0,0,0,0,0,0,0,0,0,0,0,0,0,0,0,0,0,0,0,0,0,0,0,0,0,0,0,0,0,0,0,0,0,0,0,0,0,0,0,0,0,0,0,0,0,0,0,0,0,0,0,0,
0,0,0,0,0,0,0,0,0,0,0,0,0,0,0,0,0,0,0,0,0,0,0,0,0,0,0,0,0,0,0,0,0,0,0,0,0,0,0,0,0,0,0,0,0,0,0,0,0,0,0,0,0,0,0,0,0,0,0,0,0,0,0,0,0,0,0,0,0,0,0,0,0,0,0,0,0,0,0,0,0,0,0,0,0,0,0,0,0,0,0,0,0,0,0,0,0,0,0,0,0,0,0,0,0,0,0,0,0,0,0,0,0,0,0,0,0,0,0,0,0,0,0,0,0,0,0,0,0,0,0,0,0,0,0,0,0,0,0,0,0,0,0,0,0,0,0,0,0,0,0,0,0,0,0,0,0,0,0,0,0,0,0,0,0,0,0,0,0,0,0,0,0,0,0,0,0,0,0,0,0,0,0,0,0,0,0,0,0,0,0,0,0,0,0,0,0,0,0,0,0,0,0,0,0,0,0,0,0,0,0,0,0,0,0,0,0,0,0,0,0,0,0,0,0,0,0,0,0,0,0,0,0,0,0,0,0,0,0,0,0,0,0,0,0,0,0,0,0,0,
0,0,0,0,0,0,0,0,0,0,0,0,0,0,0,0,0,0,0,0,0,0,0,0,0,0,0,0,0,0,0,0,0,0,0,0,0,0,0,0,0,0,0,0,0,0,0,0,0,0,0,0,0,0,0,0,0,0,0,0,0,0,0,0,0,0,0,0,0,0,0,0,0,0,0,0,0,0,0,0,0,0,0,0,0,0,0,0,0,0,0,0,0,0,0,0,0,0,0,0,0,0,0,0,0,0,0,0,0,0,0,0,0,0,0,0,0,0,0,0,0,0,0,0,0,0,0,0,0,0,0,0,0,0,0,0,0,0,0,0,0,0,0,0,0,0,0,0,0,0,0,0,0,0,0,0,0,0,0,0,0,0,0,0,0,0,0,0,0,0,0,0,0,0,0,0,0,0,0,0,0,0,0,0,0,0,0,0,0,0,0,0,0,0,0,0,0,0,0,0,0,0,0,0,0,0,0,0,0,0,0,0,0,0,0,0,0,0,0,0,0,0,0,0,0,0,0,0,0,0,0,0,0,0,0,0,0,0,0,0,0,0,0,0,0,0,0,0,0,0,
0,0,0,0,0,0,0,0,0,0,0,0,0,0,0,0,0,0,0,0,0,0,0,0,0,0,0,0,0,0,0,0,0,0,0,0,0,0,0,0,0,0,0,0,0,0,0,0,0,0,0,0,0,0,0,0,0,0,0,0,0,0,0,0,0,0,0,0,0,0,0,0,0,0,0,0,0,0,0,0,0,0,0,0,0,0,0,0,0,0,0,0,0,0,0,0,0,0,0,0,0,0,0,0,0,0,0,0,0,0,0,0,0,0,0,0,0,0,0,0,0,0,0,0,0,0,0,0,0,0,0,0,0,0,0,0,0,0,0,0,0,0,0,0,0,0,0,0,0,0,0,0,0,0,0,0,0,0,0,0,0,0,0,0,0,0,0,0,0,0,0,0,0,0,0,0,0,0,0,0,0,0,0,0,0,0,0,0,0,0,0,0,0,0,0,0,0,0,0,0,0,0,0,0,0,0,0,0,0,0,0,0,0,0,0,0,0,0,0,0,0,0,0,0,0,0,0,0,0,0,0,0,0,0,0,0,0,0,0,0,0,0,0,0,0,0,0,0,0,0,
0,0,0,0,0,0,0,0,0,0,0,0,0,0,0,0,0,0,0,0,0,0,0,0,0,0,0,0,0,0,0,0,0,0,0,0,0,0,0,0,0,0,0,0,0,0,0,0,0,0,0,0,0,0,0,0,0,0,0,0,0,0,0,0,0,0,0,0,0,0,0,0,0,0,0,0,0,0,0,0,0,0,0,0,0,0,0,0,0,0,0,0,0,0,0,0,0,0,0,0,0,0,0,0,0,0,0,0,0,0,0,0,0,0,0,0,0,0,0,0,0,0,0,0,0,0,0,0,0,0,0,0,0,0,0,0,0,0,0,0,0,0,0,0,0,0,0,0,0,0,0,0,0,0,0,0,0,0,0,0,0,0,0,0,0,0,0,0,0,0,0,0,0,0,0,0,0,0,0,0,0,0,0,0,0,0,0,0,0,0,0,0,0,0,0,0,0,0,0,0,0,0,0,0,0,0,0,0,0,0,0,0,0,0,0,0,0,0,0,0,0,0,0,0,0,0,0,0,0,0,0,0,0,0,0,0,0,0,0,0,0,0,0,0,0,0,0,0,0,0,
0,0,0,0,0,0,0,0,0,0,0,0,0,0,0,0,0,0,0,0,0,0,0,0,0,0,0,0,0,0,0,0,0,0,0,0,0,0,0,0,0,0,0,0,0,0,0,0,0,0,0,0,0,0,0,0,0,0,0,0,0,0,0,0,0,0,0,0,0,0,0,0,0,0,0,0,0,0,0,0,0,0,0,0,0,0,0,0,0,0,0,0,0,0,0,0,0,0,0,0,0,0,0,0,0,0,0,0,0,0,0,0,0,0,0,0,0,0,0,0,0,0,0,0,0,0,0,0,0,0,0,0,0,0,0,0,0,0,0,0,0,0,0,0,0,0,0,0,0,0,0,0,0,0,0,0,0,0,0,0,0,0,0,0,0,0,0,0,0,0,0,0,0,0,0,0,0,0,0,0,0,0,0,0,0,0,0,0,0,0,0,0,0,0,0,0,0,0,0,0,0,0,0,0,0,0,0,0,0,0,0,0,0,0,0,0,0,0,0,0,0,0,0,0,0,0,0,0,0,0,0,0,0,0,0,0,0,0,0,0,0,0,0,0,0,0,0,0,0,0,
0,0,0,0,0,0,0,0,0,0,0,0,0,0,0,0,0,0,0,0,0,0,0,0,0,0,0,0,0,0,0,0,0,0,0,0,0,0,0,0,0,0,0,0,0,0,0,0,0,0,0,0,0,0,0,0,0,0,0,0,0,0,0,0,0,0,0,0,0,0,0,0,0,0,0,0,0,0,0,0,0,0,0,0,0,0,0,0,0,0,0,0,0,0,0,0,0,0,0,0,0,0,0,0,0,0,0,0,0,0,0,0,0,0,0,0,0,0,0,0,0,0,0,0,0,0,0,0,0,0,0,0,0,0,0,0,0,0,0,0,0,0,0,0,0,0,0,0,0,0,0,0,0,0,0,0,0,0,0,0,0,0,0,0,0,0,0,0,0,0,0,0,0,0,0,0,0,0,0,0,0,0,0,0,0,0,0,0,0,0,0,0,0,0,0,0,0,0,0,0,0,0,0,0,0,0,0,0,0,0,0,0,0,0,0,0,0,0,0,0,0,0,0,0,0,0,0,0,0,0,0,0,0,0,0,0,0,0,0,0,0,0,0,0,0,0,0,0,0,0,
0,0,0,0,0,0,0,0,0,0,0,0,0,0,0,0,0,0,0,0,0,0,0,0,0,0,0,0,0,0,0,0,0,0,0,0,0,0,0,0,0,0,0,0,0,0,0,0,0,0,0,0,0,0,0,0,0,0,0,0,0,0,0,0,0,0,0,0,0,0,0,0,0,0,0,0,0,0,0,0,0,0,0,0,0,0,0,0,0,0,0,0,0,0,0,0,0,0,0,0,0,0,0,0,0,0,0,0,0,0,0,0,0,0,0,0,0,0,0,0,0,0,0,0,0,0,0,0,0,0,0,0,0,0,0,0,0,0,0,0,0,0,0,0,0,0,0,0,0,0,0,0,0,0,0,0,0,0,0,0,0,0,0,0,0,0,0,0,0,0,0,0,0,0,0,0,0,0,0,0,0,0,0,0,0,0,0,0,0,0,0,0,0,0,0,0,0,0,0,0,0,0,0,0,0,0,0,0,0,0,0,0,0,0,0,0,0,0,0,0,0,0,0,0,0,0,0,0,0,0,0,0,0,0,0,0,0,0,0,0,0,0,0,0,0,0,0,0,0,0,
0,0,0,0,0,0,0,0,0,0,0,0,0,0,0,0,0,0,0,0,0,0,0,0,0,0,0,0,0,0,0,0,0,0,0,0,0,0,0,0,0,0,0,0,0,0,0,0,0,0,0,0,0,0,0,0,0,0,0,0,0,0,0,0,0,0,0,0,0,0,0,0,0,0,0,0,0,0,0,0,0,0,0,0,0,0,0,0,0,0,0,0,0,0,0,0,0,0,0,0,0,0,0,0,0,0,0,0,0,0,0,0,0,0,0,0,0,0,0,0,0,0,0,0,0,0,0,0,0,0,0,0,0,0,0,0,0,0,0,0,0,0,0,0,0,0,0,0,0,0,0,0,0,0,0,0,0,0,0,0,0,0,0,0,0,0,0,0,0,0,0,0,0,0,0,0,0,0,0,0,0,0,0,0,0,0,0,0,0,0,0,0,0,0,0,0,0,0,0,0,0,0,0,0,0,0,0,0,0,0,0,0,0,0,0,0,0,0,0,0,0,0,0,0,0,0,0,0,0,0,0,0,0,0,0,0,0,0,0,0,0,0,0,0,0,0,0,0,0,0,
0,0,0,0,0,0,0,0,0,0,0,0,0,0,0,0,0,0,0,0,0,0,0,0,0,0,0,0,0,0,0,0,0,0,0,0,0,0,0,0,0,0,0,0,0,0,0,0,0,0,0,0,0,0,0,0,0,0,0,0,0,0,0,0,0,0,0,0,0,0,0,0,0,0,0,0,0,0,0,0,0,0,0,0,0,0,0,0,0,0,0,0,0,0,0,0,0,0,0,0,0,0,0,0,0,0,0,0,0,0,0,0,0,0,0,0,0,0,0,0,0,0,0,0,0,0,0,0,0,0,0,0,0,0,0,0,0,0,0,0,0,0,0,0,0,0,0,0,0,0,0,0,0,0,0,0,0,0,0,0,0,0,0,0,0,0,0,0,0,0,0,0,0,0,0,0,0,0,0,0,0,0,0,0,0,0,0,0,0,0,0,0,0,0,0,0,0,0,0,0,0,0,0,0,0,0,0,0,0,0,0,0,0,0,0,0,0,0,0,0,0,0,0,0,0,0,0,0,0,0,0,0,0,0,0,0,0,0,0,0,0,0,0,0,0,0,0,0,0,0,
0,0,0,0,0,0,0,0,0,0,0,0,0,0,0,0,0,0,0,0,0,0,0,0,0,0,0,0,0,0,0,0,0,0,0,0,0,0,0,0,0,0,0,0,0,0,0,0,0,0,0,0,0,0,0,0,0,0,0,0,0,0,0,0,0,0,0,0,0,0,0,0,0,0,0,0,0,0,0,0,0,0,0,0,0,0,0,0,0,0,0,0,0,0,0,0,0,0,0,0,0,0,0,0,0,0,0,0,0,0,0,0,0,0,0,0,0,0,0,0,0,0,0,0,0,0,0,0,0,0,0,0,0,0,0,0,0,0,0,0,0,0,0,0,0,0,0,0,0,0,0,0,0,0,0,0,0,0,0,0,0,0,0,0,0,0,0,0,0,0,0,0,0,0,0,0,0,0,0,0,0,0,0,0,0,0,0,0,0,0,0,0,0,0,0,0,0,0,0,0,0,0,0,0,0,0,0,0,0,0,0,0,0,0,0,0,0,0,0,0,0,0,0,0,0,0,0,0,0,0,0,0,0,0,0,0,0,0,0,0,0,0,0,0,0,0,0,0,0,0,
0,0,0,0,0,0,0,0,0,0,0,0,0,0,0,0,0,0,0,0,0,0,0,0,0,0,0,0,0,0,0,0,0,0,0,0,0,0,0,0,0,0,0,1505,0,0,0,0,0,0,0,0,0,0,0,0,0,0,0,0,0,0,0,0,0,0,0,0,0,0,0,0,0,0,0,0,0,0,0,0,0,0,0,0,0,0,0,0,0,0,0,0,0,0,0,0,0,0,0,0,0,0,0,0,0,0,0,0,0,0,0,0,0,0,0,0,0,0,0,0,0,0,0,0,0,0,0,0,0,0,0,0,0,0,0,0,0,0,0,0,0,0,0,0,0,0,0,0,0,0,0,0,0,0,0,0,0,0,0,0,0,0,0,0,0,0,0,0,0,0,0,0,0,0,0,0,0,0,0,0,0,0,0,0,0,0,0,0,0,0,0,0,0,0,0,0,0,0,0,0,0,0,0,0,0,0,0,0,0,0,0,0,0,0,0,0,0,0,0,0,0,0,0,0,0,0,0,0,0,0,0,0,0,0,0,0,0,0,0,0,0,0,0,0,0,0,0,0,0,0,
0,0,0,0,0,0,0,0,0,0,0,0,0,0,0,0,0,0,0,0,0,0,0,0,0,0,0,0,0,0,0,0,0,0,0,0,0,0,0,0,0,0,0,0,0,0,0,0,0,0,0,0,0,0,0,0,0,0,0,0,0,0,0,0,0,0,0,0,0,0,0,0,0,0,0,0,0,0,0,0,0,0,0,0,0,0,0,0,0,0,0,0,0,0,0,0,0,0,0,0,0,0,0,0,0,0,0,0,0,0,0,0,0,0,0,0,0,0,0,0,0,0,0,0,0,0,0,0,0,0,0,0,0,0,0,0,0,0,0,0,0,0,0,0,0,0,0,0,0,0,0,0,0,0,0,0,0,0,0,0,0,0,0,0,0,0,0,0,0,0,0,0,0,0,0,0,0,0,0,0,0,0,0,0,0,0,0,0,0,0,0,0,0,0,0,0,0,0,0,0,0,0,0,0,0,0,0,0,0,0,0,0,0,0,0,0,0,0,0,0,0,0,0,0,0,0,0,0,0,0,0,0,0,0,0,0,0,0,0,0,0,0,0,0,0,0,0,0,0,0,
0,0,0,0,0,0,0,0,0,0,0,0,0,0,0,0,0,0,0,0,0,0,0,0,0,0,0,0,0,0,0,0,0,0,0,0,0,0,0,0,0,0,0,0,0,0,0,0,0,0,0,0,0,0,0,0,0,0,0,0,0,0,0,0,0,0,0,0,0,0,0,0,0,0,0,0,0,0,0,0,0,0,0,0,0,0,0,0,0,0,0,0,0,0,0,0,0,0,0,0,0,0,0,0,0,0,0,0,0,0,0,0,0,0,0,0,0,0,0,0,0,0,0,0,0,0,0,0,0,0,0,0,0,0,0,0,0,0,0,0,0,0,0,0,0,0,0,0,0,0,0,0,0,0,0,0,0,0,0,0,0,0,0,0,0,0,0,0,0,0,0,0,0,0,0,0,0,0,0,0,0,0,0,0,0,0,0,0,0,0,0,0,0,0,0,0,0,0,0,0,0,0,0,0,0,0,0,0,0,0,0,0,0,0,0,0,0,0,0,0,0,0,0,0,0,0,0,0,0,0,0,0,0,0,0,0,0,0,0,0,0,0,0,0,0,0,0,0,0,0,
0,0,0,0,0,0,0,0,0,0,0,0,0,0,0,0,0,0,0,0,0,0,0,0,0,0,0,0,0,0,0,0,0,0,0,0,0,0,0,0,0,0,0,0,0,0,0,0,0,0,0,0,0,0,0,0,0,0,0,0,0,0,0,0,0,0,0,0,0,0,0,0,0,0,0,0,0,0,0,0,0,0,0,0,0,0,0,0,0,0,0,0,0,0,0,0,0,0,0,0,0,0,0,0,0,0,0,0,0,0,0,0,0,0,0,0,0,0,0,0,0,0,0,0,0,0,0,0,0,0,0,0,0,0,0,0,0,0,0,0,0,0,0,0,0,0,0,0,0,0,0,0,0,0,0,0,0,0,0,0,0,0,0,0,0,0,0,0,0,0,0,0,0,0,0,0,0,0,0,0,0,0,0,0,0,0,0,0,0,0,0,0,0,0,0,0,0,0,0,0,0,0,0,0,0,0,0,0,0,0,0,0,0,0,0,0,0,0,0,0,0,0,0,0,0,0,0,0,0,0,0,0,0,0,0,0,0,0,0,0,0,0,0,0,0,0,0,0,0,0,
0,0,0,0,0,0,0,0,0,0,0,0,0,0,0,0,0,0,0,0,0,0,0,0,0,0,0,0,0,0,0,0,0,0,0,0,0,0,0,0,0,0,0,0,0,0,0,0,0,0,0,0,0,0,0,0,0,0,0,0,0,0,0,0,0,0,0,0,0,0,0,0,0,0,0,0,0,0,0,0,0,0,0,0,0,0,0,0,0,0,0,0,0,0,0,0,0,0,0,0,0,0,0,0,0,0,0,0,0,0,0,0,0,0,0,0,0,0,0,0,0,0,0,0,0,0,0,0,0,0,0,0,0,0,0,0,0,0,0,0,0,0,0,0,0,0,0,0,0,0,0,0,0,0,0,0,0,0,0,0,0,0,0,0,0,0,0,0,0,0,0,0,0,0,0,0,0,0,0,0,0,0,0,0,0,0,0,0,0,0,0,0,0,0,0,0,0,0,0,0,0,0,0,0,0,0,0,0,0,0,0,0,0,0,0,0,0,0,0,0,0,0,0,0,0,0,0,0,0,0,0,0,0,0,0,0,0,0,0,0,0,0,0,0,0,0,0,0,0,0,
0,0,0,0,0,0,0,0,0,0,0,0,0,0,0,0,0,0,0,0,0,0,0,0,0,0,0,0,0,0,0,0,0,0,0,0,0,0,0,0,0,0,0,0,0,0,0,0,0,0,0,0,0,0,0,0,0,0,0,0,0,0,0,0,0,0,0,0,0,0,0,0,0,0,0,0,0,0,0,0,0,0,0,0,0,0,0,0,0,0,0,0,0,0,0,0,0,0,0,0,0,0,0,0,0,0,0,0,0,0,0,0,0,0,0,0,0,0,0,0,0,0,0,0,0,0,0,0,0,0,0,0,0,0,0,0,0,0,0,0,0,0,0,0,0,0,0,0,0,0,0,0,0,0,0,0,0,0,0,0,0,0,0,0,0,0,0,0,0,0,0,0,0,0,0,0,0,0,0,0,0,0,0,0,0,0,0,0,0,0,0,0,0,0,0,0,0,0,0,0,0,0,0,0,0,0,0,0,0,0,0,0,0,0,0,0,0,0,0,0,0,0,0,0,0,0,0,0,0,0,0,0,0,0,0,0,0,0,0,0,0,0,0,0,0,0,0,0,0,0,
0,0,0,0,0,0,0,0,0,0,0,0,0,0,0,0,0,0,1637,1638,0,0,0,0,0,0,0,0,0,0,0,0,0,0,0,0,0,0,0,0,0,0,0,0,0,0,0,0,0,0,0,0,0,0,0,0,0,0,0,0,0,0,0,0,0,0,0,0,0,0,0,0,0,0,0,0,0,0,0,0,0,0,0,0,0,0,0,0,0,0,0,0,0,0,0,0,0,0,0,0,0,0,0,0,0,0,0,0,0,0,0,0,0,0,0,0,0,0,0,0,0,0,0,0,0,0,0,0,0,0,0,0,0,0,0,0,0,0,0,0,0,0,0,0,0,0,0,0,0,0,0,0,0,0,0,0,0,0,0,0,0,0,0,0,0,0,0,0,0,0,0,0,0,0,0,0,0,0,0,0,0,0,0,0,0,0,0,0,0,0,0,0,0,0,0,0,0,0,0,0,0,0,0,0,0,0,0,0,0,0,0,0,0,0,0,0,0,0,0,0,0,0,0,0,0,0,0,0,0,0,0,0,0,0,0,0,0,0,0,0,0,0,0,0,0,0,0,0,0,0,
0,0,0,0,0,0,0,0,0,0,0,0,0,0,0,0,0,0,1701,1702,0,0,0,0,0,0,0,0,0,0,0,0,0,0,0,0,0,0,0,0,0,0,0,0,0,0,0,0,0,0,0,0,0,0,0,0,0,0,0,0,0,0,0,0,0,0,0,0,0,0,0,0,0,0,0,0,0,0,0,0,0,0,0,0,0,0,0,0,0,0,0,0,0,0,0,0,0,0,0,0,0,0,0,0,0,0,0,0,0,0,0,0,0,0,0,0,0,0,0,0,0,0,0,0,0,0,0,0,0,0,0,0,0,0,0,0,0,0,0,0,0,0,0,0,0,0,0,0,0,0,0,0,0,0,0,0,0,0,0,0,0,0,0,0,0,0,0,0,0,0,0,0,0,0,0,0,0,0,0,0,0,0,0,0,0,0,0,0,0,0,0,0,0,0,0,0,0,0,0,0,0,0,0,0,0,0,0,0,0,0,0,0,0,0,0,0,0,0,0,0,0,0,0,0,0,0,0,0,0,0,0,0,0,0,0,0,0,0,0,0,0,0,0,0,0,0,0,0,0,0,
0,0,0,0,0,0,0,0,0,0,0,0,0,0,0,0,0,0,0,0,0,0,0,0,0,0,0,0,0,0,0,0,0,0,0,0,0,0,0,0,0,0,0,0,0,0,0,1822,0,0,0,0,0,0,0,0,0,0,0,0,0,0,0,0,0,0,0,0,0,0,0,0,0,0,0,0,0,0,0,0,0,0,0,0,0,0,0,0,0,0,0,0,0,0,0,0,0,0,0,0,0,0,0,0,0,0,0,0,0,0,0,0,0,0,0,0,0,0,0,0,0,0,0,0,0,0,0,0,0,0,0,0,0,0,0,0,0,0,0,0,0,0,0,0,0,0,0,0,0,0,0,0,0,0,0,0,0,0,0,0,0,0,0,0,0,0,0,0,0,0,0,0,0,0,0,0,0,0,0,0,0,0,0,0,0,0,0,0,0,0,0,0,0,0,0,0,0,0,0,0,0,0,0,0,0,0,0,0,0,0,0,0,0,0,0,0,0,0,0,0,0,0,0,0,0,0,0,0,0,0,0,0,0,0,0,0,0,0,0,0,0,0,0,0,0,0,0,0,0,0,
0,0,0,0,0,0,946,0,0,0,0,0,0,0,0,0,0,0,0,0,0,0,0,0,0,0,0,0,0,0,0,0,0,0,0,0,0,0,0,0,0,0,0,0,0,0,0,0,0,0,0,0,0,0,0,0,0,0,0,0,0,0,0,0,0,0,0,0,0,0,0,0,0,0,0,0,0,0,0,0,0,0,0,0,0,0,0,0,0,0,0,0,0,0,0,0,0,0,0,0,0,0,0,0,0,0,0,0,0,0,0,0,0,0,0,0,0,0,0,0,0,0,0,0,0,0,0,0,0,0,0,0,0,0,0,0,0,0,0,0,0,0,0,0,0,0,0,0,0,0,0,0,0,0,0,0,0,0,0,0,0,0,0,0,0,0,0,0,0,0,0,0,0,0,0,0,0,0,0,0,0,0,0,0,0,0,0,0,0,0,0,0,0,0,0,0,0,0,0,0,0,0,0,0,0,0,0,0,0,0,0,0,0,0,0,0,0,0,0,0,0,0,0,0,0,0,0,0,0,0,0,0,0,0,0,0,0,0,0,0,0,0,0,0,0,0,0,0,0,0,
0,0,0,0,0,0,1075,0,1640,1641,0,0,0,0,0,0,0,0,0,0,0,0,0,0,0,0,0,0,0,0,0,0,0,0,0,0,0,0,0,0,0,0,0,0,0,0,0,0,0,0,0,0,0,0,0,0,0,0,0,0,0,0,0,0,0,0,0,0,0,0,0,0,0,0,0,0,0,0,0,0,0,0,0,0,0,0,0,0,0,0,0,0,0,0,0,0,0,0,0,0,0,0,0,0,0,0,0,0,0,0,0,0,0,0,0,0,0,0,0,0,0,0,0,0,0,0,0,0,0,0,0,0,0,0,0,0,0,0,0,0,0,0,0,0,0,0,0,0,0,0,0,0,0,0,0,0,0,0,0,0,0,0,0,0,0,0,0,0,0,0,0,0,0,0,0,0,0,0,0,0,0,0,0,0,0,0,0,0,0,0,0,0,0,0,0,0,0,0,0,0,0,0,0,0,0,0,0,0,0,0,0,0,0,0,0,0,0,0,0,0,0,0,0,0,0,0,0,0,0,0,0,0,0,0,0,0,0,0,0,0,0,0,0,0,0,0,0,0,0,0,
0,0,0,0,0,0,0,0,1704,1705,0,0,0,0,0,0,0,0,0,0,0,0,0,0,0,0,0,0,0,0,0,0,0,0,0,0,0,0,0,0,0,0,0,0,0,0,0,0,0,0,0,0,0,0,0,0,0,0,0,0,0,0,0,0,0,0,0,0,0,0,0,0,0,0,0,0,0,0,0,0,0,0,0,0,0,0,0,0,0,0,0,0,0,0,0,0,0,0,0,0,0,0,0,0,0,0,0,0,0,0,0,0,0,0,0,0,0,0,0,0,0,0,0,0,0,0,0,0,0,0,0,0,0,0,0,0,0,0,0,0,0,0,0,0,0,0,0,0,0,0,0,0,0,0,0,0,0,0,0,0,0,0,0,0,0,0,0,0,0,0,0,0,0,0,0,0,0,0,0,0,0,0,0,0,0,0,0,0,0,0,0,0,0,0,0,0,0,0,0,0,0,0,0,0,0,0,0,0,0,0,0,0,0,0,0,0,0,0,0,0,0,0,0,0,0,0,0,0,0,0,0,0,0,0,0,0,0,0,0,0,0,0,0,0,0,0,0,0,0,0,
0,0,0,0,0,0,0,0,0,0,0,0,0,0,0,0,0,0,0,0,0,0,0,0,0,0,0,0,0,0,0,0,0,0,0,0,0,0,0,0,0,0,0,0,0,0,0,0,0,0,0,0,0,0,0,0,0,0,0,0,0,0,0,0,0,0,0,0,0,0,0,0,0,0,0,0,0,0,0,0,0,0,0,0,0,0,0,0,0,0,0,0,0,0,0,0,0,0,0,0,0,0,0,0,0,0,0,0,0,0,0,0,0,0,0,0,0,0,0,0,0,0,0,0,0,0,0,0,0,0,0,0,0,0,0,0,0,0,0,0,0,0,0,0,0,0,0,0,0,0,0,0,0,0,0,0,0,0,0,0,0,0,0,0,0,0,0,0,0,0,0,0,0,0,0,0,0,0,0,0,0,0,0,0,0,0,0,0,0,0,0,0,0,0,0,0,0,0,0,0,0,0,0,0,0,0,0,0,0,0,0,0,0,0,0,0,0,0,0,0,0,0,0,0,0,0,0,0,0,0,0,0,0,0,0,0,0,0,0,0,0,0,0,0,0,0,0,0,0,0,
0,0,0,0,0,0,0,0,0,0,0,0,0,0,0,0,0,0,0,0,0,0,0,0,0,0,0,0,0,0,0,0,0,0,0,0,0,0,0,0,0,0,0,0,0,0,0,0,0,0,0,0,0,0,0,0,0,0,0,0,0,0,0,0,0,0,0,0,0,0,0,0,0,0,0,0,0,0,0,0,0,0,0,0,0,0,0,0,0,0,0,0,0,0,0,0,0,0,0,0,0,0,0,0,0,0,0,0,0,0,0,0,0,0,0,0,0,0,0,0,0,0,0,0,0,0,0,0,0,0,0,0,0,0,0,0,0,0,0,0,0,0,0,0,0,0,0,0,0,0,0,0,0,0,0,0,0,0,0,0,0,0,0,0,0,0,0,0,0,0,0,0,0,0,0,0,0,0,0,0,0,0,0,0,0,0,0,0,0,0,0,0,0,0,0,0,0,0,0,0,0,0,0,0,0,0,0,0,0,0,0,0,0,0,0,0,0,0,0,0,0,0,0,0,0,0,0,0,0,0,0,0,0,0,0,0,0,0,0,0,0,0,0,0,0,0,0,0,0,0,
0,0,0,0,0,0,0,0,0,0,0,0,0,0,0,0,0,0,0,0,0,0,0,0,0,0,0,0,0,0,0,0,0,0,0,0,0,0,0,0,0,0,0,0,0,0,0,0,0,0,0,0,0,0,0,0,0,0,0,0,0,0,0,0,0,0,0,0,0,0,0,0,0,0,0,0,0,0,0,0,0,0,0,0,0,0,0,0,0,0,0,0,0,0,0,0,0,0,0,0,0,0,0,0,0,0,0,0,0,0,0,0,0,0,0,0,0,0,0,0,0,0,0,0,0,0,0,0,0,0,0,0,0,0,0,0,0,0,0,0,0,0,0,0,0,0,0,0,0,0,0,0,0,0,0,0,0,0,0,0,0,0,0,0,0,0,0,0,0,0,0,0,0,0,0,0,0,0,0,0,0,0,0,0,0,0,0,0,0,0,0,0,0,0,0,0,0,0,0,0,0,0,0,0,0,0,0,0,0,0,0,0,0,0,0,0,0,0,0,0,0,0,0,0,0,0,0,0,0,0,0,0,0,0,0,0,0,0,0,0,0,0,0,0,0,0,0,0,0,0,
0,0,0,0,0,0,0,0,0,0,0,0,0,0,0,0,0,0,0,0,0,0,0,0,0,0,0,0,0,0,0,0,0,0,0,0,0,0,0,0,0,0,0,0,0,0,0,0,0,0,0,0,0,0,0,0,0,0,0,0,0,0,0,0,0,0,0,0,0,0,0,0,0,0,0,0,0,0,0,0,0,0,0,0,0,0,0,0,0,0,0,0,0,0,0,0,0,0,0,0,0,0,0,0,0,0,0,0,0,0,0,0,0,0,0,0,0,0,0,0,0,0,0,0,0,0,0,0,0,0,0,0,0,0,0,0,0,0,0,0,0,0,0,0,0,0,0,0,0,0,0,0,0,0,0,0,0,0,0,0,0,0,0,0,0,0,0,0,0,0,0,0,0,0,0,0,0,0,0,0,0,0,0,0,0,0,0,0,0,0,0,0,0,0,0,0,0,0,0,0,0,0,0,0,0,0,0,0,0,0,0,0,0,0,0,0,0,0,0,0,0,0,0,0,0,0,0,0,0,0,0,0,0,0,0,0,0,0,0,0,0,0,0,0,0,0,0,0,0,0,
0,0,0,1633,0,0,0,0,0,0,0,0,0,0,0,0,0,0,0,0,0,0,0,0,0,0,0,0,0,0,0,0,0,0,0,0,0,0,0,0,0,0,0,0,0,0,0,0,0,0,0,0,0,0,0,0,0,0,0,0,0,0,0,0,0,0,0,0,0,0,0,0,0,0,0,0,0,0,0,0,0,0,0,0,0,0,0,0,0,0,0,0,0,0,0,0,0,0,0,0,0,0,0,0,0,0,0,0,0,0,0,0,0,0,0,0,0,0,0,0,0,0,0,0,0,0,0,0,0,0,0,0,0,0,0,0,0,0,0,0,0,0,0,0,0,0,0,0,0,0,0,0,0,0,0,0,0,0,0,0,0,0,0,0,0,0,0,0,0,0,0,0,0,0,0,0,0,0,0,0,0,0,0,0,0,0,0,0,0,0,0,0,0,0,0,0,0,0,0,0,0,0,0,0,0,0,0,0,0,0,0,0,0,0,0,0,0,0,0,0,0,0,0,0,0,0,0,0,0,0,0,0,0,0,0,0,0,0,0,0,0,0,0,0,0,0,0,0,0,0,
0,0,0,0,0,0,0,0,0,0,946,763,0,0,0,0,0,0,0,0,0,0,0,0,0,0,0,0,0,0,0,0,0,0,0,0,0,0,0,0,0,0,0,0,0,0,0,0,0,0,0,0,0,0,0,0,0,0,0,0,0,0,0,0,0,0,0,0,0,0,0,0,0,0,0,0,0,0,0,0,0,0,0,0,0,0,0,0,0,0,0,0,0,0,0,0,0,0,0,0,0,0,0,0,0,0,0,0,0,0,0,0,0,0,0,0,0,0,0,0,0,0,0,0,0,0,0,0,0,0,0,0,0,0,0,0,0,0,0,0,0,0,0,0,0,0,0,0,0,0,0,0,0,0,0,0,0,0,0,0,0,0,0,0,0,0,0,0,0,0,0,0,0,0,0,0,0,0,0,0,0,0,0,0,0,0,0,0,0,0,0,0,0,0,0,0,0,0,0,0,0,0,0,0,0,0,0,0,0,0,0,0,0,0,0,0,0,0,0,0,0,0,0,0,0,0,0,0,0,0,0,0,0,0,0,0,0,0,0,0,0,0,0,0,0,0,0,0,0,0,
0,0,0,0,0,0,0,0,0,0,1010,827,0,0,0,0,0,0,0,0,0,0,0,0,0,0,0,0,0,0,0,0,0,0,0,0,0,0,0,0,0,0,0,0,0,0,0,0,0,0,0,0,0,0,0,0,0,0,0,0,0,0,0,0,0,0,0,0,0,0,0,0,0,0,0,0,0,0,0,0,0,0,0,0,0,0,0,0,0,0,0,0,0,0,0,0,0,0,0,0,0,0,0,0,0,0,0,0,0,0,0,0,0,0,0,0,0,0,0,0,0,0,0,0,0,0,0,0,0,0,0,0,0,0,0,0,0,0,0,0,0,0,0,0,0,0,0,0,0,0,0,0,0,0,0,0,0,0,0,0,0,0,0,0,0,0,0,0,0,0,0,0,0,0,0,0,0,0,0,0,0,0,0,0,0,0,0,0,0,0,0,0,0,0,0,0,0,0,0,0,0,0,0,0,0,0,0,0,0,0,0,0,0,0,0,0,0,0,0,0,0,0,0,0,0,0,0,0,0,0,0,0,0,0,0,0,0,0,0,0,0,0,0,0,0,0,0,0,0,0,
0,0,0,0,0,0,0,0,0,0,0,0,0,0,0,0,0,0,0,0,0,0,0,0,0,0,0,0,0,0,0,0,0,0,0,0,0,0,0,0,0,0,0,0,0,0,0,0,0,0,0,0,0,0,0,0,0,0,0,0,0,0,0,0,0,0,0,0,0,0,0,0,0,0,0,0,0,0,0,0,0,0,0,0,0,0,0,0,0,0,0,0,0,0,0,0,0,0,0,0,0,0,0,0,0,0,0,0,0,0,0,0,0,0,0,0,0,0,0,0,0,0,0,0,0,0,0,0,0,0,0,0,0,0,0,0,0,0,0,0,0,0,0,0,0,0,0,0,0,0,0,0,0,0,0,0,0,0,0,0,0,0,0,0,0,0,0,0,0,0,0,0,0,0,0,0,0,0,0,0,0,0,0,0,0,0,0,0,0,0,0,0,0,0,0,0,0,0,0,0,0,0,0,0,0,0,0,0,0,0,0,0,0,0,0,0,0,0,0,0,0,0,0,0,0,0,0,0,0,0,0,0,0,0,0,0,0,0,0,0,0,0,0,0,0,0,0,0,0,0,
0,0,0,0,0,0,0,0,0,0,0,0,0,0,0,0,0,0,0,0,0,0,0,0,0,0,0,0,0,0,0,0,0,0,0,0,0,0,0,0,0,0,0,0,0,0,0,0,0,0,0,0,0,0,0,0,0,0,0,0,0,0,0,0,0,0,0,0,0,0,0,0,0,0,0,0,0,0,0,0,0,0,0,0,0,0,0,0,0,0,0,0,0,0,0,0,0,0,0,0,0,0,0,0,0,0,0,0,0,0,0,0,0,0,0,0,0,0,0,0,0,0,0,0,0,0,0,0,0,0,0,0,0,0,0,0,0,0,0,0,0,0,0,0,0,0,0,0,0,0,0,0,0,0,0,0,0,0,0,0,0,0,0,0,0,0,0,0,0,0,0,0,0,0,0,0,0,0,0,0,0,0,0,0,0,0,0,0,0,0,0,0,0,0,0,0,0,0,0,0,0,0,0,0,0,0,0,0,0,0,0,0,0,0,0,0,0,0,0,0,0,0,0,0,0,0,0,0,0,0,0,0,0,0,0,0,0,0,0,0,0,0,0,0,0,0,0,0,0,0,
0,0,0,0,0,0,0,0,0,0,0,0,0,0,0,0,0,0,0,0,0,0,0,0,0,0,0,0,0,0,0,0,0,0,0,0,0,0,0,0,0,0,0,0,0,0,0,0,0,0,0,0,0,0,0,0,0,0,0,0,0,0,0,0,0,0,0,0,0,0,0,0,0,0,0,0,0,0,0,0,0,0,0,0,0,0,0,0,0,0,0,0,0,0,0,0,0,0,0,0,0,0,0,0,0,0,0,0,0,0,0,0,0,0,0,0,0,0,0,0,0,0,0,0,0,0,0,0,0,0,0,0,0,0,0,0,0,0,0,0,0,0,0,0,0,0,0,0,0,0,0,0,0,0,0,0,0,0,0,0,0,0,0,0,0,0,0,0,0,0,0,0,0,0,0,0,0,0,0,0,0,0,0,0,0,0,0,0,0,0,0,0,0,0,0,0,0,0,0,0,0,0,0,0,0,0,0,0,0,0,0,0,0,0,0,0,0,0,0,0,0,0,0,0,0,0,0,0,0,0,0,0,0,0,0,0,0,0,0,0,0,0,0,0,0,0,0,0,0,0,
0,0,0,0,0,0,0,0,0,0,0,0,0,0,0,0,0,0,0,0,0,0,0,0,0,0,0,0,0,0,0,0,0,0,0,0,0,0,0,0,0,0,0,0,0,0,0,0,0,0,0,0,0,0,0,0,0,0,0,0,0,0,0,0,0,0,0,0,0,0,0,0,0,0,0,0,0,0,0,0,0,0,0,0,0,0,0,0,0,0,0,0,0,0,0,0,0,0,0,0,0,0,0,0,0,0,0,0,0,0,0,0,0,0,0,0,0,0,0,0,0,0,0,0,0,0,0,0,0,0,0,0,0,0,0,0,0,0,0,0,0,0,0,0,0,0,0,0,0,0,0,0,0,0,0,0,0,0,0,0,0,0,0,0,0,0,0,0,0,0,0,0,0,0,0,0,0,0,0,0,0,0,0,0,0,0,0,0,0,0,0,0,0,0,0,0,0,0,0,0,0,0,0,0,0,0,0,0,0,0,0,0,0,0,0,0,0,0,0,0,0,0,0,0,0,0,0,0,0,0,0,0,0,0,0,0,0,0,0,0,0,0,0,0,0,0,0,0,0,0,
0,0,0,0,0,0,0,0,0,0,0,0,0,0,0,0,0,0,0,0,0,0,0,0,0,0,0,0,0,0,0,0,0,0,0,0,0,0,0,0,0,0,0,0,0,0,0,0,0,0,0,0,0,0,0,0,0,0,0,0,0,0,0,0,0,0,0,0,0,0,0,0,0,0,0,0,0,0,0,0,0,0,0,0,0,0,0,0,0,0,0,0,0,0,0,0,0,0,0,0,0,0,0,0,0,0,0,0,0,0,0,0,0,0,0,0,0,0,0,0,0,0,0,0,0,0,0,0,0,0,0,0,0,0,0,0,0,0,0,0,0,0,0,0,0,0,0,0,0,0,0,0,0,0,0,0,0,0,0,0,0,0,0,0,0,0,0,0,0,0,0,0,0,0,0,0,0,0,0,0,0,0,0,0,0,0,0,0,0,0,0,0,0,0,0,0,0,0,0,0,0,0,0,0,0,0,0,0,0,0,0,0,0,0,0,0,0,0,0,0,0,0,0,0,0,0,0,0,0,0,0,0,0,0,0,0,0,0,0,0,0,0,0,0,0,0,0,0,0,0,
0,0,0,0,0,0,0,0,0,0,0,0,0,0,0,0,0,0,0,0,0,0,0,0,0,0,0,0,0,0,0,0,0,0,0,0,0,0,0,0,0,0,0,0,0,0,0,0,0,0,0,0,0,0,0,0,0,0,0,0,0,0,0,0,0,0,0,0,0,0,0,0,0,0,0,0,0,0,0,0,0,0,0,0,0,0,0,0,0,0,0,0,0,0,0,0,0,0,0,0,0,0,0,0,0,0,0,0,0,0,0,0,0,0,0,0,0,0,0,0,0,0,0,0,0,0,0,0,0,0,0,0,0,0,0,0,0,0,0,0,0,0,0,0,0,0,0,0,0,0,0,0,0,0,0,0,0,0,0,0,0,0,0,0,0,0,0,0,0,0,0,0,0,0,0,0,0,0,0,0,0,0,0,0,0,0,0,0,0,0,0,0,0,0,0,0,0,0,0,0,0,0,0,0,0,0,0,0,0,0,0,0,0,0,0,0,0,0,0,0,0,0,0,0,0,0,0,0,0,0,0,0,0,0,0,0,0,0,0,0,0,0,0,0,0,0,0,0,0,0,
0,0,0,0,0,0,0,0,0,0,0,0,0,0,0,0,0,0,0,0,0,0,0,0,0,0,0,0,0,0,0,0,0,0,0,0,0,0,0,0,0,0,0,0,0,0,0,0,0,0,0,0,0,0,0,0,0,0,0,0,0,0,0,0,0,0,0,0,0,0,0,0,0,0,0,0,0,0,0,0,0,0,0,0,0,0,0,0,0,0,0,0,0,0,0,0,0,0,0,0,0,0,0,0,0,0,0,0,0,0,0,0,0,0,0,0,0,0,0,0,0,0,0,0,0,0,0,0,0,0,0,0,0,0,0,0,0,0,0,0,0,0,0,0,0,0,0,0,0,0,0,0,0,0,0,0,0,0,0,0,0,0,0,0,0,0,0,0,0,0,0,0,0,0,0,0,0,0,0,0,0,0,0,0,0,0,0,0,0,0,0,0,0,0,0,0,0,0,0,0,0,0,0,0,0,0,0,0,0,0,0,0,0,0,0,0,0,0,0,0,0,0,0,0,0,0,0,0,0,0,0,0,0,0,0,0,0,0,0,0,0,0,0,0,0,0,0,0,0,0,
0,0,0,0,0,0,0,0,0,0,0,0,0,0,0,0,0,0,0,0,0,0,0,0,0,0,0,0,0,0,0,0,0,0,0,0,0,0,0,0,0,0,0,0,0,0,0,0,0,0,0,0,0,0,0,0,0,0,0,0,0,0,0,0,0,0,0,0,0,0,0,0,0,0,0,0,0,0,0,0,0,0,0,0,0,0,0,0,0,0,0,0,0,0,0,0,0,0,0,0,0,0,0,0,0,0,0,0,0,0,0,0,0,0,0,0,0,0,0,0,0,0,0,0,0,0,0,0,0,0,0,0,0,0,0,0,0,0,0,0,0,0,0,0,0,0,0,0,0,0,0,0,0,0,0,0,0,0,0,0,0,0,0,0,0,0,0,0,0,0,0,0,0,0,0,0,0,0,0,0,0,0,0,0,0,0,0,0,0,0,0,0,0,0,0,0,0,0,0,0,0,0,0,0,0,0,0,0,0,0,0,0,0,0,0,0,0,0,0,0,0,0,0,0,0,0,0,0,0,0,0,0,0,0,0,0,0,0,0,0,0,0,0,0,0,0,0,0,0,0,
0,0,0,0,0,0,0,0,0,0,0,0,0,0,0,0,0,0,0,0,0,0,0,0,0,0,0,0,0,0,0,0,0,0,0,0,0,0,0,0,0,0,0,0,0,0,0,0,0,0,0,0,0,0,0,0,0,0,0,0,0,0,0,0,0,0,0,0,0,0,0,0,0,0,0,0,0,0,0,0,0,0,0,0,0,0,0,0,0,0,0,0,0,0,0,0,0,0,0,0,0,0,0,0,0,0,0,0,0,0,0,0,0,0,0,0,0,0,0,0,0,0,0,0,0,0,0,0,0,0,0,0,0,0,0,0,0,0,0,0,0,0,0,0,0,0,0,0,0,0,0,0,0,0,0,0,0,0,0,0,0,0,0,0,0,0,0,0,0,0,0,0,0,0,0,0,0,0,0,0,0,0,0,0,0,0,0,0,0,0,0,0,0,0,0,0,0,0,0,0,0,0,0,0,0,0,0,0,0,0,0,0,0,0,0,0,0,0,0,0,0,0,0,0,0,0,0,0,0,0,0,0,0,0,0,0,0,0,0,0,0,0,0,0,0,0,0,0,0,0,
0,0,0,0,0,0,0,0,0,0,0,0,0,0,0,0,0,0,0,0,0,0,0,0,0,0,0,0,0,0,0,0,0,0,0,0,0,0,0,0,0,0,0,0,0,0,0,0,0,0,0,0,0,0,0,0,0,0,0,0,0,0,0,0,0,0,0,0,0,0,0,0,0,0,0,0,0,0,0,0,0,0,0,0,0,0,0,0,0,0,0,0,0,0,0,0,0,0,0,0,0,0,0,0,0,0,0,0,0,0,0,0,0,0,0,0,0,0,0,0,0,0,0,0,0,0,0,0,0,0,0,0,0,0,0,0,0,0,0,0,0,0,0,0,0,0,0,0,0,0,0,0,0,0,0,0,0,0,0,0,0,0,0,0,0,0,0,0,0,0,0,0,0,0,0,0,0,0,0,0,0,0,0,0,0,0,0,0,0,0,0,0,0,0,0,0,0,0,0,0,0,0,0,0,0,0,0,0,0,0,0,0,0,0,0,0,0,0,0,0,0,0,0,0,0,0,0,0,0,0,0,0,0,0,0,0,0,0,0,0,0,0,0,0,0,0,0,0,0,0,
0,0,0,0,0,0,0,0,0,0,0,0,0,0,0,0,0,0,0,0,0,0,0,0,0,0,0,0,0,2446,2447,2448,2449,0,0,0,0,0,0,0,0,2458,2459,2460,2461,0,0,0,0,0,0,0,0,0,0,0,0,0,0,0,0,0,0,0,0,0,0,0,0,0,0,0,0,0,0,0,0,0,0,0,0,0,0,0,0,0,0,0,0,0,0,0,0,0,0,0,0,0,0,0,0,0,0,0,0,0,0,0,0,0,0,0,0,0,0,0,0,0,0,0,0,0,0,0,0,0,0,0,0,0,0,0,0,0,0,0,0,0,0,0,0,0,0,0,0,0,0,0,0,0,0,0,0,0,0,0,0,0,0,0,0,0,0,0,0,0,0,0,0,0,0,0,0,0,0,0,0,0,0,0,0,0,0,0,0,0,0,0,0,0,0,0,0,0,0,0,0,0,0,0,0,0,0,0,0,0,0,0,0,0,0,0,0,0,0,0,0,0,0,0,0,0,0,0,0,0,0,0,0,0,0,0,0,0,0,0,0,0,0,0,0,0,0,0,0,0,0,0,0,0,
0,0,0,0,0,0,0,0,0,0,0,0,0,0,0,0,0,0,0,0,0,0,0,0,0,0,0,0,0,2510,2511,2512,2513,0,0,0,0,0,0,0,0,2522,2523,2524,2525,0,0,0,0,0,0,0,0,0,0,0,0,0,0,0,0,0,0,0,0,0,0,0,0,0,0,0,0,0,0,0,0,0,0,0,0,0,0,0,0,0,0,0,0,0,0,0,0,0,0,0,0,0,0,0,0,0,0,0,0,0,0,0,0,0,0,0,0,0,0,0,0,0,0,0,0,0,0,0,0,0,0,0,0,0,0,0,0,0,0,0,0,0,0,0,0,0,0,0,0,0,0,0,0,0,0,0,0,0,0,0,0,0,0,0,0,0,0,0,0,0,0,0,0,0,0,0,0,0,0,0,0,0,0,0,0,0,0,0,0,0,0,0,0,0,0,0,0,0,0,0,0,0,0,0,0,0,0,0,0,0,0,0,0,0,0,0,0,0,0,0,0,0,0,0,0,0,0,0,0,0,0,0,0,0,0,0,0,0,0,0,0,0,0,0,0,0,0,0,0,0,0,0,0,0,
0,0,0,0,0,0,0,946,947,0,0,0,0,0,0,0,0,0,0,0,0,0,0,0,0,0,0,0,0,2574,2575,2576,2577,0,0,0,0,0,0,0,0,2586,2587,2588,2589,0,0,0,0,0,0,0,0,0,0,0,0,0,0,0,0,0,0,0,0,0,0,0,0,0,0,0,0,0,0,0,0,0,0,0,0,0,0,0,0,0,0,0,0,0,0,0,0,0,0,0,0,0,0,0,0,0,0,0,0,0,0,0,0,0,0,0,0,0,0,0,0,0,0,0,0,0,0,0,0,0,0,0,0,0,0,0,0,0,0,0,0,0,0,0,0,0,0,0,0,0,0,0,0,0,0,0,0,0,0,0,0,0,0,0,0,0,0,0,0,0,0,0,0,0,0,0,0,0,0,0,0,0,0,0,0,0,0,0,0,0,0,0,0,0,0,0,0,0,0,0,0,0,0,0,0,0,0,0,0,0,0,0,0,0,0,0,0,0,0,0,0,0,0,0,0,0,0,0,0,0,0,0,0,0,0,0,0,0,0,0,0,0,0,0,0,0,0,0,0,0,0,0,0,0,
0,0,0,0,0,0,0,1010,1011,1012,947,0,0,0,0,0,0,0,0,0,0,0,0,0,0,0,0,0,0,2638,2639,2640,2641,0,0,0,0,0,0,0,0,2650,2651,2652,2653,0,0,0,0,0,0,0,0,0,0,0,0,0,0,0,0,0,0,0,0,0,0,0,949,0,0,0,0,0,0,0,0,0,0,0,0,0,0,0,0,0,0,0,0,0,0,0,0,0,0,0,0,0,0,0,0,0,0,0,0,0,0,0,0,0,0,0,0,0,0,0,0,0,0,0,0,0,0,0,0,0,0,0,0,0,0,0,0,0,0,0,0,0,0,0,0,0,0,0,0,0,0,0,0,0,0,0,0,0,0,0,0,0,0,0,0,0,0,0,0,0,0,0,0,0,0,0,0,0,0,0,0,0,0,0,0,0,0,0,0,0,0,0,0,0,0,0,0,0,0,0,0,0,0,0,0,0,0,0,0,0,0,0,0,0,0,0,0,0,0,0,0,0,0,0,0,0,0,0,0,0,0,0,0,0,0,0,0,0,0,0,0,0,0,0,0,0,0,0,0,0,0,0,0,0,
0,0,0,0,0,0,0,0,1075,1076,1011,1012,1012,763,0,0,0,0,0,0,0,0,0,0,0,0,0,0,0,0,0,886,0,0,0,0,0,0,0,0,0,0,882,0,0,0,0,0,0,0,0,0,0,0,0,0,0,0,0,0,0,0,0,0,0,0,0,949,1013,0,0,0,0,0,0,0,0,0,0,0,0,0,0,0,0,0,0,0,0,0,0,0,0,0,0,0,0,0,0,0,0,0,0,0,0,0,0,0,0,0,0,0,0,0,0,0,0,0,0,0,0,0,0,0,0,0,0,0,0,0,0,0,0,0,0,0,0,0,0,0,0,0,0,0,0,0,0,0,0,0,0,0,0,0,0,0,0,0,0,0,0,0,0,0,0,0,0,0,0,0,0,0,0,0,0,0,0,0,0,0,0,0,0,0,0,0,0,0,0,0,0,0,0,0,0,0,0,0,0,0,0,0,0,0,0,0,0,0,0,0,0,0,0,0,0,0,0,0,0,0,0,0,0,0,0,0,0,0,0,0,0,0,0,0,0,0,0,0,0,0,0,0,0,0,0,0,0,0,0,0,
0,0,0,0,0,0,0,0,0,0,1595,1011,1012,947,0,0,0,0,0,0,0,0,0,0,0,0,0,0,0,0,949,950,0,0,0,0,0,0,0,0,0,0,946,763,0,0,0,0,0,0,0,0,0,0,0,0,0,0,0,0,0,0,0,0,0,0,1466,1013,1077,0,0,0,0,0,0,0,0,0,0,0,0,0,0,0,0,0,0,0,0,0,0,0,0,0,0,0,0,0,0,0,0,0,0,0,0,0,0,0,0,0,0,0,0,0,0,0,0,0,0,0,0,0,0,0,0,0,0,0,0,0,0,0,0,0,0,0,0,0,0,0,0,0,0,0,0,0,0,0,0,0,0,0,0,0,0,0,0,0,0,0,0,0,0,0,0,0,0,0,0,0,0,0,0,0,0,0,0,0,0,0,0,0,0,0,0,0,0,0,0,0,0,0,0,0,0,0,0,0,0,0,0,0,0,0,0,0,0,0,0,0,0,0,0,0,0,0,0,0,0,0,0,0,0,0,0,0,0,0,0,0,0,0,0,0,0,0,0,0,0,0,0,0,0,0,0,0,0,0,0,0,
0,0,0,0,0,0,0,0,0,0,0,1075,1076,1011,947,0,0,0,0,0,0,0,0,0,0,0,1266,1267,1268,949,1013,1014,0,0,0,0,0,0,0,0,0,0,1010,1020,1267,1268,1269,0,0,0,0,0,0,0,0,0,0,0,0,0,0,0,0,0,1267,1464,1530,1077,0,0,0,0,0,0,0,0,0,0,0,0,0,0,0,0,0,0,0,0,0,0,0,0,0,0,0,0,0,0,0,0,0,0,0,0,0,0,0,0,0,0,0,0,0,0,0,0,0,0,0,0,0,0,0,0,0,0,0,0,0,0,0,0,0,0,0,0,0,0,0,0,0,0,0,0,0,0,0,0,0,0,0,0,0,0,0,0,0,0,0,0,0,0,0,0,0,0,0,0,0,0,0,0,0,0,0,0,0,0,0,0,0,0,0,0,0,0,0,0,0,0,0,0,0,0,0,0,0,0,0,0,0,0,0,0,0,0,0,0,0,0,0,0,0,0,0,0,0,0,0,0,0,0,0,0,0,0,0,0,0,0,0,0,0,0,0,0,0,0,0,0,0,0,0,0,0,0,0,0,0,0,
0,0,0,0,0,0,0,0,0,0,0,0,0,1075,1011,1012,0,0,0,0,0,0,0,0,0,0,1330,1331,1332,1013,1077,0,0,0,0,0,0,0,0,0,0,0,0,946,1331,1332,1333,947,0,0,0,0,0,0,0,0,0,0,0,0,0,0,0,949,1331,1528,1594,0,0,0,0,0,0,0,0,0,0,0,0,0,0,0,0,0,0,0,0,0,0,0,0,0,0,0,0,0,0,0,0,0,0,0,0,0,0,0,0,0,0,0,0,0,0,0,0,0,0,0,0,0,0,0,0,0,0,0,0,0,0,0,0,0,0,0,0,0,0,0,0,0,0,0,0,0,0,0,0,0,0,0,0,0,0,0,0,0,0,0,0,0,0,0,0,0,0,0,0,0,0,0,0,0,0,0,0,0,0,0,0,0,0,0,0,0,0,0,0,0,0,0,0,0,0,0,0,0,0,0,0,0,0,0,0,0,0,0,0,0,0,0,0,0,0,0,0,0,0,0,0,0,0,0,0,0,0,0,0,0,0,0,0,0,0,0,0,0,0,0,0,0,0,0,0,0,0,0,0,0,0,0,
0,0,0,0,0,0,0,0,0,0,0,0,0,0,1075,1076,0,0,0,0,0,0,0,0,0,0,1394,1395,1396,1077,0,0,0,0,0,0,0,0,0,0,0,0,0,1010,1395,1396,1397,1011,1012,947,0,0,0,0,0,0,949,1012,1012,0,0,0,0,1013,1395,1592,0,0,0,0,0,0,0,0,0,0,0,0,0,0,0,0,0,0,0,0,0,0,0,0,0,0,0,0,0,0,0,0,0,0,0,0,0,0,0,0,0,0,0,0,0,0,0,0,0,0,0,0,0,0,0,0,0,0,0,0,0,0,0,0,0,0,0,0,0,0,0,0,0,0,0,0,0,0,0,0,0,0,0,0,0,0,0,0,0,0,0,0,0,0,0,0,0,0,0,0,0,0,0,0,0,0,0,0,0,0,0,0,0,0,0,0,0,0,0,0,0,0,0,0,0,0,0,0,0,0,0,0,0,0,0,0,0,0,0,0,0,0,0,0,0,0,0,0,0,0,0,0,0,0,0,0,0,0,0,0,0,0,0,0,0,0,0,0,0,0,0,0,0,0,0,0,0,0,0,0,0,0,0,0,
0,0,0,0,0,0,0,0,0,0,0,0,0,0,0,0,0,0,0,0,0,0,0,0,0,0,0,0,0,0,0,0,12703,0,0,0,0,0,0,0,0,0,0,0,0,0,0,1075,1076,1011,0,0,0,0,0,0,1013,1076,1076,0,0,0,0,1077,0,0,0,0,0,0,0,0,0,0,0,0,0,0,0,0,0,0,0,0,0,0,0,0,0,0,0,0,0,0,0,0,0,0,0,0,0,0,0,0,0,0,0,0,0,0,0,0,0,0,0,0,0,0,0,0,0,0,0,0,0,0,0,0,0,0,0,0,0,0,0,0,0,0,0,0,0,0,0,0,0,0,0,0,0,0,0,0,0,0,0,0,0,0,0,0,0,0,0,0,0,0,0,0,0,0,0,0,0,0,0,0,0,0,0,0,0,0,0,0,0,0,0,0,0,0,0,0,0,0,0,0,0,0,0,0,0,0,0,0,0,0,0,0,0,0,0,0,0,0,0,0,0,0,0,0,0,0,0,0,0,0,0,0,0,0,0,0,0,0,0,0,0,0,0,0,0,0,0,0,0,0,0,0,0,0,
0,0,0,0,0,0,0,0,0,0,0,0,0,0,0,0,0,0,0,0,0,0,0,0,0,0,0,0,0,0,0,0,0,0,0,0,0,0,0,0,0,0,0,0,0,0,0,0,0,1075,0,0,0,0,0,0,1077,0,0,0,0,0,0,0,0,0,0,0,0,0,0,0,0,0,0,0,0,0,0,0,0,0,0,0,0,0,0,0,0,0,0,0,0,0,0,0,0,0,0,0,0,0,0,0,0,0,0,0,0,0,0,0,0,0,0,0,0,0,0,0,0,0,0,0,0,0,0,0,0,0,0,0,0,0,0,0,0,0,0,0,0,0,0,0,0,0,0,0,0,0,0,0,0,0,0,0,0,0,0,0,0,0,0,0,0,0,0,0,0,0,0,0,0,0,0,0,0,0,0,0,0,0,0,0,0,0,0,0,0,0,0,0,0,0,0,0,0,0,0,0,0,0,0,0,0,0,0,0,0,0,0,0,0,0,0,0,0,0,0,0,0,0,0,0,0,0,0,0,0,0,0,0,0,0,0,0,0,0,0,0,0,0,0,0,0,0,0,0,0,0,
0,0,0,0,0,0,0,0,0,0,0,0,0,0,0,0,0,0,0,0,0,0,0,0,0,0,0,0,0,0,0,0,0,0,0,0,0,0,0,0,0,0,0,0,0,0,0,0,0,0,0,0,0,0,0,0,0,0,0,0,0,0,0,0,0,0,0,0,0,0,0,0,0,0,0,0,0,0,0,0,0,0,0,0,0,0,0,0,0,0,0,0,0,0,0,0,0,0,0,0,0,0,0,0,0,0,0,0,0,0,0,0,0,0,0,0,0,0,0,0,0,0,0,0,0,0,0,0,0,0,0,0,0,0,0,0,0,0,0,0,0,0,0,0,0,0,0,0,0,0,0,0,0,0,0,0,0,0,0,0,0,0,0,0,0,0,0,0,0,0,0,0,0,0,0,0,0,0,0,0,0,0,0,0,0,0,0,0,0,0,0,0,0,0,0,0,0,0,0,0,0,0,0,0,0,0,0,0,0,0,0,0,0,0,0,0,0,0,0,0,0,0,0,0,0,0,0,0,0,0,0,0,0,0,0,0,0,0,0,0,0,0,0,0,0,0,0,0,0,0,
0,0,0,0,0,0,0,0,0,0,0,0,0,0,0,0,0,0,0,0,0,0,0,0,0,0,0,0,0,0,0,0,0,1570,0,0,0,0,0,0,0,0,0,0,0,0,0,0,0,0,0,0,0,0,0,0,0,0,0,0,0,0,0,0,0,0,0,0,0,0,0,0,0,0,0,0,0,0,0,0,0,0,0,0,0,0,0,0,0,0,0,0,0,0,0,0,0,0,0,0,0,0,0,0,0,0,0,0,0,0,0,0,0,0,0,0,0,0,0,0,0,0,0,0,0,0,0,0,0,0,0,0,0,0,0,0,0,0,0,0,0,0,0,0,0,0,0,0,0,0,0,0,0,0,0,0,0,0,0,0,0,0,0,0,0,0,0,0,0,0,0,0,0,0,0,0,0,0,0,0,0,0,0,0,0,0,0,0,0,0,0,0,0,0,0,0,0,0,0,0,0,0,0,0,0,0,0,0,0,0,0,0,0,0,0,0,0,0,0,0,0,0,0,0,0,0,0,0,0,0,0,0,0,0,0,0,0,0,0,0,0,0,0,0,0,0,0,0,0,0,
0,0,0,0,0,0,0,0,0,0,0,0,0,0,0,0,0,0,0,0,0,0,0,0,0,0,0,0,0,0,0,0,0,0,0,0,0,0,0,0,0,0,0,0,0,0,0,0,0,0,0,0,0,0,0,0,0,0,0,0,0,0,0,0,0,0,0,0,0,0,0,0,0,0,0,0,0,0,0,0,0,0,0,0,0,0,0,0,0,0,0,0,0,0,0,0,0,0,0,0,0,0,0,0,0,0,0,0,0,0,0,0,0,0,0,0,0,0,0,0,0,0,0,0,0,0,0,0,0,0,0,0,0,0,0,0,0,0,0,0,0,0,0,0,0,0,0,0,0,0,0,0,0,0,0,0,0,0,0,0,0,0,0,0,0,0,0,0,0,0,0,0,0,0,0,0,0,0,0,0,0,0,0,0,0,0,0,0,0,0,0,0,0,0,0,0,0,0,0,0,0,0,0,0,0,0,0,0,0,0,0,0,0,0,0,0,0,0,0,0,0,0,0,0,0,0,0,0,0,0,0,0,0,0,0,0,0,0,0,0,0,0,0,0,0,0,0,0,0,0,
0,0,0,0,0,0,0,0,0,0,0,0,0,0,0,0,0,0,0,0,0,0,0,0,0,0,0,0,0,0,0,0,0,0,0,0,0,0,0,0,0,0,0,0,0,0,0,0,0,0,0,0,0,0,0,0,0,0,0,0,0,0,0,0,0,0,0,0,0,0,0,0,0,0,0,0,0,0,0,0,0,0,0,0,0,0,0,0,0,0,0,0,0,0,0,0,0,0,0,0,0,0,0,0,0,0,0,0,0,0,0,0,0,0,0,0,0,0,0,0,0,0,0,0,0,0,0,0,0,0,0,0,0,0,0,0,0,0,0,0,0,0,0,0,0,0,0,0,0,0,0,0,0,0,0,0,0,0,0,0,0,0,0,0,0,0,0,0,0,0,0,0,0,0,0,0,0,0,0,0,0,0,0,0,0,0,0,0,0,0,0,0,0,0,0,0,0,0,0,0,0,0,0,0,0,0,0,0,0,0,0,0,0,0,0,0,0,0,0,0,0,0,0,0,0,0,0,0,0,0,0,0,0,0,0,0,0,0,0,0,0,0,0,0,0,0,0,0,0,0,
0,0,0,0,0,0,0,0,0,0,0,0,0,0,0,0,0,0,0,0,0,0,0,0,0,0,0,0,0,0,0,0,0,0,0,0,0,0,0,0,0,0,0,0,0,0,0,0,0,0,0,0,0,0,0,0,0,0,0,0,0,0,0,0,0,0,0,0,0,0,0,0,0,0,0,0,0,0,0,0,0,0,0,0,0,0,0,0,0,0,0,0,0,0,0,0,0,0,0,0,0,0,0,0,0,0,0,0,0,0,0,0,0,0,0,0,0,0,0,0,0,0,0,0,0,0,0,0,0,0,0,0,0,0,0,0,0,0,0,0,0,0,0,0,0,0,0,0,0,0,0,0,0,0,0,0,0,0,0,0,0,0,0,0,0,0,0,0,0,0,0,0,0,0,0,0,0,0,0,0,0,0,0,0,0,0,0,0,0,0,0,0,0,0,0,0,0,0,0,0,0,0,0,0,0,0,0,0,0,0,0,0,0,0,0,0,0,0,0,0,0,0,0,0,0,0,0,0,0,0,0,0,0,0,0,0,0,0,0,0,0,0,0,0,0,0,0,0,0,0,
0,0,0,0,0,0,0,0,0,0,0,0,0,0,0,0,0,0,0,0,0,0,0,0,0,0,0,0,0,0,0,0,0,0,0,0,0,0,0,0,0,0,0,0,0,0,0,0,0,0,0,0,0,0,0,0,0,0,0,0,0,0,0,0,0,0,0,0,0,0,0,0,0,0,0,0,0,0,0,0,0,0,0,0,0,0,0,0,0,0,0,0,0,0,0,0,0,0,0,0,0,0,0,0,0,0,0,0,0,0,0,0,0,0,0,0,0,0,0,0,0,0,0,0,0,0,0,0,0,0,0,0,0,0,0,0,0,0,0,0,0,0,0,0,0,0,0,0,0,0,0,0,0,0,0,0,0,0,0,0,0,0,0,0,0,0,0,0,0,0,0,0,0,0,0,0,0,0,0,0,0,0,0,0,0,0,0,0,0,0,0,0,0,0,0,0,0,0,0,0,0,0,0,0,0,0,0,0,0,0,0,0,0,0,0,0,0,0,0,0,0,0,0,0,0,0,0,0,0,0,0,0,0,0,0,0,0,0,0,0,0,0,0,0,0,0,0,0,0,0,
0,0,0,0,0,0,0,0,0,0,0,0,0,0,0,0,0,0,0,0,0,0,0,0,0,0,0,0,0,0,0,0,0,0,0,0,0,0,0,0,0,0,0,0,0,0,0,0,0,0,0,0,0,0,0,0,0,0,0,0,0,0,0,0,0,0,0,0,0,0,0,0,0,0,0,0,0,0,0,0,0,0,0,0,0,0,0,0,0,0,0,0,0,0,0,0,0,0,0,0,0,0,0,0,0,0,0,0,0,0,0,0,0,0,0,0,0,0,0,0,0,0,0,0,0,0,0,0,0,0,0,0,0,0,0,0,0,0,0,0,0,0,0,0,0,0,0,0,0,0,0,0,0,0,0,0,0,0,0,0,0,0,0,0,0,0,0,0,0,0,0,0,0,0,0,0,0,0,0,0,0,0,0,0,0,0,0,0,0,0,0,0,0,0,0,0,0,0,0,0,0,0,0,0,0,0,0,0,0,0,0,0,0,0,0,0,0,0,0,0,0,0,0,0,0,0,0,0,0,0,0,0,0,0,0,0,0,0,0,0,0,0,0,0,0,0,0,0,0,0,
0,0,0,0,0,0,0,0,0,0,0,0,0,0,0,0,0,0,0,0,0,0,0,0,0,0,0,0,0,0,0,0,0,0,0,0,0,0,0,0,0,0,0,0,0,0,0,0,0,0,0,0,0,0,0,0,0,0,0,0,0,0,0,0,0,0,0,0,0,0,0,0,0,0,0,0,0,0,0,0,0,0,0,0,0,0,0,0,0,0,0,0,0,0,0,0,0,0,0,0,0,0,0,0,0,0,0,0,0,0,0,0,0,0,0,0,0,0,0,0,0,0,0,0,0,0,0,0,0,0,0,0,0,0,0,0,0,0,0,0,0,0,0,0,0,0,0,0,0,0,0,0,0,0,0,0,0,0,0,0,0,0,0,0,0,0,0,0,0,0,0,0,0,0,0,0,0,0,0,0,0,0,0,0,0,0,0,0,0,0,0,0,0,0,0,0,0,0,0,0,0,0,0,0,0,0,0,0,0,0,0,0,0,0,0,0,0,0,0,0,0,0,0,0,0,0,0,0,0,0,0,0,0,0,0,0,0,0,0,0,0,0,0,0,0,0,0,0,0,0,
0,0,0,0,0,0,0,0,0,0,0,0,0,0,0,0,0,0,0,0,0,0,0,0,0,0,0,0,0,0,0,0,0,0,0,0,0,0,0,0,0,0,0,0,0,0,0,0,0,0,0,0,0,0,0,0,0,0,0,0,0,0,0,0,0,0,0,0,0,0,0,0,0,0,0,0,0,0,0,0,0,0,0,0,0,0,0,0,0,0,0,0,0,0,0,0,0,0,0,0,0,0,0,0,0,0,0,0,0,0,0,0,0,0,0,0,0,0,0,0,0,0,0,0,0,0,0,0,0,0,0,0,0,0,0,0,0,0,0,0,0,0,0,0,0,0,0,0,0,0,0,0,0,0,0,0,0,0,0,0,0,0,0,0,0,0,0,0,0,0,0,0,0,0,0,0,0,0,0,0,0,0,0,0,0,0,0,0,0,0,0,0,0,0,0,0,0,0,0,0,0,0,0,0,0,0,0,0,0,0,0,0,0,0,0,0,0,0,0,0,0,0,0,0,0,0,0,0,0,0,0,0,0,0,0,0,0,0,0,0,0,0,0,0,0,0,0,0,0,0,
0,0,0,0,0,0,0,0,0,0,0,0,0,0,0,0,0,0,0,0,0,0,0,0,0,0,0,0,0,0,0,0,0,0,0,0,0,0,0,0,0,0,0,0,0,0,0,0,0,0,0,0,0,0,0,0,0,0,0,0,0,0,0,0,0,0,0,0,0,0,0,0,0,0,0,0,0,0,0,0,0,0,0,0,0,0,0,0,0,0,0,0,0,0,0,0,0,0,0,0,0,0,0,0,0,0,0,0,0,0,0,0,0,0,0,0,0,0,0,0,0,0,0,0,0,0,0,0,0,0,0,0,0,0,0,0,0,0,0,0,0,0,0,0,0,0,0,0,0,0,0,0,0,0,0,0,0,0,0,0,0,0,0,0,0,0,0,0,0,0,0,0,0,0,0,0,0,0,0,0,0,0,0,0,0,0,0,0,0,0,0,0,0,0,0,0,0,0,0,0,0,0,0,0,0,0,0,0,0,0,0,0,0,0,0,0,0,0,0,0,0,0,0,0,0,0,0,0,0,0,0,0,0,0,0,0,0,0,0,0,0,0,0,0,0,0,0,0,0,0,
0,0,0,0,0,0,0,0,0,0,0,0,0,0,0,0,0,0,0,0,0,0,0,0,0,0,0,0,0,0,0,0,0,0,0,0,0,0,0,0,0,0,0,0,0,0,0,0,0,0,0,0,0,0,0,0,0,0,0,0,0,0,0,0,0,0,0,0,0,0,0,0,0,0,0,0,0,0,0,0,0,0,0,0,0,0,0,0,0,0,0,0,0,0,0,0,0,0,0,0,0,0,0,0,0,0,0,0,0,0,0,0,0,0,0,0,0,0,0,0,0,0,0,0,0,0,0,0,0,0,0,0,0,0,0,0,0,0,0,0,0,0,0,0,0,0,0,0,0,0,0,0,0,0,0,0,0,0,0,0,0,0,0,0,0,0,0,0,0,0,0,0,0,0,0,0,0,0,0,0,0,0,0,0,0,0,0,0,0,0,0,0,0,0,0,0,0,0,0,0,0,0,0,0,0,0,0,0,0,0,0,0,0,0,0,0,0,0,0,0,0,0,0,0,0,0,0,0,0,0,0,0,0,0,0,0,0,0,0,0,0,0,0,0,0,0,0,0,0,0
</data>
 </layer>
 <layer id="19" name="tron2" width="250" height="110">
  <data encoding="csv">
0,0,0,0,0,0,0,0,0,0,0,0,0,0,0,0,0,0,0,0,0,0,0,0,0,0,0,0,0,0,0,0,0,0,0,0,0,0,0,0,0,0,0,0,0,0,0,0,0,0,0,0,0,0,0,0,0,0,0,0,0,0,0,0,0,0,0,0,0,0,0,0,0,0,0,0,0,0,0,0,0,0,0,0,0,0,0,0,0,0,0,0,0,0,0,0,0,0,0,0,0,0,0,0,0,0,0,0,0,0,0,0,0,0,0,0,0,0,0,0,0,0,0,0,0,0,0,0,0,0,0,0,0,0,0,0,0,0,0,0,0,0,0,0,0,0,0,0,0,0,0,0,0,0,0,0,0,0,0,0,0,0,0,0,0,0,0,0,0,0,0,0,0,0,0,0,0,0,0,0,0,0,0,0,0,0,0,0,0,0,0,0,0,0,0,0,0,0,0,0,0,0,0,0,0,0,0,0,0,0,0,0,0,0,0,0,0,0,0,0,0,0,0,0,0,0,0,0,0,0,0,0,0,0,0,0,0,0,0,0,0,0,0,0,0,0,0,0,0,0,
0,0,0,0,0,0,0,0,0,0,0,0,0,0,0,0,0,0,0,0,0,0,0,0,0,0,0,0,0,0,0,0,0,0,0,0,0,0,0,0,0,0,0,0,0,0,0,0,0,0,0,0,0,0,0,0,0,0,0,0,0,0,0,0,0,0,0,0,0,0,0,0,0,0,0,0,0,0,0,0,0,0,0,0,0,0,0,0,0,0,0,0,0,0,0,0,0,0,0,0,0,0,0,0,0,0,0,0,0,0,0,0,0,0,0,0,0,0,0,0,0,0,0,0,0,0,0,0,0,0,0,0,0,0,0,0,0,0,0,0,0,0,0,0,0,0,0,0,0,0,0,0,0,0,0,0,0,0,0,0,0,0,0,0,0,0,0,0,0,0,0,0,0,0,0,0,0,0,0,0,0,0,0,0,0,0,0,0,0,0,0,0,0,0,0,0,0,0,0,0,0,0,0,0,0,0,0,0,0,0,0,0,0,0,0,0,0,0,0,0,0,0,0,0,0,0,0,0,0,0,0,0,0,0,0,0,0,0,0,0,0,0,0,0,0,0,0,0,0,0,
0,0,0,0,0,0,0,0,0,0,0,0,0,0,0,0,0,0,0,0,0,0,0,0,0,0,0,0,0,0,0,0,0,0,0,0,0,0,0,0,0,0,0,0,0,0,0,0,0,0,0,0,0,0,0,0,0,0,0,0,0,0,0,0,0,0,0,0,0,0,0,0,0,0,0,0,0,0,0,0,0,0,0,0,0,0,0,0,0,0,0,0,0,0,0,0,0,0,0,0,0,0,0,0,0,0,0,0,0,0,0,0,0,0,0,0,0,0,0,0,0,0,0,0,0,0,0,0,0,0,0,0,0,0,0,0,0,0,0,0,0,0,0,0,0,0,0,0,0,0,0,0,0,0,0,0,0,0,0,0,0,0,0,0,0,0,0,0,0,0,0,0,0,0,0,0,0,0,0,0,0,0,0,0,0,0,0,0,0,0,0,0,0,0,0,0,0,0,0,0,0,0,0,0,0,0,0,0,0,0,0,0,0,0,0,0,0,0,0,0,0,0,0,0,0,0,0,0,0,0,0,0,0,0,0,0,0,0,0,0,0,0,0,0,0,0,0,0,0,0,
0,0,0,0,0,0,0,0,0,0,0,0,0,0,0,0,0,0,0,0,0,0,0,0,0,0,0,0,0,0,0,0,0,0,0,0,0,0,0,0,0,0,0,0,0,0,0,0,0,0,0,0,0,0,0,0,0,0,0,0,0,0,0,0,0,0,0,0,0,0,0,0,0,0,0,0,0,0,0,0,0,0,0,0,0,0,0,0,0,0,0,0,0,0,0,0,0,0,0,0,0,0,0,0,0,0,0,0,0,0,0,0,0,0,0,0,0,0,0,0,0,0,0,0,0,0,0,0,0,0,0,0,0,0,0,0,0,0,0,0,0,0,0,0,0,0,0,0,0,0,0,0,0,0,0,0,0,0,0,0,0,0,0,0,0,0,0,0,0,0,0,0,0,0,0,0,0,0,0,0,0,0,0,0,0,0,0,0,0,0,0,0,0,0,0,0,0,0,0,0,0,0,0,0,0,0,0,0,0,0,0,0,0,0,0,0,0,0,0,0,0,0,0,0,0,0,0,0,0,0,0,0,0,0,0,0,0,0,0,0,0,0,0,0,0,0,0,0,0,0,
0,0,0,0,0,0,0,0,0,0,0,0,0,0,0,0,0,0,0,0,0,0,0,0,0,0,0,0,0,0,0,0,0,0,0,0,0,0,0,0,0,0,0,0,0,0,0,0,0,0,0,0,0,0,0,0,0,0,0,0,0,0,0,0,0,0,0,0,0,0,0,0,0,0,0,0,0,0,0,0,0,0,0,0,0,0,0,0,0,0,0,0,0,0,0,0,0,0,0,0,0,0,0,0,0,0,0,0,0,0,0,0,0,0,0,0,0,0,0,0,0,0,0,0,0,0,0,0,0,0,0,0,0,0,0,0,0,0,0,0,0,0,0,0,0,0,0,0,0,0,0,0,0,0,0,0,0,0,0,0,0,0,0,0,0,0,0,0,0,0,0,0,0,0,0,0,0,0,0,0,0,0,0,0,0,0,0,0,0,0,0,0,0,0,0,0,0,0,0,0,0,0,0,0,0,0,0,0,0,0,0,0,0,0,0,0,0,0,0,0,0,0,0,0,0,0,0,0,0,0,0,0,0,0,0,0,0,0,0,0,0,0,0,0,0,0,0,0,0,0,
0,0,0,0,0,0,0,0,0,0,0,0,0,0,0,0,0,0,0,0,0,0,0,0,0,0,0,0,0,0,0,0,0,0,0,0,0,0,0,0,0,0,0,0,0,0,0,0,0,0,0,0,0,0,0,0,0,0,0,0,0,0,0,0,0,0,0,0,0,0,0,0,0,0,0,0,0,0,0,0,0,0,0,0,0,0,0,0,0,0,0,0,0,0,0,0,0,0,0,0,0,0,0,0,0,0,0,0,0,0,0,0,0,0,0,0,0,0,0,0,0,0,0,0,0,0,0,0,0,0,0,0,0,0,0,0,0,0,0,0,0,0,0,0,0,0,0,0,0,0,0,0,0,0,0,0,0,0,0,0,0,0,0,0,0,0,0,0,0,0,0,0,0,0,0,0,0,0,0,0,0,0,0,0,0,0,0,0,0,0,0,0,0,0,0,0,0,0,0,0,0,0,0,0,0,0,0,0,0,0,0,0,0,0,0,0,0,0,0,0,0,0,0,0,0,0,0,0,0,0,0,0,0,0,0,0,0,0,0,0,0,0,0,0,0,0,0,0,0,0,
0,0,0,0,0,0,0,0,0,0,0,0,0,0,0,0,0,0,0,0,0,0,0,0,0,0,0,0,0,0,0,0,0,0,0,0,0,0,0,0,0,0,0,0,0,0,0,0,0,0,0,0,0,0,0,0,0,0,0,0,0,0,0,0,0,0,0,0,0,0,0,0,0,0,0,0,0,0,0,0,0,0,0,0,0,0,0,0,0,0,0,0,0,0,0,0,0,0,0,0,0,0,0,0,0,0,0,0,0,0,0,0,0,0,0,0,0,0,0,0,0,0,0,0,0,0,0,0,0,0,0,0,0,0,0,0,0,0,0,0,0,0,0,0,0,0,0,0,0,0,0,0,0,0,0,0,0,0,0,0,0,0,0,0,0,0,0,0,0,0,0,0,0,0,0,0,0,0,0,0,0,0,0,0,0,0,0,0,0,0,0,0,0,0,0,0,0,0,0,0,0,0,0,0,0,0,0,0,0,0,0,0,0,0,0,0,0,0,0,0,0,0,0,0,0,0,0,0,0,0,0,0,0,0,0,0,0,0,0,0,0,0,0,0,0,0,0,0,0,0,
0,0,0,0,0,0,0,0,0,0,0,0,0,0,0,0,0,0,0,0,0,0,0,0,0,0,0,0,0,0,0,0,0,0,0,0,0,0,0,0,0,0,0,0,0,0,0,0,0,0,0,0,0,0,0,0,0,0,0,0,0,0,0,0,0,0,0,0,0,0,0,0,0,0,0,0,0,0,0,0,0,0,0,0,0,0,0,0,0,0,0,0,0,0,0,0,0,0,0,0,0,0,0,0,0,0,0,0,0,0,0,0,0,0,0,0,0,0,0,0,0,0,0,0,0,0,0,0,0,0,0,0,0,0,0,0,0,0,0,0,0,0,0,0,0,0,0,0,0,0,0,0,0,0,0,0,0,0,0,0,0,0,0,0,0,0,0,0,0,0,0,0,0,0,0,0,0,0,0,0,0,0,0,0,0,0,0,0,0,0,0,0,0,0,0,0,0,0,0,0,0,0,0,0,0,0,0,0,0,0,0,0,0,0,0,0,0,0,0,0,0,0,0,0,0,0,0,0,0,0,0,0,0,0,0,0,0,0,0,0,0,0,0,0,0,0,0,0,0,0,
0,0,0,0,0,0,0,0,0,0,0,0,0,0,0,0,0,0,0,0,0,0,0,0,0,0,0,0,0,0,0,0,0,0,0,0,0,0,0,0,0,0,0,0,0,0,0,0,0,0,0,0,0,0,0,0,0,0,0,0,0,0,0,0,0,0,0,0,0,0,0,0,0,0,0,0,0,0,0,0,0,0,0,0,0,0,0,0,0,0,0,0,0,0,0,0,0,0,0,0,0,0,0,0,0,0,0,0,0,0,0,0,0,0,0,0,0,0,0,0,0,0,0,0,0,0,0,0,0,0,0,0,0,0,0,0,0,0,0,0,0,0,0,0,0,0,0,0,0,0,0,0,0,0,0,0,0,0,0,0,0,0,0,0,0,0,0,0,0,0,0,0,0,0,0,0,0,0,0,0,0,0,0,0,0,0,0,0,0,0,0,0,0,0,0,0,0,0,0,0,0,0,0,0,0,0,0,0,0,0,0,0,0,0,0,0,0,0,0,0,0,0,0,0,0,0,0,0,0,0,0,0,0,0,0,0,0,0,0,0,0,0,0,0,0,0,0,0,0,0,
0,0,0,0,0,0,0,0,0,0,0,0,0,0,0,0,0,0,0,0,0,0,0,0,0,0,0,0,0,0,0,0,0,0,0,0,0,0,0,0,0,0,0,0,0,0,0,0,0,0,0,0,0,0,0,0,0,0,0,0,0,0,0,0,0,0,0,0,0,0,0,0,0,0,0,0,0,0,0,0,0,0,0,0,0,0,0,0,0,0,0,0,0,0,0,0,0,0,0,0,0,0,0,0,0,0,0,0,0,0,0,0,0,0,0,0,0,0,0,0,0,0,0,0,0,0,0,0,0,0,0,0,0,0,0,0,0,0,0,0,0,0,0,0,0,0,0,0,0,0,0,0,0,0,0,0,0,0,0,0,0,0,0,0,0,0,0,0,0,0,0,0,0,0,0,0,0,0,0,0,0,0,0,0,0,0,0,0,0,0,0,0,0,0,0,0,0,0,0,0,0,0,0,0,0,0,0,0,0,0,0,0,0,0,0,0,0,0,0,0,0,0,0,0,0,0,0,0,0,0,0,0,0,0,0,0,0,0,0,0,0,0,0,0,0,0,0,0,0,0,
0,0,0,0,0,0,0,0,0,0,0,0,0,0,0,0,0,0,0,0,0,0,0,0,0,0,0,0,0,0,0,0,0,0,0,0,0,0,0,0,0,0,0,0,0,0,0,0,0,0,0,0,0,0,0,0,0,0,0,0,0,0,0,0,0,0,0,0,0,0,0,0,0,0,0,0,0,0,0,0,0,0,0,0,0,0,0,0,0,0,0,0,0,0,0,0,0,0,0,0,0,0,0,0,0,0,0,0,0,0,0,0,0,0,0,0,0,0,0,0,0,0,0,0,0,0,0,0,0,0,0,0,0,0,0,0,0,0,0,0,0,0,0,0,0,0,0,0,0,0,0,0,0,0,0,0,0,0,0,0,0,0,0,0,0,0,0,0,0,0,0,0,0,0,0,0,0,0,0,0,0,0,0,0,0,0,0,0,0,0,0,0,0,0,0,0,0,0,0,0,0,0,0,0,0,0,0,0,0,0,0,0,0,0,0,0,0,0,0,0,0,0,0,0,0,0,0,0,0,0,0,0,0,0,0,0,0,0,0,0,0,0,0,0,0,0,0,0,0,0,
0,0,0,0,0,0,0,0,0,0,0,0,0,0,0,0,0,0,0,0,0,0,0,0,0,0,0,0,0,0,0,0,0,0,0,0,0,0,0,0,0,0,0,0,0,0,0,0,0,0,0,0,0,0,0,0,0,0,0,0,0,0,0,0,0,0,0,0,0,0,0,0,0,0,0,0,0,0,0,0,0,0,0,0,0,0,0,0,0,0,0,0,0,0,0,0,0,0,0,0,0,0,0,0,0,0,0,0,0,0,0,0,0,0,0,0,0,0,0,0,0,0,0,0,0,0,0,0,0,0,0,0,0,0,0,0,0,0,0,0,0,0,0,0,0,0,0,0,0,0,0,0,0,0,0,0,0,0,0,0,0,0,0,0,0,0,0,0,0,0,0,0,0,0,0,0,0,0,0,0,0,0,0,0,0,0,0,0,0,0,0,0,0,0,0,0,0,0,0,0,0,0,0,0,0,0,0,0,0,0,0,0,0,0,0,0,0,0,0,0,0,0,0,0,0,0,0,0,0,0,0,0,0,0,0,0,0,0,0,0,0,0,0,0,0,0,0,0,0,0,
0,0,0,0,0,0,0,0,0,0,0,0,0,0,0,0,0,0,0,0,0,0,0,0,0,0,0,0,0,0,0,0,0,0,0,0,0,0,0,0,0,0,0,0,0,0,0,0,0,0,0,0,0,0,0,0,0,0,0,0,0,0,0,0,0,0,0,0,0,0,0,0,0,0,0,0,0,0,0,0,0,0,0,0,0,0,0,0,0,0,0,0,0,0,0,0,0,0,0,0,0,0,0,0,0,0,0,0,0,0,0,0,0,0,0,0,0,0,0,0,0,0,0,0,0,0,0,0,0,0,0,0,0,0,0,0,0,0,0,0,0,0,0,0,0,0,0,0,0,0,0,0,0,0,0,0,0,0,0,0,0,0,0,0,0,0,0,0,0,0,0,0,0,0,0,0,0,0,0,0,0,0,0,0,0,0,0,0,0,0,0,0,0,0,0,0,0,0,0,0,0,0,0,0,0,0,0,0,0,0,0,0,0,0,0,0,0,0,0,0,0,0,0,0,0,0,0,0,0,0,0,0,0,0,0,0,0,0,0,0,0,0,0,0,0,0,0,0,0,0,
0,0,0,0,0,0,0,0,0,0,0,0,0,0,0,0,0,0,0,0,0,0,0,0,0,0,0,0,0,0,0,0,0,0,0,0,0,0,0,0,0,0,0,0,0,0,0,0,0,0,0,0,0,0,0,0,0,0,0,0,0,0,0,0,0,0,0,0,0,0,0,0,0,0,0,0,0,0,0,0,0,0,0,0,0,0,0,0,0,0,0,0,0,0,0,0,0,0,0,0,0,0,0,0,0,0,0,0,0,0,0,0,0,0,0,0,0,0,0,0,0,0,0,0,0,0,0,0,0,0,0,0,0,0,0,0,0,0,0,0,0,0,0,0,0,0,0,0,0,0,0,0,0,0,0,0,0,0,0,0,0,0,0,0,0,0,0,0,0,0,0,0,0,0,0,0,0,0,0,0,0,0,0,0,0,0,0,0,0,0,0,0,0,0,0,0,0,0,0,0,0,0,0,0,0,0,0,0,0,0,0,0,0,0,0,0,0,0,0,0,0,0,0,0,0,0,0,0,0,0,0,0,0,0,0,0,0,0,0,0,0,0,0,0,0,0,0,0,0,0,
0,0,0,0,0,0,0,0,0,0,0,0,0,0,0,0,0,0,0,0,0,0,0,0,0,0,0,0,0,0,0,0,0,0,0,0,0,0,0,0,0,0,0,0,0,0,0,0,0,0,0,0,0,0,0,0,0,0,0,0,0,0,0,0,0,0,0,0,0,0,0,0,0,0,0,0,0,0,0,0,0,0,0,0,0,0,0,0,0,0,0,0,0,0,0,0,0,0,0,0,0,0,0,0,0,0,0,0,0,0,0,0,0,0,0,0,0,0,0,0,0,0,0,0,0,0,0,0,0,0,0,0,0,0,0,0,0,0,0,0,0,0,0,0,0,0,0,0,0,0,0,0,0,0,0,0,0,0,0,0,0,0,0,0,0,0,0,0,0,0,0,0,0,0,0,0,0,0,0,0,0,0,0,0,0,0,0,0,0,0,0,0,0,0,0,0,0,0,0,0,0,0,0,0,0,0,0,0,0,0,0,0,0,0,0,0,0,0,0,0,0,0,0,0,0,0,0,0,0,0,0,0,0,0,0,0,0,0,0,0,0,0,0,0,0,0,0,0,0,0,
0,0,0,0,0,0,0,0,0,0,0,0,0,0,0,0,0,0,0,0,0,0,0,0,0,0,0,0,0,0,0,0,0,0,0,0,0,0,0,0,0,0,0,0,0,0,0,0,0,0,0,0,0,0,0,0,0,0,0,0,0,0,0,0,0,0,0,0,0,0,0,0,0,0,0,0,0,0,0,0,0,0,0,0,0,0,0,0,0,0,0,0,0,0,0,0,0,0,0,0,0,0,0,0,0,0,0,0,0,0,0,0,0,0,0,0,0,0,0,0,0,0,0,0,0,0,0,0,0,0,0,0,0,0,0,0,0,0,0,0,0,0,0,0,0,0,0,0,0,0,0,0,0,0,0,0,0,0,0,0,0,0,0,0,0,0,0,0,0,0,0,0,0,0,0,0,0,0,0,0,0,0,0,0,0,0,0,0,0,0,0,0,0,0,0,0,0,0,0,0,0,0,0,0,0,0,0,0,0,0,0,0,0,0,0,0,0,0,0,0,0,0,0,0,0,0,0,0,0,0,0,0,0,0,0,0,0,0,0,0,0,0,0,0,0,0,0,0,0,0,
0,0,0,0,0,0,0,0,0,0,0,0,0,0,0,0,0,0,0,0,0,0,0,0,0,0,0,0,0,0,0,0,0,0,0,0,0,0,0,0,0,0,0,0,0,0,0,0,0,0,0,0,0,0,0,0,0,0,0,0,0,0,0,0,0,0,0,0,0,0,0,0,0,0,0,0,0,0,0,0,0,0,0,0,0,0,0,0,0,0,0,0,0,0,0,0,0,0,0,0,0,0,0,0,0,0,0,0,0,0,0,0,0,0,0,0,0,0,0,0,0,0,0,0,0,0,0,0,0,0,0,0,0,0,0,0,0,0,0,0,0,0,0,0,0,0,0,0,0,0,0,0,0,0,0,0,0,0,0,0,0,0,0,0,0,0,0,0,0,0,0,0,0,0,0,0,0,0,0,0,0,0,0,0,0,0,0,0,0,0,0,0,0,0,0,0,0,0,0,0,0,0,0,0,0,0,0,0,0,0,0,0,0,0,0,0,0,0,0,0,0,0,0,0,0,0,0,0,0,0,0,0,0,0,0,0,0,0,0,0,0,0,0,0,0,0,0,0,0,0,
0,0,0,0,0,0,0,0,0,0,0,0,0,0,0,0,0,0,0,0,0,0,0,0,0,0,0,0,0,0,0,0,0,0,0,0,0,0,0,0,0,0,0,0,0,0,0,0,0,0,0,0,0,0,0,0,0,0,0,0,0,0,0,0,0,0,0,0,0,0,0,0,0,0,0,0,0,0,0,0,0,0,0,0,0,0,0,0,0,0,0,0,0,0,0,0,0,0,0,0,0,0,0,0,0,0,0,0,0,0,0,0,0,0,0,0,0,0,0,0,0,0,0,0,0,0,0,0,0,0,0,0,0,0,0,0,0,0,0,0,0,0,0,0,0,0,0,0,0,0,0,0,0,0,0,0,0,0,0,0,0,0,0,0,0,0,0,0,0,0,0,0,0,0,0,0,0,0,0,0,0,0,0,0,0,0,0,0,0,0,0,0,0,0,0,0,0,0,0,0,0,0,0,0,0,0,0,0,0,0,0,0,0,0,0,0,0,0,0,8830,8831,8832,8833,8834,8835,8836,0,0,0,0,0,0,0,0,0,0,0,0,0,0,0,0,0,0,0,0,0,0,0,0,
0,0,0,0,0,0,0,0,0,0,0,0,0,0,0,0,0,0,0,0,0,0,0,0,0,0,0,0,0,0,0,0,0,0,0,0,0,0,0,0,0,0,0,0,0,0,0,0,0,0,0,0,0,0,0,0,0,0,0,0,0,0,0,0,0,0,0,0,0,0,0,0,0,0,0,0,0,0,0,0,0,0,0,0,0,0,0,0,0,0,0,0,0,0,0,0,0,0,0,0,0,0,0,0,0,0,0,0,0,0,0,0,0,0,0,0,0,0,0,0,0,0,0,0,0,0,0,0,0,0,0,0,0,0,0,0,0,0,0,0,0,0,0,0,0,0,0,0,0,0,0,0,0,0,0,0,0,0,0,0,0,0,0,0,0,0,0,0,0,0,0,0,0,0,0,0,0,0,0,0,0,0,0,0,0,0,0,0,0,0,0,0,0,0,0,0,0,0,0,0,0,0,0,0,0,0,0,0,0,0,0,0,0,0,0,0,0,0,0,8894,8895,8896,8897,8898,8899,8900,0,0,0,0,0,0,0,0,0,0,0,0,0,0,0,0,0,0,0,0,0,0,0,0,
0,0,0,0,0,0,0,0,0,0,0,0,0,0,0,0,0,0,0,0,0,0,0,0,0,0,0,0,0,0,0,0,0,0,0,0,0,0,0,0,0,0,0,0,0,0,0,0,0,0,0,0,0,0,0,0,0,0,0,0,0,0,0,0,0,0,0,0,0,0,0,0,0,0,0,0,0,0,0,0,0,0,0,0,0,0,0,0,0,0,0,0,0,0,0,0,0,0,0,0,0,0,0,0,0,0,0,0,0,0,0,0,0,0,0,0,0,0,0,0,0,0,0,0,0,0,0,0,0,0,0,0,0,0,0,0,0,0,0,0,0,0,0,0,0,0,0,0,0,0,0,0,0,0,0,0,0,0,0,0,0,0,0,0,0,0,0,0,0,0,0,0,0,0,0,0,0,0,0,0,0,0,0,0,0,0,0,0,0,0,0,0,0,0,0,0,0,0,0,0,0,0,0,0,0,0,0,0,0,0,0,0,0,0,0,0,0,0,0,8958,8959,8960,8961,8962,8963,8964,0,0,0,0,0,0,0,0,0,0,0,0,0,0,0,0,0,0,0,0,0,0,0,0,
0,0,0,0,0,0,0,0,0,0,0,0,0,0,0,0,0,0,0,0,0,0,0,0,0,0,0,0,0,0,0,0,0,0,0,0,0,0,0,0,0,0,0,0,0,0,0,0,0,0,0,0,0,0,0,0,0,0,0,0,0,0,0,0,0,0,0,0,0,0,0,0,0,0,0,0,0,0,0,0,0,0,0,0,0,0,0,0,0,0,0,0,0,0,0,0,0,0,0,0,0,0,0,0,0,0,0,0,0,0,0,0,0,0,0,0,0,0,0,0,0,0,0,0,0,0,0,0,0,0,0,0,0,0,0,0,0,0,0,0,0,0,0,0,0,0,0,0,0,0,0,0,0,0,0,0,0,0,0,0,0,0,0,0,0,0,0,0,0,0,0,0,0,0,0,0,0,0,0,0,0,0,0,0,0,0,0,0,0,0,0,0,0,0,0,0,0,0,0,0,0,0,0,0,0,0,0,0,0,0,0,0,0,0,0,0,0,0,0,9022,9023,9024,9025,9026,9027,9028,0,0,0,0,0,0,0,0,0,0,0,0,0,0,0,0,0,0,0,0,0,0,0,0,
0,0,0,0,0,0,0,0,0,0,0,0,0,0,0,0,0,0,0,0,0,0,0,0,0,0,0,0,0,0,0,0,0,0,0,0,0,0,0,0,0,0,0,0,0,0,0,0,0,0,0,0,0,0,0,0,0,0,0,0,0,0,0,0,0,0,0,0,0,0,0,0,0,0,0,0,0,0,0,0,0,0,0,0,0,0,0,0,0,0,0,0,0,0,0,0,0,0,0,0,0,0,0,0,0,0,0,0,0,0,0,0,0,0,0,0,0,0,0,0,0,0,0,0,0,0,0,0,0,0,0,0,0,0,0,0,0,0,0,0,0,0,0,0,0,0,0,0,0,0,0,0,0,0,0,0,0,0,0,0,0,0,0,0,0,0,0,0,0,0,0,0,0,0,0,0,0,0,0,0,0,0,0,0,0,0,0,0,0,0,0,0,0,0,0,0,0,0,0,0,0,0,0,0,0,0,0,0,0,0,0,0,0,0,0,0,0,0,0,9086,9087,9088,9089,9090,9091,9092,0,0,0,0,0,0,0,0,0,0,0,0,0,0,0,0,0,0,0,0,0,0,0,0,
0,0,0,0,0,0,0,0,0,0,0,0,0,0,0,0,0,0,0,0,0,0,0,0,0,0,0,0,0,0,0,0,0,0,0,0,0,0,0,0,0,0,0,0,0,0,0,0,0,0,0,0,0,0,0,0,0,0,0,0,0,0,0,0,0,0,0,0,0,0,0,0,0,0,0,0,0,0,0,0,0,0,0,0,0,0,0,0,0,0,0,0,0,0,0,0,0,0,0,0,0,0,0,0,0,0,0,0,0,0,0,0,0,0,0,0,0,0,0,0,0,0,0,0,0,0,0,0,0,0,0,0,0,0,0,0,0,0,0,0,0,0,0,0,0,0,0,0,0,0,0,0,0,0,0,0,0,0,0,0,0,0,0,0,0,0,0,0,0,0,0,0,0,0,0,0,0,0,0,0,0,0,0,0,0,0,0,0,0,0,0,0,0,0,0,0,0,0,0,0,0,0,0,0,0,0,0,0,0,0,0,0,0,0,0,0,0,0,0,9150,9151,9152,9153,9154,9155,9156,0,0,0,0,0,0,0,0,0,0,0,0,0,0,0,0,0,0,0,0,0,0,0,0,
0,0,0,0,0,0,0,0,0,0,0,0,0,0,0,0,0,0,0,0,0,0,0,0,0,0,0,0,0,0,0,0,0,0,0,0,0,0,0,0,0,0,0,0,0,0,0,0,0,0,0,0,0,0,0,0,0,0,0,0,0,0,0,0,0,0,0,0,0,0,0,0,0,0,0,0,0,0,0,0,0,0,0,0,0,0,0,0,0,0,0,0,0,0,0,0,0,0,0,0,0,0,0,0,0,0,0,0,0,0,0,0,0,0,0,0,0,0,0,0,0,0,0,0,0,0,0,0,0,0,0,0,0,0,0,0,0,0,0,0,0,0,0,0,0,0,0,0,0,0,0,0,0,0,0,0,0,0,0,0,0,0,0,0,0,0,0,0,0,0,0,0,0,0,0,0,0,0,0,0,0,0,0,0,0,0,0,0,0,0,0,0,0,0,0,0,0,0,0,0,0,0,0,0,0,0,0,0,0,0,0,0,0,0,0,0,0,0,0,0,0,0,0,0,0,0,0,0,0,0,0,0,0,0,0,0,0,0,0,0,0,0,0,0,0,0,0,0,0,0,
0,0,0,0,0,0,0,0,0,0,0,0,0,0,0,0,0,0,0,0,0,0,0,0,0,0,0,0,0,0,0,0,0,0,0,0,0,0,0,0,0,0,0,0,0,0,0,0,0,0,0,0,0,0,0,0,0,0,0,0,0,0,0,0,0,0,0,0,0,0,0,0,0,0,0,0,0,0,0,0,0,0,0,0,0,0,0,0,0,0,0,0,0,0,0,0,0,0,0,0,0,0,0,0,0,0,0,0,0,0,0,0,0,0,0,0,0,0,0,0,0,0,0,0,0,0,0,0,0,0,0,0,0,0,0,0,0,0,0,0,0,0,0,0,0,0,0,0,0,0,0,0,0,0,0,0,0,0,0,0,0,0,0,0,0,0,0,0,0,0,0,0,0,0,0,0,0,0,0,0,0,0,0,0,0,0,0,0,0,0,0,0,0,0,0,0,0,0,0,0,0,0,0,0,0,0,0,0,0,0,0,0,0,0,0,0,0,0,0,0,0,0,0,0,0,0,0,0,0,0,0,0,0,0,0,0,0,0,0,0,0,0,0,0,0,0,0,0,0,0,
0,0,0,0,0,0,0,0,0,0,0,0,0,0,0,0,0,0,0,0,0,0,0,0,0,0,0,0,0,0,0,0,0,0,0,0,0,0,0,0,0,0,0,0,0,0,0,0,0,0,0,0,0,0,0,0,0,0,0,0,0,0,0,0,0,0,0,0,0,0,0,0,0,0,0,0,0,0,0,0,0,0,0,0,0,0,0,0,0,0,0,0,0,0,0,0,0,0,0,0,0,0,0,0,0,0,0,0,0,0,0,0,0,0,0,0,0,0,0,0,0,0,0,0,0,0,0,0,0,0,0,0,0,0,0,0,0,0,0,0,0,0,0,0,0,0,0,0,0,0,0,0,0,0,0,0,0,0,0,0,0,0,0,0,0,0,0,0,0,0,0,0,0,0,0,0,0,0,0,0,0,0,0,0,0,0,0,0,0,0,0,0,0,0,0,0,0,0,0,0,0,0,0,0,0,0,0,0,0,0,0,0,0,0,0,0,0,0,0,0,0,0,0,0,0,0,0,0,0,0,0,0,0,0,0,0,0,0,0,0,0,0,0,0,0,0,0,0,0,0,
0,0,0,0,0,0,0,0,0,0,0,0,0,0,0,0,0,0,0,0,0,0,0,0,0,0,0,0,0,0,0,0,0,0,0,0,0,0,0,0,0,0,0,0,0,0,0,0,0,0,0,0,0,0,0,0,0,0,0,0,0,0,0,0,0,0,0,0,0,0,0,0,0,0,0,0,0,0,0,0,0,0,0,0,0,0,0,0,0,0,0,0,0,0,0,0,0,0,0,0,0,0,0,0,0,0,0,0,0,0,0,0,0,0,0,0,0,0,0,0,0,0,0,0,0,0,0,0,0,0,0,0,0,0,0,0,0,0,0,0,0,0,0,0,0,0,0,0,0,0,0,0,0,0,0,0,0,0,0,0,0,0,0,0,0,0,0,0,0,0,0,0,0,0,0,0,0,0,0,0,0,0,0,0,0,0,0,0,0,0,0,0,0,0,0,0,0,0,0,0,0,0,0,0,0,0,0,0,0,0,0,0,0,0,0,0,0,0,0,0,0,0,0,0,0,0,0,0,0,0,0,0,0,0,0,0,0,0,0,0,0,0,0,0,0,0,0,0,0,0,
0,0,0,0,0,0,0,0,0,0,0,0,0,0,0,0,0,0,0,0,0,0,0,0,0,0,0,0,0,0,0,0,0,0,0,0,0,0,0,0,0,0,0,0,0,0,0,0,0,0,0,0,0,0,0,0,0,0,0,0,0,0,0,0,0,0,0,0,0,0,0,0,0,0,0,0,0,0,0,0,0,0,0,0,0,0,0,0,0,0,0,0,0,0,0,0,0,0,0,0,0,0,0,0,0,0,0,0,0,0,0,0,0,0,0,0,0,0,0,0,0,0,0,0,0,0,0,0,0,0,0,0,0,0,0,0,0,0,0,0,0,0,0,0,0,0,0,0,0,0,0,0,0,0,0,0,0,0,0,0,0,0,0,0,0,0,0,0,0,0,0,0,0,0,0,0,0,0,0,0,0,0,0,0,0,0,0,0,0,0,0,0,0,0,0,0,0,0,0,0,0,0,0,0,0,0,0,0,0,0,0,0,0,0,0,0,0,0,0,0,0,0,0,0,0,0,0,0,0,0,0,0,0,0,0,0,0,0,0,0,0,0,0,0,0,0,0,0,0,0,
0,0,0,0,0,0,0,0,0,0,0,0,0,0,0,0,0,0,0,0,0,0,0,0,0,0,0,0,0,0,0,0,0,0,0,0,0,0,0,0,0,0,0,0,0,0,0,0,0,0,0,0,0,0,0,0,0,0,0,0,0,0,0,0,0,0,0,0,0,0,0,0,0,0,0,0,0,0,0,0,0,0,0,0,0,0,0,0,0,0,0,0,0,0,0,0,0,0,0,0,0,0,0,0,0,0,0,0,0,0,0,0,0,0,0,0,0,0,0,0,0,0,0,0,0,0,0,0,0,0,0,0,0,0,0,0,0,0,0,0,0,0,0,0,0,0,0,0,0,0,0,0,0,0,0,0,0,0,0,0,0,0,0,0,0,0,0,0,0,0,0,0,0,0,0,0,0,0,0,0,0,0,0,0,0,0,0,0,0,0,0,0,0,0,0,0,0,0,0,0,0,0,0,0,0,0,0,0,0,0,0,0,0,0,0,0,0,0,0,0,0,0,0,0,0,0,0,0,0,0,0,0,0,0,0,0,0,0,0,0,0,0,0,0,0,0,0,0,0,0,
0,0,0,0,0,0,0,0,0,0,0,0,0,0,0,0,0,0,0,0,0,0,0,0,0,0,0,0,0,0,0,0,0,0,0,0,0,0,0,0,0,0,0,0,0,0,0,0,0,0,0,0,0,0,0,0,0,0,0,0,0,0,0,0,0,0,0,0,0,0,0,0,0,0,0,0,0,0,0,0,0,0,0,0,0,0,0,0,0,0,0,0,0,0,0,0,0,0,0,0,0,0,0,0,0,0,0,0,0,0,0,0,0,0,0,0,0,0,0,0,0,0,0,0,0,0,0,0,0,0,0,0,0,0,0,0,0,0,0,0,0,0,0,0,0,0,0,0,0,0,0,0,0,0,0,0,0,0,0,0,0,0,0,0,0,0,0,0,0,0,0,0,0,0,0,0,0,0,0,0,0,0,0,0,0,0,0,0,0,0,0,0,0,0,0,0,0,0,0,0,0,0,0,0,0,0,0,0,0,0,0,0,0,0,0,0,0,0,0,0,0,0,0,0,0,0,0,0,0,0,0,0,0,0,0,0,0,0,0,0,0,0,0,0,0,0,0,0,0,0,
0,0,0,0,0,0,0,0,0,0,0,0,0,0,0,0,0,0,0,0,0,0,0,0,0,0,0,0,0,0,0,0,0,0,0,0,0,0,0,0,0,0,0,0,0,0,0,0,0,0,0,0,0,0,0,0,0,0,0,0,0,0,0,0,0,0,0,0,0,0,0,0,0,0,0,0,0,0,0,0,0,0,0,0,0,0,0,0,0,0,0,0,0,0,0,0,0,0,0,0,0,0,0,0,0,0,0,0,0,0,0,0,0,0,0,0,0,0,0,0,0,0,0,0,0,0,0,0,0,0,0,0,0,0,0,0,0,0,0,0,0,0,0,0,0,0,0,0,0,0,0,0,0,0,0,0,0,0,0,0,0,0,0,0,0,0,0,0,0,0,0,0,0,0,0,0,0,0,0,0,0,0,0,0,0,0,0,0,0,0,0,0,0,0,0,0,0,0,0,0,0,0,0,0,0,0,0,0,0,0,0,0,0,0,0,0,0,0,0,0,0,0,0,0,0,0,0,0,0,0,0,0,0,0,0,0,0,0,0,0,0,0,0,0,0,0,0,0,0,0,
0,0,0,0,0,0,0,0,0,0,0,0,0,0,0,0,0,0,0,0,0,0,0,0,0,0,0,0,0,0,0,0,0,0,0,0,0,0,0,0,0,0,0,0,0,0,0,0,0,0,0,0,0,0,0,0,0,0,0,0,0,0,0,0,0,0,0,0,0,0,0,0,0,0,0,0,0,0,0,0,0,0,0,0,0,0,0,0,0,0,0,0,0,0,0,0,0,0,0,0,0,0,0,0,0,0,0,0,0,0,0,0,0,0,0,0,0,0,0,0,0,0,0,0,0,0,0,0,0,0,0,0,0,0,0,0,0,0,0,0,0,0,0,0,0,0,0,0,0,0,0,0,0,0,0,0,0,0,0,0,0,0,0,0,0,0,0,0,0,0,0,0,0,0,0,0,0,0,0,0,0,0,0,0,0,0,0,0,0,0,0,0,0,0,0,0,0,0,0,0,0,0,0,0,0,0,0,0,0,0,0,0,0,0,0,0,0,0,0,0,0,0,0,0,0,0,0,0,0,0,0,0,0,0,0,0,0,0,0,0,0,0,0,0,0,0,0,0,0,0,
0,0,0,0,0,0,0,0,0,0,0,0,0,0,0,0,0,0,0,0,0,0,0,0,0,0,0,0,0,0,0,0,0,0,0,0,0,0,0,0,0,0,0,0,0,0,0,0,0,0,0,0,0,0,0,0,0,0,0,0,0,0,0,0,0,0,0,0,0,0,0,0,0,0,0,0,0,0,0,0,0,0,0,0,0,0,0,0,0,0,0,0,0,0,0,0,0,0,0,0,0,0,0,0,0,0,0,0,0,0,0,0,0,0,0,0,0,0,0,0,0,0,0,0,0,0,0,0,0,0,0,0,0,0,0,0,0,0,0,0,0,0,0,0,0,0,0,0,0,0,0,0,0,0,0,0,0,0,0,0,0,0,0,0,0,0,0,0,0,0,0,0,0,0,0,0,0,0,0,0,0,0,0,0,0,0,0,0,0,0,0,0,0,0,0,0,0,0,0,0,0,0,0,0,0,0,0,0,0,0,0,0,0,0,0,0,0,0,0,0,0,0,0,0,0,0,0,0,0,0,0,0,0,0,0,0,0,0,0,0,0,0,0,0,0,0,0,0,0,0,
0,0,0,0,0,0,0,0,0,0,0,0,0,0,0,0,0,0,0,0,0,0,0,0,0,0,0,0,0,0,0,0,0,0,0,0,0,0,0,0,0,0,0,0,0,0,0,0,0,0,0,0,0,0,0,0,0,0,0,0,0,0,0,0,0,0,0,0,0,0,0,0,0,0,0,0,0,0,0,0,0,0,0,0,0,0,0,0,0,0,0,0,0,0,0,0,0,0,0,0,0,0,0,0,0,0,0,0,0,0,0,0,0,0,0,0,0,0,0,0,0,0,0,0,0,0,0,0,0,0,0,0,0,0,0,0,0,0,0,0,0,0,0,0,0,0,0,0,0,0,0,0,0,0,0,0,0,0,0,0,0,0,0,0,0,0,0,0,0,0,0,0,0,0,0,0,0,0,0,0,0,0,0,0,0,0,0,0,0,0,0,0,0,0,0,0,0,0,0,0,0,0,0,0,0,0,0,0,0,0,0,0,0,0,0,0,0,0,0,0,0,0,0,0,0,0,0,0,0,0,0,0,0,0,0,0,0,0,0,0,0,0,0,0,0,0,0,0,0,0,
0,0,0,0,0,0,0,0,0,0,0,0,0,0,0,0,0,0,0,0,0,0,0,0,0,0,0,0,0,0,0,0,0,0,0,0,0,0,0,0,0,0,0,0,0,0,0,0,0,0,0,0,0,0,0,0,0,0,0,0,0,0,0,0,0,0,0,0,0,0,0,0,0,0,0,0,0,0,0,0,0,0,0,0,0,0,0,0,0,0,0,0,0,0,0,0,0,0,0,0,0,0,0,0,0,0,0,0,0,0,0,0,0,0,0,0,0,0,0,0,0,0,0,0,0,0,0,0,0,0,0,0,0,0,0,0,0,0,0,0,0,0,0,0,0,0,0,0,0,0,0,0,0,0,0,0,0,0,0,0,0,0,0,0,0,0,0,0,0,0,0,0,0,0,0,0,0,0,0,0,0,0,0,0,0,0,0,0,0,0,0,0,0,0,0,0,0,0,0,0,0,0,0,0,0,0,0,0,0,0,0,0,0,0,0,0,0,0,0,0,0,0,0,0,0,0,0,0,0,0,0,0,0,0,0,0,0,0,0,0,0,0,0,0,0,0,0,0,0,0,
0,0,0,0,0,0,0,0,0,0,0,0,0,0,0,0,0,0,0,0,0,0,0,0,0,0,0,0,0,0,0,0,0,0,0,0,0,0,0,0,0,0,0,0,0,0,0,0,0,0,0,0,0,0,0,0,0,0,0,0,0,0,0,0,0,0,0,0,0,0,0,0,0,0,0,0,0,0,0,0,0,0,0,0,0,0,0,0,0,0,0,0,0,0,0,0,0,0,0,0,0,0,0,0,0,0,0,0,0,0,0,0,0,0,0,0,0,0,0,0,0,0,0,0,0,0,0,0,0,0,0,0,0,0,0,0,0,0,0,0,0,0,0,0,0,0,0,0,0,0,0,0,0,0,0,0,0,0,0,0,0,0,0,0,0,0,0,0,0,0,0,0,0,0,0,0,0,0,0,0,0,0,0,0,0,0,0,0,0,0,0,0,0,0,0,0,0,0,0,0,0,0,0,0,0,0,0,0,0,0,0,0,0,0,0,0,0,0,0,0,0,0,0,0,0,0,0,0,0,0,0,0,0,0,0,0,0,0,0,0,0,0,0,0,0,0,0,0,0,0,
0,0,0,0,0,0,0,0,0,0,0,0,0,0,0,0,0,0,0,0,0,0,0,0,0,0,0,0,0,0,0,0,0,0,0,0,0,0,0,0,0,0,0,0,0,0,0,0,0,0,0,0,0,0,0,0,0,0,0,0,0,0,0,0,0,0,0,0,0,0,0,0,0,0,0,0,0,0,0,0,0,0,0,0,0,0,0,0,0,0,0,0,0,0,0,0,0,0,0,0,0,0,0,0,0,0,0,0,0,0,0,0,0,0,0,0,0,0,0,0,0,0,0,0,0,0,0,0,0,0,0,0,0,0,0,0,0,0,0,0,0,0,0,0,0,0,0,0,0,0,0,0,0,0,0,0,0,0,0,0,0,0,0,0,0,0,0,0,0,0,0,0,0,0,0,0,0,0,0,0,0,0,0,0,0,0,0,0,0,0,0,0,0,0,0,0,0,0,0,0,0,0,0,0,0,0,0,0,0,0,0,0,0,0,0,0,0,0,0,0,0,0,0,0,0,0,0,0,0,0,0,0,0,0,0,0,0,0,0,0,0,0,0,0,0,0,0,0,0,0,
0,0,0,0,0,0,0,0,0,0,0,0,0,0,0,0,0,0,0,0,0,0,0,0,0,0,0,0,0,0,0,0,0,0,0,0,0,0,0,0,0,0,0,0,0,0,0,0,0,0,0,0,0,0,0,0,0,0,0,0,0,0,0,0,0,0,0,0,0,0,0,0,0,0,0,0,0,0,0,0,0,0,0,0,0,0,0,0,0,0,0,0,0,0,0,0,0,0,0,0,0,0,0,0,0,0,0,0,0,0,0,0,0,0,0,0,0,0,0,0,0,0,0,0,0,0,0,0,0,0,0,0,0,0,0,0,0,0,0,0,0,0,0,0,0,0,0,0,0,0,0,0,0,0,0,0,0,0,0,0,0,0,0,0,0,0,0,0,0,0,0,0,0,0,0,0,0,0,0,0,0,0,0,0,0,0,0,0,0,0,0,0,0,0,0,0,0,0,0,0,0,0,0,0,0,0,0,0,0,0,0,0,0,0,0,0,0,0,0,0,0,0,0,0,0,0,0,0,0,0,0,0,0,0,0,0,0,0,0,0,0,0,0,0,0,0,0,0,0,0,
0,0,0,0,0,0,0,0,0,0,0,0,0,0,0,0,0,0,0,0,0,0,0,0,0,0,0,0,0,0,0,0,0,0,0,0,0,0,0,0,0,0,0,0,0,0,0,0,0,0,0,0,0,0,0,0,0,0,0,0,0,0,0,0,0,0,0,0,0,0,0,0,0,0,0,0,0,0,0,0,0,0,0,0,0,0,0,0,0,0,0,0,0,0,0,0,0,0,0,0,0,0,0,0,0,0,0,0,0,0,0,0,0,0,0,0,0,0,0,0,0,0,0,0,0,0,0,0,0,0,0,0,0,0,0,0,0,0,0,0,0,0,0,0,0,0,0,0,0,0,0,0,0,0,0,0,0,0,0,0,0,0,0,0,0,0,0,0,0,0,0,0,0,0,0,0,0,0,0,0,0,0,0,0,0,0,0,0,0,0,0,0,0,0,0,0,0,0,0,0,0,0,0,0,0,0,0,0,0,0,0,0,0,0,0,0,0,0,0,0,0,0,0,0,0,0,0,0,0,0,0,0,0,0,0,0,0,0,0,0,0,0,0,0,0,0,0,0,0,0,
0,0,0,0,0,0,0,0,0,0,0,0,0,0,0,0,0,0,0,0,0,0,0,0,0,0,0,0,0,0,0,0,0,0,0,0,0,0,0,0,0,0,0,0,0,0,0,0,0,0,0,0,0,0,0,0,0,0,0,0,0,0,0,0,0,0,0,0,0,0,0,0,0,0,0,0,0,0,0,0,0,0,0,0,0,0,0,0,0,0,0,0,0,0,0,0,0,0,0,0,0,0,0,0,0,0,0,0,0,0,0,0,0,0,0,0,0,0,0,0,0,0,0,0,0,0,0,0,0,0,0,0,0,0,0,0,0,0,0,0,0,0,0,0,0,0,0,0,0,0,0,0,0,0,0,0,0,0,0,0,0,0,0,0,0,0,0,0,0,0,0,0,0,0,0,0,0,0,0,0,0,0,0,0,0,0,0,0,0,0,0,0,0,0,0,0,0,0,0,0,0,0,0,0,0,0,0,0,0,0,0,0,0,0,0,0,0,0,0,0,0,0,0,0,0,0,0,0,0,0,0,0,0,0,0,0,0,0,0,0,0,0,0,0,0,0,0,0,0,0,
0,0,0,0,0,0,0,0,0,0,0,0,0,0,0,0,0,0,0,0,0,0,0,0,0,0,0,0,0,0,0,0,0,0,0,0,0,0,0,0,0,0,0,0,0,0,0,0,0,0,0,0,0,0,0,0,0,0,0,0,0,0,0,0,0,0,0,0,0,0,0,0,0,0,0,0,0,0,0,0,0,0,0,0,0,0,0,0,0,0,0,0,0,0,0,0,0,0,0,0,0,0,0,0,0,0,0,0,0,0,0,0,0,0,0,0,0,0,0,0,0,0,0,0,0,0,0,0,0,0,0,0,0,0,0,0,0,0,0,0,0,0,0,0,0,0,0,0,0,0,0,0,0,0,0,0,0,0,0,0,0,0,0,0,0,0,0,0,0,0,0,0,0,0,0,0,0,0,0,0,0,0,0,0,0,0,0,0,0,0,0,0,0,0,0,0,0,0,0,0,0,0,0,0,0,0,0,0,0,0,0,0,0,0,0,0,0,0,0,0,0,0,0,0,0,0,0,0,0,0,0,0,0,0,0,0,0,0,0,0,0,0,0,0,0,0,0,0,0,0,
0,0,0,0,0,0,0,0,0,0,0,0,0,0,0,0,0,0,0,0,0,0,0,0,0,0,0,0,0,0,0,0,0,0,0,0,0,0,0,0,0,0,0,0,0,0,0,0,0,0,0,0,0,0,0,0,0,0,0,0,0,0,0,0,0,0,0,0,0,0,0,0,0,0,0,0,0,0,0,0,0,0,0,0,0,0,0,0,0,0,0,0,0,0,0,0,0,0,0,0,0,0,0,0,0,0,0,0,0,0,0,0,0,0,0,0,0,0,0,0,0,0,0,0,0,0,0,0,0,0,0,0,0,0,0,0,0,0,0,0,0,0,0,0,0,0,0,0,0,0,0,0,0,0,0,0,0,0,0,0,0,0,0,0,0,0,0,0,0,0,0,0,0,0,0,0,0,0,0,0,0,0,0,0,0,0,0,0,0,0,0,0,0,0,0,0,0,0,0,0,0,0,0,0,0,0,0,0,0,0,0,0,0,0,0,0,0,0,0,0,0,0,0,0,0,0,0,0,0,0,0,0,0,0,0,0,0,0,0,0,0,0,0,0,0,0,0,0,0,0,
0,0,0,0,0,0,0,0,0,0,0,0,0,0,0,0,0,0,0,0,0,0,0,0,0,0,0,0,0,0,0,0,0,0,0,0,0,0,0,0,0,0,0,0,0,0,0,0,0,0,0,0,0,0,0,0,0,0,0,0,0,0,0,0,0,0,0,0,0,0,0,0,0,0,0,0,0,0,0,0,0,0,0,0,0,0,0,0,0,0,0,0,0,0,0,0,0,0,0,0,0,0,0,0,0,0,0,0,0,0,0,0,0,0,0,0,0,0,0,0,0,0,0,0,0,0,0,0,0,0,0,0,0,0,0,0,0,0,0,0,0,0,0,0,0,0,0,0,0,0,0,0,0,0,0,0,0,0,0,0,0,0,0,0,0,0,0,0,0,0,0,0,0,0,0,0,0,0,0,0,0,0,0,0,0,0,0,0,0,0,0,0,0,0,0,0,0,0,0,0,0,0,0,0,0,0,0,0,0,0,0,0,0,0,0,0,0,0,0,0,0,0,0,0,0,0,0,0,0,0,0,0,0,0,0,0,0,0,0,0,0,0,0,0,0,0,0,0,0,0,
0,0,0,0,0,0,0,0,0,0,0,0,0,0,0,0,0,0,0,0,0,0,0,0,0,0,0,0,0,0,0,0,0,0,0,0,0,0,0,0,0,0,0,0,0,0,0,0,0,0,0,0,0,0,0,0,0,0,0,0,0,0,0,0,0,0,0,0,0,0,0,0,0,0,0,0,0,0,0,0,0,0,0,0,0,0,0,0,0,0,0,0,0,0,0,0,0,0,0,0,0,0,0,0,0,0,0,0,0,0,0,0,0,0,0,0,0,0,0,0,0,0,0,0,0,0,0,0,0,0,0,0,0,0,0,0,0,0,0,0,0,0,0,0,0,0,0,0,0,0,0,0,0,0,0,0,0,0,0,0,0,0,0,0,0,0,0,0,0,0,0,0,0,0,0,0,0,0,0,0,0,0,0,0,0,0,0,0,0,0,0,0,0,0,0,0,0,0,0,0,0,0,0,0,0,0,0,0,0,0,0,0,0,0,0,0,0,0,0,0,0,0,0,0,0,0,0,0,0,0,0,0,0,0,0,0,0,0,0,0,0,0,0,0,0,0,0,0,0,0,
0,0,0,0,0,0,0,0,0,0,0,0,0,0,0,0,0,0,0,0,0,0,0,0,0,0,0,0,0,0,0,0,0,0,0,0,0,0,0,0,0,0,0,0,0,0,0,0,0,0,0,0,0,0,0,0,0,0,0,0,0,0,0,0,0,0,0,0,0,0,0,0,0,0,0,0,0,0,0,0,0,0,0,0,0,0,0,0,0,0,0,0,0,0,0,0,0,0,0,0,0,0,0,0,0,0,0,0,0,0,0,0,0,0,0,0,0,0,0,0,0,0,0,0,0,0,0,0,0,0,0,0,0,0,0,0,0,0,0,0,0,0,0,0,0,0,0,0,0,0,0,0,0,0,0,0,0,0,0,0,0,0,0,0,0,0,0,0,0,0,0,0,0,0,0,0,0,0,0,0,0,0,0,0,0,0,0,0,0,0,0,0,0,0,0,0,0,0,0,0,0,0,0,0,0,0,0,0,0,0,0,0,0,0,0,0,0,0,0,0,0,0,0,0,0,0,0,0,0,0,0,0,0,0,0,0,0,0,0,0,0,0,0,0,0,0,0,0,0,0,
0,0,0,0,0,0,0,0,0,0,0,0,0,0,0,0,0,0,0,0,0,0,0,0,0,0,0,0,0,0,0,0,0,0,0,0,0,0,0,0,0,0,0,0,0,0,0,0,0,0,0,0,0,0,0,0,0,0,0,0,0,0,0,0,0,0,0,0,0,0,0,0,0,0,0,0,0,0,0,0,0,0,0,0,0,0,0,0,0,0,0,0,0,0,0,0,0,0,0,0,0,0,0,0,0,0,0,0,0,0,0,0,0,0,0,0,0,0,0,0,0,0,0,0,0,0,0,0,0,0,0,0,0,0,0,0,0,0,0,0,0,0,0,0,0,0,0,0,0,0,0,0,0,0,0,0,0,0,0,0,0,0,0,0,0,0,0,0,0,0,0,0,0,0,0,0,0,0,0,0,0,0,0,0,0,0,0,0,0,0,0,0,0,0,0,0,0,0,0,0,0,0,0,0,0,0,0,0,0,0,0,0,0,0,0,0,0,0,0,0,0,0,0,0,0,0,0,0,0,0,0,0,0,0,0,0,0,0,0,0,0,0,0,0,0,0,0,0,0,0,
0,0,0,0,0,0,0,0,0,0,0,0,0,0,0,0,0,0,0,0,0,0,0,0,0,0,0,0,0,0,0,0,0,0,0,0,0,0,0,0,0,0,0,0,0,0,0,0,0,0,0,0,0,0,0,0,0,0,0,0,0,0,0,0,0,0,0,0,0,0,0,0,0,0,0,0,0,0,0,0,0,0,0,0,0,0,0,0,0,0,0,0,0,0,0,0,0,0,0,0,0,0,0,0,0,0,0,0,0,0,0,0,0,0,0,0,0,0,0,0,0,0,0,0,0,0,0,0,0,0,0,0,0,0,0,0,0,0,0,0,0,0,0,0,0,0,0,0,0,0,0,0,0,0,0,0,0,0,0,0,0,0,0,0,0,0,0,0,0,0,0,0,0,0,0,0,0,0,0,0,0,0,0,0,0,0,0,0,0,0,0,0,0,0,0,0,0,0,0,0,0,0,0,0,0,0,0,0,0,0,0,0,0,0,0,0,0,0,0,0,0,0,0,0,0,0,0,0,0,0,0,0,0,0,0,0,0,0,0,0,0,0,0,0,0,0,0,0,0,0,
0,0,0,0,0,0,0,0,0,0,0,0,0,0,0,0,0,0,0,0,0,0,0,0,0,0,0,0,0,0,0,0,0,0,0,0,0,0,0,0,0,0,0,0,0,0,0,0,0,0,0,0,0,0,0,0,0,0,0,0,0,0,0,0,0,0,0,0,0,0,0,0,0,0,0,0,0,0,0,0,0,0,0,0,0,0,0,0,0,0,0,0,0,0,0,0,0,0,0,0,0,0,0,0,0,0,0,0,0,0,0,0,0,0,0,0,0,0,0,0,0,0,0,0,0,0,0,0,0,0,0,0,0,0,0,0,0,0,0,0,0,0,0,0,0,0,0,0,0,0,0,0,0,0,0,0,0,0,0,0,0,0,0,0,0,0,0,0,0,0,0,0,0,0,0,0,0,0,0,0,0,0,0,0,0,0,0,0,0,0,0,0,0,0,0,0,0,0,0,0,0,0,0,0,0,0,0,0,0,0,0,0,0,0,0,0,0,0,0,0,0,0,0,0,0,0,0,0,0,0,0,0,0,0,0,0,0,0,0,0,0,0,0,0,0,0,0,0,0,0,
0,0,0,0,0,0,0,0,0,0,0,0,0,0,0,0,0,0,0,0,0,0,0,0,0,0,0,0,0,0,0,0,0,0,0,0,0,0,0,0,0,0,0,0,0,0,0,0,0,0,0,0,0,0,0,0,0,0,0,0,0,0,0,0,0,0,0,0,0,0,0,0,0,0,0,0,0,0,0,0,0,0,0,0,0,0,0,0,0,0,0,0,0,0,0,0,0,0,0,0,0,0,0,0,0,0,0,0,0,0,0,0,0,0,0,0,0,0,0,0,0,0,0,0,0,0,0,0,0,0,0,0,0,0,0,0,0,0,0,0,0,0,0,0,0,0,0,0,0,0,0,0,0,0,0,0,0,0,0,0,0,0,0,0,0,0,0,0,0,0,0,0,0,0,0,0,0,0,0,0,0,0,0,0,0,0,0,0,0,0,0,0,0,0,0,0,0,0,0,0,0,0,0,0,0,0,0,0,0,0,0,0,0,0,0,0,0,0,0,0,0,0,0,0,0,0,0,0,0,0,0,0,0,0,0,0,0,0,0,0,0,0,0,0,0,0,0,0,0,0,
0,0,0,0,0,0,0,0,0,0,0,0,0,0,0,0,0,0,0,0,0,0,0,0,0,0,0,0,0,0,0,0,0,0,0,0,0,0,0,0,0,0,0,0,0,0,0,0,0,0,0,0,0,0,0,0,0,0,0,0,0,0,0,0,0,0,0,0,0,0,0,0,0,0,0,0,0,0,0,0,0,0,0,0,0,0,0,0,0,0,0,0,0,0,0,0,0,0,0,0,0,0,0,0,0,0,0,0,0,0,0,0,0,0,0,0,0,0,0,0,0,0,0,0,0,0,0,0,0,0,0,0,0,0,0,0,0,0,0,0,0,0,0,0,0,0,0,0,0,0,0,0,0,0,0,0,0,0,0,0,0,0,0,0,0,0,0,0,0,0,0,0,0,0,0,0,0,0,0,0,0,0,0,0,0,0,0,0,0,0,0,0,0,0,0,0,0,0,0,0,0,0,0,0,0,0,0,0,0,0,0,0,0,0,0,0,0,0,0,0,0,0,0,0,0,0,0,0,0,0,0,0,0,0,0,0,0,0,0,0,0,0,0,0,0,0,0,0,0,0,
0,0,0,0,0,0,0,0,0,0,0,0,0,0,0,0,0,0,0,0,0,0,0,0,0,0,0,0,0,0,0,0,0,0,0,0,0,0,0,0,0,0,0,0,0,0,0,0,0,0,0,0,0,0,0,0,0,0,0,0,0,0,0,0,0,0,0,0,0,0,0,0,0,0,0,0,0,0,0,0,0,0,0,0,0,0,0,0,0,0,0,0,0,0,0,0,0,0,0,0,0,0,0,0,0,0,0,0,0,0,0,0,0,0,0,0,0,0,0,0,0,0,0,0,0,0,0,0,0,0,0,0,0,0,0,0,0,0,0,0,0,0,0,0,0,0,0,0,0,0,0,0,0,0,0,0,0,0,0,0,0,0,0,0,0,0,0,0,0,0,0,0,0,0,0,0,0,0,0,0,0,0,0,0,0,0,0,0,0,0,0,0,0,0,0,0,0,0,0,0,0,0,0,0,0,0,0,0,0,0,0,0,0,0,0,0,0,0,0,0,0,0,0,0,0,0,0,0,0,0,0,0,0,0,0,0,0,0,0,0,0,0,0,0,0,0,0,0,0,0,
0,0,0,0,0,0,0,0,0,0,0,0,0,0,0,0,0,0,0,0,0,0,0,0,0,0,0,0,0,0,0,0,0,0,0,0,0,0,0,0,0,0,0,0,0,0,0,0,0,0,0,0,0,0,0,0,0,0,0,0,0,0,0,0,0,0,0,0,0,0,0,0,0,0,0,0,0,0,0,0,0,0,0,0,0,0,0,0,0,0,0,0,0,0,0,0,0,0,0,0,0,0,0,0,0,0,0,0,0,0,0,0,0,0,0,0,0,0,0,0,0,0,0,0,0,0,0,0,0,0,0,0,0,0,0,0,0,0,0,0,0,0,0,0,0,0,0,0,0,0,0,0,0,0,0,0,0,0,0,0,0,0,0,0,0,0,0,0,0,0,0,0,0,0,0,0,0,0,0,0,0,0,0,0,0,0,0,0,0,0,0,0,0,0,0,0,0,0,0,0,0,0,0,0,0,0,0,0,0,0,0,0,0,0,0,0,0,0,0,0,0,0,0,0,0,0,0,0,0,0,0,0,0,0,0,0,0,0,0,0,0,0,0,0,0,0,0,0,0,0,
0,0,0,0,0,0,0,0,0,0,0,0,0,0,0,0,0,0,0,0,0,0,0,0,0,0,0,0,0,0,0,0,0,0,0,0,0,0,0,0,0,0,0,0,0,0,0,0,0,0,0,0,0,0,0,0,0,0,0,0,0,0,0,0,0,0,0,0,0,0,0,0,0,0,0,0,0,0,0,0,0,0,0,0,0,0,0,0,0,0,0,0,0,0,0,0,0,0,0,0,0,0,0,0,0,0,0,0,0,0,0,0,0,0,0,0,0,0,0,0,0,0,0,0,0,0,0,0,0,0,0,0,0,0,0,0,0,0,0,0,0,0,0,0,0,0,0,0,0,0,0,0,0,0,0,0,0,0,0,0,0,0,0,0,0,0,0,0,0,0,0,0,0,0,0,0,0,0,0,0,0,0,0,0,0,0,0,0,0,0,0,0,0,0,0,0,0,0,0,0,0,0,0,0,0,0,0,0,0,0,0,0,0,0,0,0,0,0,0,0,0,0,0,0,0,0,0,0,0,0,0,0,0,0,0,0,0,0,0,0,0,0,0,0,0,0,0,0,0,0,
0,0,0,0,0,0,0,0,0,0,0,0,0,0,0,0,0,0,0,0,0,0,0,0,0,0,0,0,0,0,0,0,0,0,0,0,0,0,0,0,0,0,0,0,0,0,0,0,0,0,0,0,0,0,0,0,0,0,0,0,0,0,0,0,0,0,0,0,0,0,0,0,0,0,0,0,0,0,0,0,0,0,0,0,0,0,0,0,0,0,0,0,0,0,0,0,0,0,0,0,0,0,0,0,0,0,0,0,0,0,0,0,0,0,0,0,0,0,0,0,0,0,0,0,0,0,0,0,0,0,0,0,0,0,0,0,0,0,0,0,0,0,0,0,0,0,0,0,0,0,0,0,0,0,0,0,0,0,0,0,0,0,0,0,0,0,0,0,0,0,0,0,0,0,0,0,0,0,0,0,0,0,0,0,0,0,0,0,0,0,0,0,0,0,0,0,0,0,0,0,0,0,0,0,0,0,0,0,0,0,0,0,0,0,0,0,0,0,0,0,0,0,0,0,0,0,0,0,0,0,0,0,0,0,0,0,0,0,0,0,0,0,0,0,0,0,0,0,0,0,
0,0,0,0,0,0,0,0,0,0,0,0,0,0,0,0,0,0,0,0,0,0,0,0,0,0,0,0,0,0,0,0,0,0,0,0,0,0,0,0,0,0,0,0,0,0,0,0,0,0,0,0,0,0,0,0,0,0,0,0,0,0,0,0,0,0,0,0,0,0,0,0,0,0,0,0,0,0,0,0,0,0,0,0,0,0,0,0,0,0,0,0,0,0,0,0,0,0,0,0,0,0,0,0,0,0,0,0,0,0,0,0,0,0,0,0,0,0,0,0,0,0,0,0,0,0,0,0,0,0,0,0,0,0,0,0,0,0,0,0,0,0,0,0,0,0,0,0,0,0,0,0,0,0,0,0,0,0,0,0,0,0,0,0,0,0,0,0,0,0,0,0,0,0,0,0,0,0,0,0,0,0,0,0,0,0,0,0,0,0,0,0,0,0,0,0,0,0,0,0,0,0,0,0,0,0,0,0,0,0,0,0,0,0,0,0,0,0,0,0,0,0,0,0,0,0,0,0,0,0,0,0,0,0,0,0,0,0,0,0,0,0,0,0,0,0,0,0,0,0,
0,0,0,0,0,0,0,0,0,0,0,0,0,0,0,0,0,0,0,0,0,0,0,0,0,0,0,0,0,0,0,0,0,0,0,0,0,0,0,0,0,0,0,0,0,0,0,0,0,0,0,0,0,0,0,0,0,0,0,0,0,0,0,0,0,0,0,0,0,0,0,0,0,0,0,0,0,0,0,0,0,0,0,0,0,0,0,0,0,0,0,0,0,0,0,0,0,0,0,0,0,0,0,0,0,0,0,0,0,0,0,0,0,0,0,0,0,0,0,0,0,0,0,0,0,0,0,0,0,0,0,0,0,0,0,0,0,0,0,0,0,0,0,0,0,0,0,0,0,0,0,0,0,0,0,0,0,0,0,0,0,0,0,0,0,0,0,0,0,0,0,0,0,0,0,0,0,0,0,0,0,0,0,0,0,0,0,0,0,0,0,0,0,0,0,0,0,0,0,0,0,0,0,0,0,0,0,0,0,0,0,0,0,0,0,0,0,0,0,0,0,0,0,0,0,0,0,0,0,0,0,0,0,0,0,0,0,0,0,0,0,0,0,0,0,0,0,0,0,0,
0,0,0,0,0,0,0,0,0,0,0,0,0,0,0,0,0,0,0,0,0,0,0,0,0,0,0,0,0,0,0,0,0,0,0,0,0,0,0,0,0,0,0,0,0,0,0,0,0,0,0,0,0,0,0,0,0,0,0,0,0,0,0,0,0,0,0,0,0,0,0,0,0,0,0,0,0,0,0,0,0,0,0,0,0,0,0,0,0,0,0,0,0,0,0,0,0,0,0,0,0,0,0,0,0,0,0,0,0,0,0,0,0,0,0,0,0,0,0,0,0,0,0,0,0,0,0,0,0,0,0,0,0,0,0,0,0,0,0,0,0,0,0,0,0,0,0,0,0,0,0,0,0,0,0,0,0,0,0,0,0,0,0,0,0,0,0,0,0,0,0,0,0,0,0,0,0,0,0,0,0,0,0,0,0,0,0,0,0,0,0,0,0,0,0,0,0,0,0,0,0,0,0,0,0,0,0,0,0,0,0,0,0,0,0,0,0,0,0,0,0,0,0,0,0,0,0,0,0,0,0,0,0,0,0,0,0,0,0,0,0,0,0,0,0,0,0,0,0,0,
0,0,0,0,0,0,0,0,0,0,0,0,0,0,0,0,0,0,0,0,0,0,0,0,0,0,0,0,0,0,0,0,0,0,0,0,0,0,0,0,0,0,0,0,0,0,0,0,0,0,0,0,0,0,0,0,0,0,0,0,0,0,0,0,0,0,0,0,0,0,0,0,0,0,0,0,0,0,0,0,0,0,0,0,0,0,0,0,0,0,0,0,0,0,0,0,0,0,0,0,0,0,0,0,0,0,0,0,0,0,0,0,0,0,0,0,0,0,0,0,0,0,0,0,0,0,0,0,0,0,0,0,0,0,0,0,0,0,0,0,0,0,0,0,0,0,0,0,0,0,0,0,0,0,0,0,0,0,0,0,0,0,0,0,0,0,0,0,0,0,0,0,0,0,0,0,0,0,0,0,0,0,0,0,0,0,0,0,0,0,0,0,0,0,0,0,0,0,0,0,0,0,0,0,0,0,0,0,0,0,0,0,0,0,0,0,0,0,0,0,0,0,0,0,0,0,0,0,0,0,0,0,0,0,0,0,0,0,0,0,0,0,0,0,0,0,0,0,0,0,
0,0,0,0,0,0,0,0,0,0,0,0,0,0,0,0,0,0,0,0,0,0,0,0,0,0,0,0,0,0,0,0,0,0,0,0,0,0,0,0,0,0,0,0,0,0,0,0,0,0,0,0,0,0,0,0,0,0,0,0,0,0,0,0,0,0,0,0,0,0,0,0,0,0,0,0,0,0,0,0,0,0,0,0,0,0,0,0,0,0,0,0,0,0,0,0,0,0,0,0,0,0,0,0,0,0,0,0,0,0,0,0,0,0,0,0,0,0,0,0,0,0,0,0,0,0,0,0,0,0,0,0,0,0,0,0,0,0,0,0,0,0,0,0,0,0,0,0,0,0,0,0,0,0,0,0,0,0,0,0,0,0,0,0,0,0,0,0,0,0,0,0,0,0,0,0,0,0,0,0,0,0,0,0,0,0,0,0,0,0,0,0,0,0,0,0,0,0,0,0,0,0,0,0,0,0,0,0,0,0,0,0,0,0,0,0,0,0,0,0,0,0,0,0,0,0,0,0,0,0,0,0,0,0,0,0,0,0,0,0,0,0,0,0,0,0,0,0,0,0,
0,0,0,0,0,0,0,0,0,0,0,0,0,0,0,0,0,0,0,0,0,0,0,0,0,0,0,0,0,0,0,0,0,0,0,0,0,0,0,0,0,0,0,0,0,0,0,0,0,0,0,0,0,0,0,0,0,0,0,0,0,0,0,0,0,0,0,0,0,0,0,0,0,0,0,0,0,0,0,0,0,0,0,0,0,0,0,0,0,0,0,0,0,0,0,0,0,0,0,0,0,0,0,0,0,0,0,0,0,0,0,0,0,0,0,0,0,0,0,0,0,0,0,0,0,0,0,0,0,0,0,0,0,0,0,0,0,0,0,0,0,0,0,0,0,0,0,0,0,0,0,0,0,0,0,0,0,0,0,0,0,0,0,0,0,0,0,0,0,0,0,0,0,0,0,0,0,0,0,0,0,0,0,0,0,0,0,0,0,0,0,0,0,0,0,0,0,0,0,0,0,0,0,0,0,0,0,0,0,0,0,0,0,0,0,0,0,0,0,0,0,0,0,0,0,0,0,0,0,0,0,0,0,0,0,0,0,0,0,0,0,0,0,0,0,0,0,0,0,0,
0,0,0,0,0,0,0,0,0,0,0,0,0,0,0,0,0,0,0,0,0,0,0,0,0,0,0,0,0,0,0,0,0,0,0,0,0,0,0,0,0,0,0,0,0,0,0,0,0,0,0,0,0,0,0,0,0,0,0,0,0,0,0,0,0,0,0,0,0,0,0,0,0,0,0,0,0,0,0,0,0,0,0,0,0,0,0,0,0,0,0,0,0,0,0,0,0,0,0,0,0,0,0,0,0,0,0,0,0,0,0,0,0,0,0,0,0,0,0,0,0,0,0,0,0,0,0,0,0,0,0,0,0,0,0,0,0,0,0,0,0,0,0,0,0,0,0,0,0,0,0,0,0,0,0,0,0,0,0,0,0,0,0,0,0,0,0,0,0,0,0,0,0,0,0,0,0,0,0,0,0,0,0,0,0,0,0,0,0,0,0,0,0,0,0,0,0,0,0,0,0,0,0,0,0,0,0,0,0,0,0,0,0,0,0,0,0,0,0,0,0,0,0,0,0,0,0,0,0,0,0,0,0,0,0,0,0,0,0,0,0,0,0,0,0,0,0,0,0,0,
0,0,0,0,0,0,0,0,0,0,0,0,0,0,0,0,0,0,0,0,0,0,0,0,0,0,0,0,0,0,0,0,0,0,0,0,0,0,0,0,0,0,0,0,0,0,0,0,0,0,0,0,0,0,0,0,0,0,0,0,0,0,0,0,0,0,0,0,0,0,0,0,0,0,0,0,0,0,0,0,0,0,0,0,0,0,0,0,0,0,0,0,0,0,0,0,0,0,0,0,0,0,0,0,0,0,0,0,0,0,0,0,0,0,0,0,0,0,0,0,0,0,0,0,0,0,0,0,0,0,0,0,0,0,0,0,0,0,0,0,0,0,0,0,0,0,0,0,0,0,0,0,0,0,0,0,0,0,0,0,0,0,0,0,0,0,0,0,0,0,0,0,0,0,0,0,0,0,0,0,0,0,0,0,0,0,0,0,0,0,0,0,0,0,0,0,0,0,0,0,0,0,0,0,0,0,0,0,0,0,0,0,0,0,0,0,0,0,0,0,0,0,0,0,0,0,0,0,0,0,0,0,0,0,0,0,0,0,0,0,0,0,0,0,0,0,0,0,0,0,
0,0,0,0,0,0,0,0,0,0,0,0,0,0,0,0,0,0,0,0,0,0,0,0,0,0,0,0,0,0,0,0,0,0,0,0,0,0,0,0,0,0,0,0,0,0,0,0,0,0,0,0,0,0,0,0,0,0,0,0,0,0,0,0,0,0,0,0,0,0,0,0,0,0,0,0,0,0,0,0,0,0,0,0,0,0,0,0,0,0,0,0,0,0,0,0,0,0,0,0,0,0,0,0,0,0,0,0,0,0,0,0,0,0,0,0,0,0,0,0,0,0,0,0,0,0,0,0,0,0,0,0,0,0,0,0,0,0,0,0,0,0,0,0,0,0,0,0,0,0,0,0,0,0,0,0,0,0,0,0,0,0,0,0,0,0,0,0,0,0,0,0,0,0,0,0,0,0,0,0,0,0,0,0,0,0,0,0,0,0,0,0,0,0,0,0,0,0,0,0,0,0,0,0,0,0,0,0,0,0,0,0,0,0,0,0,0,0,0,0,0,0,0,0,0,0,0,0,0,0,0,0,0,0,0,0,0,0,0,0,0,0,0,0,0,0,0,0,0,0,
0,0,0,0,0,0,0,0,0,0,0,0,0,0,0,0,0,0,0,0,0,0,0,0,0,0,0,0,0,0,0,0,0,0,0,0,0,0,0,0,0,0,0,0,0,0,0,0,0,0,0,0,0,0,0,0,0,0,0,0,0,0,0,0,0,0,0,0,0,0,0,0,0,0,0,0,0,0,0,0,0,0,0,0,0,0,0,0,0,0,0,0,0,0,0,0,0,0,0,0,0,0,0,0,0,0,0,0,0,0,0,0,0,0,0,0,0,0,0,0,0,0,0,0,0,0,0,0,0,0,0,0,0,0,0,0,0,0,0,0,0,0,0,0,0,0,0,0,0,0,0,0,0,0,0,0,0,0,0,0,0,0,0,0,0,0,0,0,0,0,0,0,0,0,0,0,0,0,0,0,0,0,0,0,0,0,0,0,0,0,0,0,0,0,0,0,0,0,0,0,0,0,0,0,0,0,0,0,0,0,0,0,0,0,0,0,0,0,0,0,0,0,0,0,0,0,0,0,0,0,0,0,0,0,0,0,0,0,0,0,0,0,0,0,0,0,0,0,0,0,
0,0,0,0,0,0,0,0,0,0,0,0,0,0,0,0,0,0,0,0,0,0,0,0,0,0,0,0,0,0,0,0,0,0,0,0,0,0,0,0,0,0,0,0,0,0,0,0,0,0,0,0,0,0,0,0,0,0,0,0,0,0,0,0,0,0,0,0,0,0,0,0,0,0,0,0,0,0,0,0,0,0,0,0,0,0,0,0,0,0,0,0,0,0,0,0,0,0,0,0,0,0,0,0,0,0,0,0,0,0,0,0,0,0,0,0,0,0,0,0,0,0,0,0,0,0,0,0,0,0,0,0,0,0,0,0,0,0,0,0,0,0,0,0,0,0,0,0,0,0,0,0,0,0,0,0,0,0,0,0,0,0,0,0,0,0,0,0,0,0,0,0,0,0,0,0,0,0,0,0,0,0,0,0,0,0,0,0,0,0,0,0,0,0,0,0,0,0,0,0,0,0,0,0,0,0,0,0,0,0,0,0,0,0,0,0,0,0,0,0,0,0,0,0,0,0,0,0,0,0,0,0,0,0,0,0,0,0,0,0,0,0,0,0,0,0,0,0,0,0,
0,0,0,0,0,0,0,0,0,0,0,0,0,0,0,0,0,0,0,0,0,0,0,0,0,0,0,0,0,0,0,0,0,0,0,0,0,0,0,0,0,0,0,0,0,0,0,0,0,0,0,0,0,0,0,0,0,0,0,0,0,0,0,0,0,0,0,0,0,0,0,0,0,0,0,0,0,0,0,0,0,0,0,0,0,0,0,0,0,0,0,0,0,0,0,0,0,0,0,0,0,0,0,0,0,0,0,0,0,0,0,0,0,0,0,0,0,0,0,0,0,0,0,0,0,0,0,0,0,0,0,0,0,0,0,0,0,0,0,0,0,0,0,0,0,0,0,0,0,0,0,0,0,0,0,0,0,0,0,0,0,0,0,0,0,0,0,0,0,0,0,0,0,0,0,0,0,0,0,0,0,0,0,0,0,0,0,0,0,0,0,0,0,0,0,0,0,0,0,0,0,0,0,0,0,0,0,0,0,0,0,0,0,0,0,0,0,0,0,0,0,0,0,0,0,0,0,0,0,0,0,0,0,0,0,0,0,0,0,0,0,0,0,0,0,0,0,0,0,0,
0,0,0,0,0,0,0,0,0,0,0,0,0,0,0,0,0,0,0,0,0,0,0,0,0,0,0,0,0,0,0,0,0,0,0,0,0,0,0,0,0,0,0,0,0,0,0,0,0,0,0,0,0,0,0,0,0,0,0,0,0,0,0,0,0,0,0,0,0,0,0,0,0,0,0,0,0,0,0,0,0,0,0,0,0,0,0,0,0,0,0,0,0,0,0,0,0,0,0,0,0,0,0,0,0,0,0,0,0,0,0,0,0,0,0,0,0,0,0,0,0,0,0,0,0,0,0,0,0,0,0,0,0,0,0,0,0,0,0,0,0,0,0,0,0,0,0,0,0,0,0,0,0,0,0,0,0,0,0,0,0,0,0,0,0,0,0,0,0,0,0,0,0,0,0,0,0,0,0,0,0,0,0,0,0,0,0,0,0,0,0,0,0,0,0,0,0,0,0,0,0,0,0,0,0,0,0,0,0,0,0,0,0,0,0,0,0,0,0,0,0,0,0,0,0,0,0,0,0,0,0,0,0,0,0,0,0,0,0,0,0,0,0,0,0,0,0,0,0,0,
0,0,0,0,0,0,0,0,0,0,0,0,0,0,0,0,0,0,0,0,0,0,0,0,0,0,0,0,0,0,0,0,0,0,0,0,0,0,0,0,0,0,0,0,0,0,0,0,0,0,0,0,0,0,0,0,0,0,0,0,0,0,0,0,0,0,0,0,0,0,0,0,0,0,0,0,0,0,0,0,0,0,0,0,0,0,0,0,0,0,0,0,0,0,0,0,0,0,0,0,0,0,0,0,0,0,0,0,0,0,0,0,0,0,0,0,0,0,0,0,0,0,0,0,0,0,0,0,0,0,0,0,0,0,0,0,0,0,0,0,0,0,0,0,0,0,0,0,0,0,0,0,0,0,0,0,0,0,0,0,0,0,0,0,0,0,0,0,0,0,0,0,0,0,0,0,0,0,0,0,0,0,0,0,0,0,0,0,0,0,0,0,0,0,0,0,0,0,0,0,0,0,0,0,0,0,0,0,0,0,0,0,0,0,0,0,0,0,0,0,0,0,0,0,0,0,0,0,0,0,0,0,0,0,0,0,0,0,0,0,0,0,0,0,0,0,0,0,0,0,
0,0,0,0,0,0,0,0,0,0,0,0,0,0,0,0,0,0,0,0,0,0,0,0,0,0,0,0,0,0,0,0,0,0,0,0,0,0,0,0,0,0,0,0,0,0,0,0,0,0,0,0,0,0,0,0,0,0,0,0,0,0,0,0,0,0,0,0,0,0,0,0,0,0,0,0,0,0,0,0,0,0,0,0,0,0,0,0,0,0,0,0,0,0,0,0,0,0,0,0,0,0,0,0,0,0,0,0,0,0,0,0,0,0,0,0,0,0,0,0,0,0,0,0,0,0,0,0,0,0,0,0,0,0,0,0,0,0,0,0,0,0,0,0,0,0,0,0,0,0,0,0,0,0,0,0,0,0,0,0,0,0,0,0,0,0,0,0,0,0,0,0,0,0,0,0,0,0,0,0,0,0,0,0,0,0,0,0,0,0,0,0,0,0,0,0,0,0,0,0,0,0,0,0,0,0,0,0,0,0,0,0,0,0,0,0,0,0,0,0,0,0,0,0,0,0,0,0,0,0,0,0,0,0,0,0,0,0,0,0,0,0,0,0,0,0,0,0,0,0,
0,0,0,0,0,0,0,0,0,0,0,0,0,0,0,0,0,0,0,0,0,0,0,0,0,0,0,0,0,0,0,0,0,0,0,0,0,0,0,0,0,0,0,0,0,0,0,0,0,0,0,0,0,0,0,0,0,0,0,0,0,0,0,0,0,0,0,0,0,0,0,0,0,0,0,0,0,0,0,0,0,0,0,0,0,0,0,0,0,0,0,0,0,0,0,0,0,0,0,0,0,0,0,0,0,0,0,0,0,0,0,0,0,0,0,0,0,0,0,0,0,0,0,0,0,0,0,0,0,0,0,0,0,0,0,0,0,0,0,0,0,0,0,0,0,0,0,0,0,0,0,0,0,0,0,0,0,0,0,0,0,0,0,0,0,0,0,0,0,0,0,0,0,0,0,0,0,0,0,0,0,0,0,0,0,0,0,0,0,0,0,0,0,0,0,0,0,0,0,0,0,0,0,0,0,0,0,0,0,0,0,0,0,0,0,0,0,0,0,0,0,0,0,0,0,0,0,0,0,0,0,0,0,0,0,0,0,0,0,0,0,0,0,0,0,0,0,0,0,0,
0,0,0,0,0,0,0,0,0,0,0,0,0,0,0,0,0,0,0,0,0,0,0,0,0,0,0,0,0,0,0,0,0,0,0,0,0,0,0,0,0,0,0,0,0,0,0,0,0,0,0,0,0,0,0,0,0,0,0,0,0,0,0,0,0,0,0,0,0,0,0,0,0,0,0,0,0,0,0,0,0,0,0,0,0,0,0,0,0,0,0,0,0,0,0,0,0,0,0,0,0,0,0,0,0,0,0,0,0,0,0,0,0,0,0,0,0,0,0,0,0,0,0,0,0,0,0,0,0,0,0,0,0,0,0,0,0,0,0,0,0,0,0,0,0,0,0,0,0,0,0,0,0,0,0,0,0,0,0,0,0,0,0,0,0,0,0,0,0,0,0,0,0,0,0,0,0,0,0,0,0,0,0,0,0,0,0,0,0,0,0,0,0,0,0,0,0,0,0,0,0,0,0,0,0,0,0,0,0,0,0,0,0,0,0,0,0,0,0,0,0,0,0,0,0,0,0,0,0,0,0,0,0,0,0,0,0,0,0,0,0,0,0,0,0,0,0,0,0,0,
0,0,0,0,0,0,0,0,0,0,0,0,0,0,0,0,0,0,0,0,0,0,0,0,0,0,0,0,0,0,0,0,0,0,0,0,0,0,0,0,0,0,0,0,0,0,0,0,0,0,0,0,0,0,0,0,0,0,0,0,0,0,0,0,0,0,0,0,0,0,0,0,0,0,0,0,0,0,0,0,0,0,0,0,0,0,0,0,0,0,0,0,0,0,0,0,0,0,0,0,0,0,0,0,0,0,0,0,0,0,0,0,0,0,0,0,0,0,0,0,0,0,0,0,0,0,0,0,0,0,0,0,0,0,0,0,0,0,0,0,0,0,0,0,0,0,0,0,0,0,0,0,0,0,0,0,0,0,0,0,0,0,0,0,0,0,0,0,0,0,0,0,0,0,0,0,0,0,0,0,0,0,0,0,0,0,0,0,0,0,0,0,0,0,0,0,0,0,0,0,0,0,0,0,0,0,0,0,0,0,0,0,0,0,0,0,0,0,0,0,0,0,0,0,0,0,0,0,0,0,0,0,0,0,0,0,0,0,0,0,0,0,0,0,0,0,0,0,0,0,
0,0,0,0,0,0,0,0,0,0,0,0,0,0,0,0,0,0,0,0,0,0,0,0,0,0,0,0,0,0,0,0,0,0,0,0,0,0,0,0,0,0,0,0,0,0,0,0,0,0,0,0,0,0,0,0,0,0,0,0,0,0,0,0,0,0,0,0,0,0,0,0,0,0,0,0,0,0,0,0,0,0,0,0,0,0,0,0,0,0,0,0,0,0,0,0,0,0,0,0,0,0,0,0,0,0,0,0,0,0,0,0,0,0,0,0,0,0,0,0,0,0,0,0,0,0,0,0,0,0,0,0,0,0,0,0,0,0,0,0,0,0,0,0,0,0,0,0,0,0,0,0,0,0,0,0,0,0,0,0,0,0,0,0,0,0,0,0,0,0,0,0,0,0,0,0,0,0,0,0,0,0,0,0,0,0,0,0,0,0,0,0,0,0,0,0,0,0,0,0,0,0,0,0,0,0,0,0,0,0,0,0,0,0,0,0,0,0,0,0,0,0,0,0,0,0,0,0,0,0,0,0,0,0,0,0,0,0,0,0,0,0,0,0,0,0,0,0,0,0,
0,0,0,0,0,0,0,0,0,0,0,0,0,0,0,0,0,0,0,0,0,0,0,0,0,0,0,0,0,0,0,0,0,0,0,0,0,0,0,0,0,0,0,0,0,0,0,0,0,0,0,0,0,0,0,0,0,0,0,0,0,0,0,0,0,0,0,0,0,0,0,0,0,0,0,0,0,0,0,0,0,0,0,0,0,0,0,0,0,0,0,0,0,0,0,0,0,0,0,0,0,0,0,0,0,0,0,0,0,0,0,0,0,0,0,0,0,0,0,0,0,0,0,0,0,0,0,0,0,0,0,0,0,0,0,0,0,0,0,0,0,0,0,0,0,0,0,0,0,0,0,0,0,0,0,0,0,0,0,0,0,0,0,0,0,0,0,0,0,0,0,0,0,0,0,0,0,0,0,0,0,0,0,0,0,0,0,0,0,0,0,0,0,0,0,0,0,0,0,0,0,0,0,0,0,0,0,0,0,0,0,0,0,0,0,0,0,0,0,0,0,0,0,0,0,0,0,0,0,0,0,0,0,0,0,0,0,0,0,0,0,0,0,0,0,0,0,0,0,0,
0,0,0,0,0,0,0,0,0,0,0,0,0,0,0,0,0,0,0,0,0,0,0,0,0,0,0,0,0,0,0,0,0,0,0,0,0,0,0,0,0,0,0,0,0,0,0,0,0,0,0,0,0,0,0,0,0,0,0,0,0,0,0,0,0,0,0,0,0,0,0,0,0,0,0,0,0,0,0,0,0,0,0,0,0,0,0,0,0,0,0,0,0,0,0,0,0,0,0,0,0,0,0,0,0,0,0,0,0,0,0,0,0,0,0,0,0,0,0,0,0,0,0,0,0,0,0,0,0,0,0,0,0,0,0,0,0,0,0,0,0,0,0,0,0,0,0,0,0,0,0,0,0,0,0,0,0,0,0,0,0,0,0,0,0,0,0,0,0,0,0,0,0,0,0,0,0,0,0,0,0,0,0,0,0,0,0,0,0,0,0,0,0,0,0,0,0,0,0,0,0,0,0,0,0,0,0,0,0,0,0,0,0,0,0,0,0,0,0,0,0,0,0,0,0,0,0,0,0,0,0,0,0,0,0,0,0,0,0,0,0,0,0,0,0,0,0,0,0,0,
0,0,0,0,0,0,0,0,0,0,0,0,0,0,0,0,0,0,0,0,0,0,0,0,0,0,0,0,0,0,0,0,0,0,0,0,0,0,0,0,0,0,0,0,0,0,0,0,0,0,0,0,0,0,0,0,0,0,0,0,0,0,0,0,0,0,0,0,0,0,0,0,0,0,0,0,0,0,0,0,0,0,0,0,0,0,0,0,0,0,0,0,0,0,0,0,0,0,0,0,0,0,0,0,0,0,0,0,0,0,0,0,0,0,0,0,0,0,0,0,0,0,0,0,0,0,0,0,0,0,0,0,0,0,0,0,0,0,0,0,0,0,0,0,0,0,0,0,0,0,0,0,0,0,0,0,0,0,0,0,0,0,0,0,0,0,0,0,0,0,0,0,0,0,0,0,0,0,0,0,0,0,0,0,0,0,0,0,0,0,0,0,0,0,0,0,0,0,0,0,0,0,0,0,0,0,0,0,0,0,0,0,0,0,0,0,0,0,0,0,0,0,0,0,0,0,0,0,0,0,0,0,0,0,0,0,0,0,0,0,0,0,0,0,0,0,0,0,0,0,
0,0,0,0,0,0,0,0,0,0,0,0,0,0,0,0,0,0,0,0,0,0,0,0,0,0,0,0,0,0,0,0,0,0,0,0,0,0,0,0,0,0,0,0,0,0,0,0,0,0,0,0,0,0,0,0,0,0,0,0,0,0,0,0,0,0,0,0,0,0,0,0,0,0,0,0,0,0,0,0,0,0,0,0,0,0,0,0,0,0,0,0,0,0,0,0,0,0,0,0,0,0,0,0,0,0,0,0,0,0,0,0,0,0,0,0,0,0,0,0,0,0,0,0,0,0,0,0,0,0,0,0,0,0,0,0,0,0,0,0,0,0,0,0,0,0,0,0,0,0,0,0,0,0,0,0,0,0,0,0,0,0,0,0,0,0,0,0,0,0,0,0,0,0,0,0,0,0,0,0,0,0,0,0,0,0,0,0,0,0,0,0,0,0,0,0,0,0,0,0,0,0,0,0,0,0,0,0,0,0,0,0,0,0,0,0,0,0,0,0,0,0,0,0,0,0,0,0,0,0,0,0,0,0,0,0,0,0,0,0,0,0,0,0,0,0,0,0,0,0,
0,0,0,0,0,0,0,0,0,0,0,0,0,0,0,0,0,0,0,0,0,0,0,0,0,0,0,0,0,0,0,0,0,0,0,0,0,0,0,0,0,0,0,0,0,0,0,0,0,0,0,0,0,0,0,0,0,0,0,0,0,0,0,0,0,0,0,0,0,0,0,0,0,0,0,0,0,0,0,0,0,0,0,0,0,0,0,0,0,0,0,0,0,0,0,0,0,0,0,0,0,0,0,0,0,0,0,0,0,0,0,0,0,0,0,0,0,0,0,0,0,0,0,0,0,0,0,0,0,0,0,0,0,0,0,0,0,0,0,0,0,0,0,0,0,0,0,0,0,0,0,0,0,0,0,0,0,0,0,0,0,0,0,0,0,0,0,0,0,0,0,0,0,0,0,0,0,0,0,0,0,0,0,0,0,0,0,0,0,0,0,0,0,0,0,0,0,0,0,0,0,0,0,0,0,0,0,0,0,0,0,0,0,0,0,0,0,0,0,0,0,0,0,0,0,0,0,0,0,0,0,0,0,0,0,0,0,0,0,0,0,0,0,0,0,0,0,0,0,0,
0,0,0,0,0,0,0,0,0,0,0,0,0,0,0,0,0,0,0,0,0,0,0,0,0,0,0,0,0,0,0,0,0,0,0,0,0,0,0,0,0,0,0,0,0,0,0,0,0,0,0,0,0,0,0,0,0,0,0,0,0,0,0,0,0,0,0,0,0,0,0,0,0,0,0,0,0,0,0,0,0,0,0,0,0,0,0,0,0,0,0,0,0,0,0,0,0,0,0,0,0,0,0,0,0,0,0,0,0,0,0,0,0,0,0,0,0,0,0,0,0,0,0,0,0,0,0,0,0,0,0,0,0,0,0,0,0,0,0,0,0,0,0,0,0,0,0,0,0,0,0,0,0,0,0,0,0,0,0,0,0,0,0,0,0,0,0,0,0,0,0,0,0,0,0,0,0,0,0,0,0,0,0,0,0,0,0,0,0,0,0,0,0,0,0,0,0,0,0,0,0,0,0,0,0,0,0,0,0,0,0,0,0,0,0,0,0,0,0,0,0,0,0,0,0,0,0,0,0,0,0,0,0,0,0,0,0,0,0,0,0,0,0,0,0,0,0,0,0,0,
0,0,0,0,0,0,0,0,0,0,0,0,0,0,0,0,0,0,0,0,0,0,0,0,0,0,0,0,0,0,0,0,0,0,0,0,0,0,0,0,0,0,0,0,0,0,0,0,0,0,0,0,0,0,0,0,0,0,0,0,0,0,0,0,0,0,0,0,0,0,0,0,0,0,0,0,0,0,0,0,0,0,0,0,0,0,0,0,0,0,0,0,0,0,0,0,0,0,0,0,0,0,0,0,0,0,0,0,0,0,0,0,0,0,0,0,0,0,0,0,0,0,0,0,0,0,0,0,0,0,0,0,0,0,0,0,0,0,0,0,0,0,0,0,0,0,0,0,0,0,0,0,0,0,0,0,0,0,0,0,0,0,0,0,0,0,0,0,0,0,0,0,0,0,0,0,0,0,0,0,0,0,0,0,0,0,0,0,0,0,0,0,0,0,0,0,0,0,0,0,0,0,0,0,0,0,0,0,0,0,0,0,0,0,0,0,0,0,0,0,0,0,0,0,0,0,0,0,0,0,0,0,0,0,0,0,0,0,0,0,0,0,0,0,0,0,0,0,0,0,
0,0,0,0,0,0,0,0,0,0,0,0,0,0,0,0,0,0,0,0,0,0,0,0,0,0,0,0,0,0,0,0,0,0,0,0,0,0,0,0,0,0,0,0,0,0,0,0,0,0,0,0,0,0,0,0,0,0,0,0,0,0,0,0,0,0,0,0,0,0,0,0,0,0,0,0,0,0,0,0,0,0,0,0,0,0,0,0,0,0,0,0,0,0,0,0,0,0,0,0,0,0,0,0,0,0,0,0,0,0,0,0,0,0,0,0,0,0,0,0,0,0,0,0,0,0,0,0,0,0,0,0,0,0,0,0,0,0,0,0,0,0,0,0,0,0,0,0,0,0,0,0,0,0,0,0,0,0,0,0,0,0,0,0,0,0,0,0,0,0,0,0,0,0,0,0,0,0,0,0,0,0,0,0,0,0,0,0,0,0,0,0,0,0,0,0,0,0,0,0,0,0,0,0,0,0,0,0,0,0,0,0,0,0,0,0,0,0,0,0,0,0,0,0,0,0,0,0,0,0,0,0,0,0,0,0,0,0,0,0,0,0,0,0,0,0,0,0,0,0,
0,0,0,0,0,0,0,0,0,0,0,0,0,0,0,0,0,0,0,0,0,0,0,0,0,0,0,0,0,0,0,0,0,0,0,0,0,0,0,0,0,0,0,0,0,0,0,0,0,0,0,0,0,0,0,0,0,0,0,0,0,0,0,0,0,0,0,0,0,0,0,0,0,0,0,0,0,0,0,0,0,0,0,0,0,0,0,0,0,0,0,0,0,0,0,0,0,0,0,0,0,0,0,0,0,0,0,0,0,0,0,0,0,0,0,0,0,0,0,0,0,0,0,0,0,0,0,0,0,0,0,0,0,0,0,0,0,0,0,0,0,0,0,0,0,0,0,0,0,0,0,0,0,0,0,0,0,0,0,0,0,0,0,0,0,0,0,0,0,0,0,0,0,0,0,0,0,0,0,0,0,0,0,0,0,0,0,0,0,0,0,0,0,0,0,0,0,0,0,0,0,0,0,0,0,0,0,0,0,0,0,0,0,0,0,0,0,0,0,0,0,0,0,0,0,0,0,0,0,0,0,0,0,0,0,0,0,0,0,0,0,0,0,0,0,0,0,0,0,0,
0,0,0,0,0,0,0,0,0,0,0,0,0,0,0,0,0,0,0,0,0,0,0,0,0,0,0,0,0,0,0,0,0,0,0,0,0,0,0,0,0,0,0,0,0,0,0,0,0,0,0,0,0,0,0,0,0,0,0,0,0,0,0,0,0,0,0,0,0,0,0,0,0,0,0,0,0,0,0,0,0,0,0,0,0,0,0,0,0,0,0,0,0,0,0,0,0,0,0,0,0,0,0,0,0,0,0,0,0,0,0,0,0,0,0,0,0,0,0,0,0,0,0,0,0,0,0,0,0,0,0,0,0,0,0,0,0,0,0,0,0,0,0,0,0,0,0,0,0,0,0,0,0,0,0,0,0,0,0,0,0,0,0,0,0,0,0,0,0,0,0,0,0,0,0,0,0,0,0,0,0,0,0,0,0,0,0,0,0,0,0,0,0,0,0,0,0,0,0,0,0,0,0,0,0,0,0,0,0,0,0,0,0,0,0,0,0,0,0,0,0,0,0,0,0,0,0,0,0,0,0,0,0,0,0,0,0,0,0,0,0,0,0,0,0,0,0,0,0,0,
0,0,0,0,0,0,0,0,0,0,0,0,0,0,0,0,0,0,0,0,0,0,0,0,0,0,0,0,0,0,0,0,0,0,0,0,0,0,0,0,0,0,0,0,0,0,0,0,0,0,0,0,0,0,0,0,0,0,0,0,0,0,0,0,0,0,0,0,0,0,0,0,0,0,0,0,0,0,0,0,0,0,0,0,0,0,0,0,0,0,0,0,0,0,0,0,0,0,0,0,0,0,0,0,0,0,0,0,0,0,0,0,0,0,0,0,0,0,0,0,0,0,0,0,0,0,0,0,0,0,0,0,0,0,0,0,0,0,0,0,0,0,0,0,0,0,0,0,0,0,0,0,0,0,0,0,0,0,0,0,0,0,0,0,0,0,0,0,0,0,0,0,0,0,0,0,0,0,0,0,0,0,0,0,0,0,0,0,0,0,0,0,0,0,0,0,0,0,0,0,0,0,0,0,0,0,0,0,0,0,0,0,0,0,0,0,0,0,0,0,0,0,0,0,0,0,0,0,0,0,0,0,0,0,0,0,0,0,0,0,0,0,0,0,0,0,0,0,0,0,
0,0,0,0,0,0,0,0,0,0,0,0,0,0,0,0,0,0,0,0,0,0,0,0,0,0,0,0,0,0,0,0,0,0,0,0,0,0,0,0,0,0,0,0,0,0,0,0,0,0,0,0,0,0,0,0,0,0,0,0,0,0,0,0,0,0,0,0,0,0,0,0,0,0,0,0,0,0,0,0,0,0,0,0,0,0,0,0,0,0,0,0,0,0,0,0,0,0,0,0,0,0,0,0,0,0,0,0,0,0,0,0,0,0,0,0,0,0,0,0,0,0,0,0,0,0,0,0,0,0,0,0,0,0,0,0,0,0,0,0,0,0,0,0,0,0,0,0,0,0,0,0,0,0,0,0,0,0,0,0,0,0,0,0,0,0,0,0,0,0,0,0,0,0,0,0,0,0,0,0,0,0,0,0,0,0,0,0,0,0,0,0,0,0,0,0,0,0,0,0,0,0,0,0,0,0,0,0,0,0,0,0,0,0,0,0,0,0,0,0,0,0,0,0,0,0,0,0,0,0,0,0,0,0,0,0,0,0,0,0,0,0,0,0,0,0,0,0,0,0,
0,0,0,0,0,0,0,0,0,0,0,0,0,0,0,0,0,0,0,0,0,0,0,0,0,0,0,0,0,0,0,0,0,0,0,0,0,0,0,0,0,0,0,0,0,0,0,0,0,0,0,0,0,0,0,0,0,0,0,0,0,0,0,0,0,0,0,0,0,0,0,0,0,0,0,0,0,0,0,0,0,0,0,0,0,0,0,0,0,0,0,0,0,0,0,0,0,0,0,0,0,0,0,0,0,0,0,0,0,0,0,0,0,0,0,0,0,0,0,0,0,0,0,0,0,0,0,0,0,0,0,0,0,0,0,0,0,0,0,0,0,0,0,0,0,0,0,0,0,0,0,0,0,0,0,0,0,0,0,0,0,0,0,0,0,0,0,0,0,0,0,0,0,0,0,0,0,0,0,0,0,0,0,0,0,0,0,0,0,0,0,0,0,0,0,0,0,0,0,0,0,0,0,0,0,0,0,0,0,0,0,0,0,0,0,0,0,0,0,0,0,0,0,0,0,0,0,0,0,0,0,0,0,0,0,0,0,0,0,0,0,0,0,0,0,0,0,0,0,0,
0,0,0,0,0,0,0,0,0,0,0,0,0,0,0,0,0,0,0,0,0,0,0,0,0,0,0,0,0,0,0,0,0,0,0,0,0,0,0,0,0,0,0,0,0,0,0,0,0,0,0,0,0,0,0,0,0,0,0,0,0,0,0,0,0,0,0,0,0,0,0,0,0,0,0,0,0,0,0,0,0,0,0,0,0,0,0,0,0,0,0,0,0,0,0,0,0,0,0,0,0,0,0,0,0,0,0,0,0,0,0,0,0,0,0,0,0,0,0,0,0,0,0,0,0,0,0,0,0,0,0,0,0,0,0,0,0,0,0,0,0,0,0,0,0,0,0,0,0,0,0,0,0,0,0,0,0,0,0,0,0,0,0,0,0,0,0,0,0,0,0,0,0,0,0,0,0,0,0,0,0,0,0,0,0,0,0,0,0,0,0,0,0,0,0,0,0,0,0,0,0,0,0,0,0,0,0,0,0,0,0,0,0,0,0,0,0,0,0,0,0,0,0,0,0,0,0,0,0,0,0,0,0,0,0,0,0,0,0,0,0,0,0,0,0,0,0,0,0,0,
0,0,0,0,0,0,0,0,0,0,0,0,0,0,0,0,0,0,0,0,0,0,0,0,0,0,0,0,0,0,0,0,0,0,0,0,0,0,0,0,0,0,0,0,0,0,0,0,0,0,0,0,0,0,0,0,0,0,0,0,0,0,0,0,0,0,0,0,0,0,0,0,0,0,0,0,0,0,0,0,0,0,0,0,0,0,0,0,0,0,0,0,0,0,0,0,0,0,0,0,0,0,0,0,0,0,0,0,0,0,0,0,0,0,0,0,0,0,0,0,0,0,0,0,0,0,0,0,0,0,0,0,0,0,0,0,0,0,0,0,0,0,0,0,0,0,0,0,0,0,0,0,0,0,0,0,0,0,0,0,0,0,0,0,0,0,0,0,0,0,0,0,0,0,0,0,0,0,0,0,0,0,0,0,0,0,0,0,0,0,0,0,0,0,0,0,0,0,0,0,0,0,0,0,0,0,0,0,0,0,0,0,0,0,0,0,0,0,0,0,0,0,0,0,0,0,0,0,0,0,0,0,0,0,0,0,0,0,0,0,0,0,0,0,0,0,0,0,0,0,
0,0,0,0,0,0,0,0,0,0,0,0,0,0,0,0,0,0,0,0,0,0,0,0,0,0,0,0,0,0,0,0,0,0,0,0,0,0,0,0,0,0,0,0,0,0,0,0,0,0,0,0,0,0,0,0,0,0,0,0,0,0,0,0,0,0,0,0,0,0,0,0,0,0,0,0,0,0,0,0,0,0,0,0,0,0,0,0,0,0,0,0,0,0,0,0,0,0,0,0,0,0,0,0,0,0,0,0,0,0,0,0,0,0,0,0,0,0,0,0,0,0,0,0,0,0,0,0,0,0,0,0,0,0,0,0,0,0,0,0,0,0,0,0,0,0,0,0,0,0,0,0,0,0,0,0,0,0,0,0,0,0,0,0,0,0,0,0,0,0,0,0,0,0,0,0,0,0,0,0,0,0,0,0,0,0,0,0,0,0,0,0,0,0,0,0,0,0,0,0,0,0,0,0,0,0,0,0,0,0,0,0,0,0,0,0,0,0,0,0,0,0,0,0,0,0,0,0,0,0,0,0,0,0,0,0,0,0,0,0,0,0,0,0,0,0,0,0,0,0,
0,0,0,0,0,0,0,0,0,0,0,0,0,0,0,0,0,0,0,0,0,0,0,0,0,0,0,0,0,0,0,0,0,0,0,0,0,0,0,0,0,0,0,0,0,0,0,0,0,0,0,0,0,0,0,0,0,0,0,0,0,0,0,0,0,0,0,0,0,0,0,0,0,0,0,0,0,0,0,0,0,0,0,0,0,0,0,0,0,0,0,0,0,0,0,0,0,0,0,0,0,0,0,0,0,0,0,0,0,0,0,0,0,0,0,0,0,0,0,0,0,0,0,0,0,0,0,0,0,0,0,0,0,0,0,0,0,0,0,0,0,0,0,0,0,0,0,0,0,0,0,0,0,0,0,0,0,0,0,0,0,0,0,0,0,0,0,0,0,0,0,0,0,0,0,0,0,0,0,0,0,0,0,0,0,0,0,0,0,0,0,0,0,0,0,0,0,0,0,0,0,0,0,0,0,0,0,0,0,0,0,0,0,0,0,0,0,0,0,0,0,0,0,0,0,0,0,0,0,0,0,0,0,0,0,0,0,0,0,0,0,0,0,0,0,0,0,0,0,0,
0,0,0,0,0,0,0,0,0,0,0,0,0,0,0,0,0,0,0,0,0,0,0,0,0,0,0,0,0,0,0,0,0,0,0,0,0,0,0,0,0,0,0,0,0,0,0,0,0,0,0,0,0,0,0,0,0,0,0,0,0,0,0,0,0,0,0,0,0,0,0,0,0,0,0,0,0,0,0,0,0,0,0,0,0,0,0,0,0,0,0,0,0,0,0,0,0,0,0,0,0,0,0,0,0,0,0,0,0,0,0,0,0,0,0,0,0,0,0,0,0,0,0,0,0,0,0,0,0,0,0,0,0,0,0,0,0,0,0,0,0,0,0,0,0,0,0,0,0,0,0,0,0,0,0,0,0,0,0,0,0,0,0,0,0,0,0,0,0,0,0,0,0,0,0,0,0,0,0,0,0,0,0,0,0,0,0,0,0,0,0,0,0,0,0,0,0,0,0,0,0,0,0,0,0,0,0,0,0,0,0,0,0,0,0,0,0,0,0,0,0,0,0,0,0,0,0,0,0,0,0,0,0,0,0,0,0,0,0,0,0,0,0,0,0,0,0,0,0,0,
0,0,0,0,0,0,0,0,0,0,0,0,0,0,0,0,0,0,0,0,0,0,0,0,0,0,0,0,0,0,0,0,0,0,0,0,0,0,0,0,0,0,0,0,0,0,0,0,0,0,0,0,0,0,0,0,0,0,0,0,0,0,0,0,0,0,0,0,0,0,0,0,0,0,0,0,0,0,0,0,0,0,0,0,0,0,0,0,0,0,0,0,0,0,0,0,0,0,0,0,0,0,0,0,0,0,0,0,0,0,0,0,0,0,0,0,0,0,0,0,0,0,0,0,0,0,0,0,0,0,0,0,0,0,0,0,0,0,0,0,0,0,0,0,0,0,0,0,0,0,0,0,0,0,0,0,0,0,0,0,0,0,0,0,0,0,0,0,0,0,0,0,0,0,0,0,0,0,0,0,0,0,0,0,0,0,0,0,0,0,0,0,0,0,0,0,0,0,0,0,0,0,0,0,0,0,0,0,0,0,0,0,0,0,0,0,0,0,0,0,0,0,0,0,0,0,0,0,0,0,0,0,0,0,0,0,0,0,0,0,0,0,0,0,0,0,0,0,0,0,
0,0,0,0,0,0,0,0,0,0,0,0,0,0,0,0,0,0,0,0,0,0,0,0,0,0,0,0,0,0,0,0,0,0,0,0,0,0,0,0,0,0,0,0,0,0,0,0,0,0,0,0,0,0,0,0,0,0,0,0,0,0,0,0,0,0,0,0,0,0,0,0,0,0,0,0,0,0,0,0,0,0,0,0,0,0,0,0,0,0,0,0,0,0,0,0,0,0,0,0,0,0,0,0,0,0,0,0,0,0,0,0,0,0,0,0,0,0,0,0,0,0,0,0,0,0,0,0,0,0,0,0,0,0,0,0,0,0,0,0,0,0,0,0,0,0,0,0,0,0,0,0,0,0,0,0,0,0,0,0,0,0,0,0,0,0,0,0,0,0,0,0,0,0,0,0,0,0,0,0,0,0,0,0,0,0,0,0,0,0,0,0,0,0,0,0,0,0,0,0,0,0,0,0,0,0,0,0,0,0,0,0,0,0,0,0,0,0,0,0,0,0,0,0,0,0,0,0,0,0,0,0,0,0,0,0,0,0,0,0,0,0,0,0,0,0,0,0,0,0,
0,0,0,0,0,0,0,0,0,0,0,0,0,0,0,0,0,0,0,0,0,0,0,0,0,0,0,0,0,0,0,0,0,0,0,0,0,0,0,0,0,0,0,0,0,0,0,0,0,0,0,0,0,0,0,0,0,0,0,0,0,0,0,0,0,0,0,0,0,0,0,0,0,0,0,0,0,0,0,0,0,0,0,0,0,0,0,0,0,0,0,0,0,0,0,0,0,0,0,0,0,0,0,0,0,0,0,0,0,0,0,0,0,0,0,0,0,0,0,0,0,0,0,0,0,0,0,0,0,0,0,0,0,0,0,0,0,0,0,0,0,0,0,0,0,0,0,0,0,0,0,0,0,0,0,0,0,0,0,0,0,0,0,0,0,0,0,0,0,0,0,0,0,0,0,0,0,0,0,0,0,0,0,0,0,0,0,0,0,0,0,0,0,0,0,0,0,0,0,0,0,0,0,0,0,0,0,0,0,0,0,0,0,0,0,0,0,0,0,0,0,0,0,0,0,0,0,0,0,0,0,0,0,0,0,0,0,0,0,0,0,0,0,0,0,0,0,0,0,0,
0,0,0,0,0,0,0,0,0,0,0,0,0,0,0,0,0,0,0,0,0,0,0,0,0,0,0,0,0,0,0,0,0,0,0,0,0,0,0,0,0,0,0,0,0,0,0,0,0,0,0,0,0,0,0,0,0,0,0,0,0,0,0,0,0,0,0,0,0,0,0,0,0,0,0,0,0,0,0,0,0,0,0,0,0,0,0,0,0,0,0,0,0,0,0,0,0,0,0,0,0,0,0,0,0,0,0,0,0,0,0,0,0,0,0,0,0,0,0,0,0,0,0,0,0,0,0,0,0,0,0,0,0,0,0,0,0,0,0,0,0,0,0,0,0,0,0,0,0,0,0,0,0,0,0,0,0,0,0,0,0,0,0,0,0,0,0,0,0,0,0,0,0,0,0,0,0,0,0,0,0,0,0,0,0,0,0,0,0,0,0,0,0,0,0,0,0,0,0,0,0,0,0,0,0,0,0,0,0,0,0,0,0,0,0,0,0,0,0,0,0,0,0,0,0,0,0,0,0,0,0,0,0,0,0,0,0,0,0,0,0,0,0,0,0,0,0,0,0,0,
0,0,0,0,0,0,0,0,0,0,0,0,0,0,0,0,0,0,0,0,0,0,0,0,0,0,0,0,0,0,0,0,0,0,0,0,0,0,0,0,0,0,0,0,0,0,0,0,0,0,0,0,0,0,0,0,0,0,0,0,0,0,0,0,0,0,0,0,0,0,0,0,0,0,0,0,0,0,0,0,0,0,0,0,0,0,0,0,0,0,0,0,0,0,0,0,0,0,0,0,0,0,0,0,0,0,0,0,0,0,0,0,0,0,0,0,0,0,0,0,0,0,0,0,0,0,0,0,0,0,0,0,0,0,0,0,0,0,0,0,0,0,0,0,0,0,0,0,0,0,0,0,0,0,0,0,0,0,0,0,0,0,0,0,0,0,0,0,0,0,0,0,0,0,0,0,0,0,0,0,0,0,0,0,0,0,0,0,0,0,0,0,0,0,0,0,0,0,0,0,0,0,0,0,0,0,0,0,0,0,0,0,0,0,0,0,0,0,0,0,0,0,0,0,0,0,0,0,0,0,0,0,0,0,0,0,0,0,0,0,0,0,0,0,0,0,0,0,0,0,
0,0,0,0,0,0,0,0,0,0,0,0,0,0,0,0,0,0,0,0,0,0,0,0,0,0,0,0,0,0,0,0,0,0,0,0,0,0,0,0,0,0,0,0,0,0,0,0,0,0,0,0,0,0,0,0,0,0,0,0,0,0,0,0,0,0,0,0,0,0,0,0,0,0,0,0,0,0,0,0,0,0,0,0,0,0,0,0,0,0,0,0,0,0,0,0,0,0,0,0,0,0,0,0,0,0,0,0,0,0,0,0,0,0,0,0,0,0,0,0,0,0,0,0,0,0,0,0,0,0,0,0,0,0,0,0,0,0,0,0,0,0,0,0,0,0,0,0,0,0,0,0,0,0,0,0,0,0,0,0,0,0,0,0,0,0,0,0,0,0,0,0,0,0,0,0,0,0,0,0,0,0,0,0,0,0,0,0,0,0,0,0,0,0,0,0,0,0,0,0,0,0,0,0,0,0,0,0,0,0,0,0,0,0,0,0,0,0,0,0,0,0,0,0,0,0,0,0,0,0,0,0,0,0,0,0,0,0,0,0,0,0,0,0,0,0,0,0,0,0,
0,0,0,0,0,0,0,0,0,0,0,0,0,0,0,0,0,0,0,0,0,0,0,0,0,0,0,0,0,0,0,0,0,0,0,0,0,0,0,0,0,0,0,0,0,0,0,0,0,0,0,0,0,0,0,0,0,0,0,0,0,0,0,0,0,0,0,0,0,0,0,0,0,0,0,0,0,0,0,0,0,0,0,0,0,0,0,0,0,0,0,0,0,0,0,0,0,0,0,0,0,0,0,0,0,0,0,0,0,0,0,0,0,0,0,0,0,0,0,0,0,0,0,0,0,0,0,0,0,0,0,0,0,0,0,0,0,0,0,0,0,0,0,0,0,0,0,0,0,0,0,0,0,0,0,0,0,0,0,0,0,0,0,0,0,0,0,0,0,0,0,0,0,0,0,0,0,0,0,0,0,0,0,0,0,0,0,0,0,0,0,0,0,0,0,0,0,0,0,0,0,0,0,0,0,0,0,0,0,0,0,0,0,0,0,0,0,0,0,0,0,0,0,0,0,0,0,0,0,0,0,0,0,0,0,0,0,0,0,0,0,0,0,0,0,0,0,0,0,0,
0,0,0,0,0,0,0,0,0,0,0,0,0,0,0,0,0,0,0,0,0,0,0,0,0,0,0,0,0,0,0,0,0,0,0,0,0,0,0,0,0,0,0,0,0,0,0,0,0,0,0,0,0,0,0,0,0,0,0,0,0,0,0,0,0,0,0,0,0,0,0,0,0,0,0,0,0,0,0,0,0,0,0,0,0,0,0,0,0,0,0,0,0,0,0,0,0,0,0,0,0,0,0,0,0,0,0,0,0,0,0,0,0,0,0,0,0,0,0,0,0,0,0,0,0,0,0,0,0,0,0,0,0,0,0,0,0,0,0,0,0,0,0,0,0,0,0,0,0,0,0,0,0,0,0,0,0,0,0,0,0,0,0,0,0,0,0,0,0,0,0,0,0,0,0,0,0,0,0,0,0,0,0,0,0,0,0,0,0,0,0,0,0,0,0,0,0,0,0,0,0,0,0,0,0,0,0,0,0,0,0,0,0,0,0,0,0,0,0,0,0,0,0,0,0,0,0,0,0,0,0,0,0,0,0,0,0,0,0,0,0,0,0,0,0,0,0,0,0,0,
0,0,0,0,0,0,0,0,0,0,0,0,0,0,0,0,0,0,0,0,0,0,0,0,0,0,0,0,0,0,0,0,0,0,0,0,0,0,0,0,0,0,0,0,0,0,0,0,0,0,0,0,0,0,0,0,0,0,0,0,0,0,0,0,0,0,0,0,0,0,0,0,0,0,0,0,0,0,0,0,0,0,0,0,0,0,0,0,0,0,0,0,0,0,0,0,0,0,0,0,0,0,0,0,0,0,0,0,0,0,0,0,0,0,0,0,0,0,0,0,0,0,0,0,0,0,0,0,0,0,0,0,0,0,0,0,0,0,0,0,0,0,0,0,0,0,0,0,0,0,0,0,0,0,0,0,0,0,0,0,0,0,0,0,0,0,0,0,0,0,0,0,0,0,0,0,0,0,0,0,0,0,0,0,0,0,0,0,0,0,0,0,0,0,0,0,0,0,0,0,0,0,0,0,0,0,0,0,0,0,0,0,0,0,0,0,0,0,0,0,0,0,0,0,0,0,0,0,0,0,0,0,0,0,0,0,0,0,0,0,0,0,0,0,0,0,0,0,0,0,
0,0,0,0,0,0,0,0,0,0,0,0,0,0,0,0,0,0,0,0,0,0,0,0,0,0,0,0,0,0,0,0,0,0,0,0,0,0,0,0,0,0,0,0,0,0,0,0,0,0,0,0,0,0,0,0,0,0,0,0,0,0,0,0,0,0,0,0,0,0,0,0,0,0,0,0,0,0,0,0,0,0,0,0,0,0,0,0,0,0,0,0,0,0,0,0,0,0,0,0,0,0,0,0,0,0,0,0,0,0,0,0,0,0,0,0,0,0,0,0,0,0,0,0,0,0,0,0,0,0,0,0,0,0,0,0,0,0,0,0,0,0,0,0,0,0,0,0,0,0,0,0,0,0,0,0,0,0,0,0,0,0,0,0,0,0,0,0,0,0,0,0,0,0,0,0,0,0,0,0,0,0,0,0,0,0,0,0,0,0,0,0,0,0,0,0,0,0,0,0,0,0,0,0,0,0,0,0,0,0,0,0,0,0,0,0,0,0,0,0,0,0,0,0,0,0,0,0,0,0,0,0,0,0,0,0,0,0,0,0,0,0,0,0,0,0,0,0,0,0,
0,0,0,0,0,0,0,0,0,0,0,0,0,0,0,0,0,0,0,0,0,0,0,0,0,0,0,0,0,0,0,0,0,0,0,0,0,0,0,0,0,0,0,0,0,0,0,0,0,0,0,0,0,0,0,0,0,0,0,0,0,0,0,0,0,0,0,0,0,0,0,0,0,0,0,0,0,0,0,0,0,0,0,0,0,0,0,0,0,0,0,0,0,0,0,0,0,0,0,0,0,0,0,0,0,0,0,0,0,0,0,0,0,0,0,0,0,0,0,0,0,0,0,0,0,0,0,0,0,0,0,0,0,0,0,0,0,0,0,0,0,0,0,0,0,0,0,0,0,0,0,0,0,0,0,0,0,0,0,0,0,0,0,0,0,0,0,0,0,0,0,0,0,0,0,0,0,0,0,0,0,0,0,0,0,0,0,0,0,0,0,0,0,0,0,0,0,0,0,0,0,0,0,0,0,0,0,0,0,0,0,0,0,0,0,0,0,0,0,0,0,0,0,0,0,0,0,0,0,0,0,0,0,0,0,0,0,0,0,0,0,0,0,0,0,0,0,0,0,0,
0,0,0,0,0,0,0,0,0,0,0,0,0,0,0,0,0,0,0,0,0,0,0,0,0,0,0,0,0,0,0,0,0,0,0,0,0,0,0,0,0,0,0,0,0,0,0,0,0,0,0,0,0,0,0,0,0,0,0,0,0,0,0,0,0,0,0,0,0,0,0,0,0,0,0,0,0,0,0,0,0,0,0,0,0,0,0,0,0,0,0,0,0,0,0,0,0,0,0,0,0,0,0,0,0,0,0,0,0,0,0,0,0,0,0,0,0,0,0,0,0,0,0,0,0,0,0,0,0,0,0,0,0,0,0,0,0,0,0,0,0,0,0,0,0,0,0,0,0,0,0,0,0,0,0,0,0,0,0,0,0,0,0,0,0,0,0,0,0,0,0,0,0,0,0,0,0,0,0,0,0,0,0,0,0,0,0,0,0,0,0,0,0,0,0,0,0,0,0,0,0,0,0,0,0,0,0,0,0,0,0,0,0,0,0,0,0,0,0,0,0,0,0,0,0,0,0,0,0,0,0,0,0,0,0,0,0,0,0,0,0,0,0,0,0,0,0,0,0,0,
0,0,0,0,0,0,0,0,0,0,0,0,0,0,0,0,0,0,0,0,0,0,0,0,0,0,0,0,0,0,0,0,0,0,0,0,0,0,0,0,0,0,0,0,0,0,0,0,0,0,0,0,0,0,0,0,0,0,0,0,0,0,0,0,0,0,0,0,0,0,0,0,0,0,0,0,0,0,0,0,0,0,0,0,0,0,0,0,0,0,0,0,0,0,0,0,0,0,0,0,0,0,0,0,0,0,0,0,0,0,0,0,0,0,0,0,0,0,0,0,0,0,0,0,0,0,0,0,0,0,0,0,0,0,0,0,0,0,0,0,0,0,0,0,0,0,0,0,0,0,0,0,0,0,0,0,0,0,0,0,0,0,0,0,0,0,0,0,0,0,0,0,0,0,0,0,0,0,0,0,0,0,0,0,0,0,0,0,0,0,0,0,0,0,0,0,0,0,0,0,0,0,0,0,0,0,0,0,0,0,0,0,0,0,0,0,0,0,0,0,0,0,0,0,0,0,0,0,0,0,0,0,0,0,0,0,0,0,0,0,0,0,0,0,0,0,0,0,0,0,
0,0,0,0,0,0,0,0,0,0,0,0,0,0,0,0,0,0,0,0,0,0,0,0,0,0,0,0,0,0,0,0,0,0,0,0,0,0,0,0,0,0,0,0,0,0,0,0,0,0,0,0,0,0,0,0,0,0,0,0,0,0,0,0,0,0,0,0,0,0,0,0,0,0,0,0,0,0,0,0,0,0,0,0,0,0,0,0,0,0,0,0,0,0,0,0,0,0,0,0,0,0,0,0,0,0,0,0,0,0,0,0,0,0,0,0,0,0,0,0,0,0,0,0,0,0,0,0,0,0,0,0,0,0,0,0,0,0,0,0,0,0,0,0,0,0,0,0,0,0,0,0,0,0,0,0,0,0,0,0,0,0,0,0,0,0,0,0,0,0,0,0,0,0,0,0,0,0,0,0,0,0,0,0,0,0,0,0,0,0,0,0,0,0,0,0,0,0,0,0,0,0,0,0,0,0,0,0,0,0,0,0,0,0,0,0,0,0,0,0,0,0,0,0,0,0,0,0,0,0,0,0,0,0,0,0,0,0,0,0,0,0,0,0,0,0,0,0,0,0,
0,0,0,0,0,0,0,0,0,0,0,0,0,0,0,0,0,0,0,0,0,0,0,0,0,0,0,0,0,0,0,0,0,0,0,0,0,0,0,0,0,0,0,0,0,0,0,0,0,0,0,0,0,0,0,0,0,0,0,0,0,0,0,0,0,0,0,0,0,0,0,0,0,0,0,0,0,0,0,0,0,0,0,0,0,0,0,0,0,0,0,0,0,0,0,0,0,0,0,0,0,0,0,0,0,0,0,0,0,0,0,0,0,0,0,0,0,0,0,0,0,0,0,0,0,0,0,0,0,0,0,0,0,0,0,0,0,0,0,0,0,0,0,0,0,0,0,0,0,0,0,0,0,0,0,0,0,0,0,0,0,0,0,0,0,0,0,0,0,0,0,0,0,0,0,0,0,0,0,0,0,0,0,0,0,0,0,0,0,0,0,0,0,0,0,0,0,0,0,0,0,0,0,0,0,0,0,0,0,0,0,0,0,0,0,0,0,0,0,0,0,0,0,0,0,0,0,0,0,0,0,0,0,0,0,0,0,0,0,0,0,0,0,0,0,0,0,0,0,0,
0,0,0,0,0,0,0,0,0,0,0,0,0,0,0,0,0,0,0,0,0,0,0,0,0,0,0,0,0,0,0,0,0,0,0,0,0,0,0,0,0,0,0,0,0,0,0,0,0,0,0,0,0,0,0,0,0,0,0,0,0,0,0,0,0,0,0,0,0,0,0,0,0,0,0,0,0,0,0,0,0,0,0,0,0,0,0,0,0,0,0,0,0,0,0,0,0,0,0,0,0,0,0,0,0,0,0,0,0,0,0,0,0,0,0,0,0,0,0,0,0,0,0,0,0,0,0,0,0,0,0,0,0,0,0,0,0,0,0,0,0,0,0,0,0,0,0,0,0,0,0,0,0,0,0,0,0,0,0,0,0,0,0,0,0,0,0,0,0,0,0,0,0,0,0,0,0,0,0,0,0,0,0,0,0,0,0,0,0,0,0,0,0,0,0,0,0,0,0,0,0,0,0,0,0,0,0,0,0,0,0,0,0,0,0,0,0,0,0,0,0,0,0,0,0,0,0,0,0,0,0,0,0,0,0,0,0,0,0,0,0,0,0,0,0,0,0,0,0,0,
0,0,0,0,0,0,0,0,0,0,0,0,0,0,0,0,0,0,0,0,0,0,0,0,0,0,0,0,0,0,0,0,0,0,0,0,0,0,0,0,0,0,0,0,0,0,0,0,0,0,0,0,0,0,0,0,0,0,0,0,0,0,0,0,0,0,0,0,0,0,0,0,0,0,0,0,0,0,0,0,0,0,0,0,0,0,0,0,0,0,0,0,0,0,0,0,0,0,0,0,0,0,0,0,0,0,0,0,0,0,0,0,0,0,0,0,0,0,0,0,0,0,0,0,0,0,0,0,0,0,0,0,0,0,0,0,0,0,0,0,0,0,0,0,0,0,0,0,0,0,0,0,0,0,0,0,0,0,0,0,0,0,0,0,0,0,0,0,0,0,0,0,0,0,0,0,0,0,0,0,0,0,0,0,0,0,0,0,0,0,0,0,0,0,0,0,0,0,0,0,0,0,0,0,0,0,0,0,0,0,0,0,0,0,0,0,0,0,0,0,0,0,0,0,0,0,0,0,0,0,0,0,0,0,0,0,0,0,0,0,0,0,0,0,0,0,0,0,0,0,
0,0,0,0,0,0,0,0,0,0,0,0,0,0,0,0,0,0,0,0,0,0,0,0,0,0,0,0,0,0,0,0,0,0,0,0,0,0,0,0,0,0,0,0,0,0,0,0,0,0,0,0,0,0,0,0,0,0,0,0,0,0,0,0,0,0,0,0,0,0,0,0,0,0,0,0,0,0,0,0,0,0,0,0,0,0,0,0,0,0,0,0,0,0,0,0,0,0,0,0,0,0,0,0,0,0,0,0,0,0,0,0,0,0,0,0,0,0,0,0,0,0,0,0,0,0,0,0,0,0,0,0,0,0,0,0,0,0,0,0,0,0,0,0,0,0,0,0,0,0,0,0,0,0,0,0,0,0,0,0,0,0,0,0,0,0,0,0,0,0,0,0,0,0,0,0,0,0,0,0,0,0,0,0,0,0,0,0,0,0,0,0,0,0,0,0,0,0,0,0,0,0,0,0,0,0,0,0,0,0,0,0,0,0,0,0,0,0,0,0,0,0,0,0,0,0,0,0,0,0,0,0,0,0,0,0,0,0,0,0,0,0,0,0,0,0,0,0,0,0,
0,0,0,0,0,0,0,0,0,0,0,0,0,0,0,0,0,0,0,0,0,0,0,0,0,0,0,0,0,0,0,0,0,0,0,0,0,0,0,0,0,0,0,0,0,0,0,0,0,0,0,0,0,0,0,0,0,0,0,0,0,0,0,0,0,0,0,0,0,0,0,0,0,0,0,0,0,0,0,0,0,0,0,0,0,0,0,0,0,0,0,0,0,0,0,0,0,0,0,0,0,0,0,0,0,0,0,0,0,0,0,0,0,0,0,0,0,0,0,0,0,0,0,0,0,0,0,0,0,0,0,0,0,0,0,0,0,0,0,0,0,0,0,0,0,0,0,0,0,0,0,0,0,0,0,0,0,0,0,0,0,0,0,0,0,0,0,0,0,0,0,0,0,0,0,0,0,0,0,0,0,0,0,0,0,0,0,0,0,0,0,0,0,0,0,0,0,0,0,0,0,0,0,0,0,0,0,0,0,0,0,0,0,0,0,0,0,0,0,0,0,0,0,0,0,0,0,0,0,0,0,0,0,0,0,0,0,0,0,0,0,0,0,0,0,0,0,0,0,0
</data>
 </layer>
 <layer id="2" name="top" width="250" height="110">
  <data encoding="csv">
0,0,0,0,0,0,0,0,0,0,0,0,0,0,0,0,0,0,0,0,0,0,0,0,0,0,0,0,0,0,0,0,0,0,0,0,0,0,0,0,0,0,0,0,0,0,0,0,0,0,0,0,0,0,0,0,0,0,0,0,0,0,0,0,0,0,0,0,0,0,0,0,0,0,0,0,0,0,0,0,0,0,0,0,0,0,0,0,0,0,0,0,0,0,0,0,0,0,0,0,0,0,0,0,0,0,0,0,0,0,0,0,0,0,0,0,0,0,0,0,0,0,0,0,0,0,0,0,0,0,0,0,0,0,0,0,0,0,0,0,0,0,0,0,0,0,0,0,0,0,0,0,0,0,0,0,0,0,0,0,0,0,0,0,0,0,0,0,0,0,0,0,0,0,0,0,0,0,0,0,0,0,0,0,0,0,0,0,0,0,0,0,0,0,0,0,0,0,0,0,0,0,0,0,0,0,0,0,0,0,0,0,0,0,0,0,0,0,0,0,0,0,0,0,0,0,0,0,0,0,0,0,0,0,0,0,0,0,0,0,0,0,0,0,0,0,0,0,0,0,
0,0,0,0,0,0,0,0,0,0,0,0,0,0,0,0,0,0,0,0,0,0,0,0,0,0,0,0,0,0,0,0,0,0,0,0,0,0,0,0,0,0,0,0,0,0,0,0,0,0,0,0,0,0,0,0,0,0,0,0,0,0,0,0,0,0,0,0,0,0,0,0,0,0,0,0,0,0,0,0,0,0,0,0,0,0,0,0,0,0,0,0,0,0,0,0,0,0,0,0,0,0,0,0,0,0,0,0,0,0,0,0,0,0,0,0,0,0,0,0,0,0,0,0,0,0,0,0,0,0,0,0,0,0,0,0,0,0,0,0,0,0,0,0,0,0,0,0,0,0,0,0,0,0,0,0,0,0,0,0,0,0,0,0,0,0,0,0,0,0,0,0,0,0,0,0,0,0,0,0,0,0,0,0,0,0,0,0,0,0,0,0,0,0,0,0,0,0,0,0,0,0,0,0,0,0,0,0,0,0,0,0,0,0,0,0,0,0,0,0,0,0,0,0,0,0,0,0,0,0,0,0,0,0,0,0,0,0,0,0,0,0,0,0,0,0,0,0,0,0,
0,0,0,0,0,0,0,0,0,0,0,0,0,0,0,0,0,0,0,0,0,0,0,0,0,0,0,0,0,0,0,0,0,0,0,0,0,0,0,0,0,0,0,0,0,0,0,0,0,0,0,0,0,0,0,0,0,0,0,0,0,0,0,0,0,0,0,0,0,0,0,0,0,0,0,0,0,0,0,0,0,0,0,0,0,0,0,0,0,0,0,0,0,0,0,0,0,0,0,0,0,0,0,0,0,0,0,0,0,0,0,0,0,0,0,0,0,0,0,0,0,0,0,0,0,0,0,0,0,0,0,0,0,0,0,0,0,0,0,0,0,0,0,0,0,0,0,0,0,0,0,0,0,0,0,0,0,0,0,0,0,0,0,0,0,0,0,0,0,0,0,0,0,0,0,0,0,0,0,0,0,0,0,0,0,0,0,0,0,0,0,0,0,0,0,0,0,0,0,0,0,0,0,0,0,0,0,0,0,0,0,0,0,0,0,0,0,0,0,0,0,0,0,0,0,0,0,0,0,0,0,0,0,0,0,0,0,0,0,0,0,0,0,0,0,0,0,0,0,0,
0,0,0,0,0,0,0,0,0,0,0,0,0,0,0,0,0,0,0,0,0,0,0,0,0,0,0,0,0,0,0,0,0,0,0,0,0,0,0,0,0,0,0,0,0,0,0,0,0,0,0,0,0,0,0,0,0,0,0,0,0,0,0,0,0,0,0,0,0,0,0,0,0,0,0,0,0,0,0,0,0,0,0,0,0,0,0,0,0,0,0,0,0,0,0,0,0,0,0,0,0,0,0,0,0,0,0,0,0,0,0,0,0,0,0,0,0,0,0,0,0,0,0,0,0,0,0,0,0,0,0,0,0,0,0,0,0,0,0,0,0,0,0,0,0,0,0,0,0,0,0,0,0,0,0,0,0,0,0,0,0,0,0,0,0,0,0,0,0,0,0,0,0,0,0,0,0,0,0,0,0,0,0,0,0,0,0,0,0,0,0,0,0,0,0,0,0,0,0,0,0,0,0,0,0,0,0,0,0,0,0,0,0,0,0,0,0,0,0,0,0,0,0,0,0,0,0,0,0,0,0,0,0,0,0,0,0,0,0,0,0,0,0,0,0,0,0,0,0,0,
0,0,0,0,0,0,0,0,0,0,0,0,0,0,0,0,0,0,0,0,0,0,0,0,0,0,0,0,0,0,0,0,0,0,0,0,0,0,0,0,0,0,0,0,0,0,0,0,0,0,0,0,0,0,0,0,0,0,0,0,0,0,0,0,0,0,0,0,0,0,0,0,0,0,0,0,0,0,0,0,0,0,0,0,0,0,0,0,0,0,0,0,0,0,0,0,0,0,0,0,0,0,0,0,0,0,0,0,0,0,0,0,0,0,0,0,0,0,0,0,0,0,0,0,0,0,0,0,0,0,0,0,0,0,0,0,0,0,0,0,0,0,0,0,0,0,0,0,0,0,0,0,0,0,0,0,0,0,0,0,0,0,0,0,0,0,0,0,0,0,0,0,0,0,0,0,0,0,0,0,0,0,0,0,0,0,0,0,0,0,0,0,0,0,0,0,0,0,0,0,0,0,0,0,0,0,0,0,0,0,0,0,0,0,0,0,0,0,0,0,0,0,0,0,0,0,0,0,0,0,0,0,0,0,0,0,0,0,0,0,0,0,0,0,0,0,0,0,0,0,
0,0,0,0,0,0,0,0,0,0,0,0,0,0,0,0,0,0,0,0,0,0,0,0,0,0,0,0,0,0,0,0,0,0,0,0,0,0,0,0,0,0,0,0,0,0,0,0,0,0,0,0,0,0,0,0,0,0,0,0,0,0,0,0,0,0,0,0,0,0,0,0,0,0,0,0,0,0,0,0,0,0,0,0,0,0,0,0,0,0,0,0,0,0,0,0,0,0,0,0,0,0,0,0,0,0,0,0,0,0,0,0,0,0,0,0,0,0,0,0,0,0,0,0,0,0,0,0,0,0,0,0,0,0,0,0,0,0,0,0,0,0,0,0,0,0,0,0,0,0,0,0,0,0,0,0,0,0,0,0,0,0,0,0,0,0,0,0,0,0,0,0,0,0,0,0,0,0,0,0,0,0,0,0,0,0,0,0,0,0,0,0,0,0,0,0,0,0,0,0,0,0,0,0,0,0,0,0,0,0,0,0,0,0,0,0,0,0,0,0,0,0,0,0,0,0,0,0,0,0,0,0,0,0,0,0,0,0,0,0,0,0,0,0,0,0,0,0,0,0,
0,0,0,0,0,0,0,0,0,0,0,0,0,0,0,0,0,0,0,0,0,0,0,0,0,0,0,0,0,0,0,0,0,0,0,0,0,0,0,0,0,0,0,0,0,0,0,0,0,0,0,0,0,0,0,0,0,0,0,0,0,0,0,0,0,0,0,0,0,0,0,0,0,0,0,0,0,0,0,0,0,0,0,0,0,0,0,0,0,0,0,0,0,0,0,0,0,0,0,0,0,0,0,0,0,0,0,0,0,0,0,0,0,0,0,0,0,0,0,0,0,0,0,0,0,0,0,0,0,0,0,0,0,0,0,0,0,0,0,0,0,0,0,0,0,0,0,0,0,0,0,0,0,0,0,0,0,0,0,0,0,0,0,0,0,0,0,0,0,0,0,0,0,0,0,0,0,0,0,0,0,0,0,0,0,0,0,0,0,0,0,0,0,0,0,0,0,0,0,0,0,0,0,0,0,0,0,0,0,0,0,0,0,0,0,0,0,0,0,0,0,0,0,0,0,0,0,0,0,0,0,0,0,0,0,0,0,0,0,0,0,0,0,0,0,0,0,0,0,0,
0,0,0,0,0,0,0,0,0,0,0,0,0,0,0,0,0,0,0,0,0,0,0,0,0,0,0,0,0,0,0,0,0,0,0,0,0,0,0,0,0,0,0,0,0,0,0,0,0,0,0,0,0,0,0,0,0,0,0,0,0,0,0,0,0,0,0,0,0,0,0,0,0,0,0,0,0,0,0,0,0,0,0,0,0,0,0,0,0,0,0,0,0,0,0,0,0,0,0,0,0,0,0,0,0,0,0,0,0,0,0,0,0,0,0,0,0,0,0,0,0,0,0,0,0,0,0,0,0,0,0,0,0,0,0,0,0,0,0,0,0,0,0,0,0,0,0,0,0,0,0,0,0,0,0,0,0,0,0,0,0,0,0,0,0,0,0,0,0,0,0,0,0,0,0,0,0,0,0,0,0,0,0,0,0,0,0,0,0,0,0,0,0,0,0,0,0,0,0,0,0,0,0,0,0,0,0,0,0,0,0,0,0,0,0,0,0,0,0,0,0,0,0,0,0,0,0,0,0,0,0,0,0,0,0,0,0,0,0,0,0,0,0,0,0,0,0,0,0,0,
0,0,0,0,0,0,0,0,0,0,0,0,0,0,0,0,0,0,0,0,0,0,0,0,0,0,0,0,0,0,0,0,0,0,0,0,0,0,0,0,0,0,0,0,0,0,0,0,0,0,0,0,0,0,0,0,0,0,0,0,0,0,0,0,0,0,0,0,0,0,0,0,0,0,0,0,0,0,0,0,0,0,0,0,0,0,0,0,0,0,0,0,0,0,0,0,0,0,0,0,0,0,0,0,0,0,0,0,0,0,0,0,0,0,0,0,0,0,0,0,0,0,0,0,0,0,0,0,0,0,0,0,0,0,0,0,0,0,0,0,0,0,0,0,0,0,0,0,0,0,0,0,0,0,0,0,0,0,0,0,0,0,0,0,0,0,0,0,0,0,0,0,0,0,0,0,0,0,0,0,0,0,0,0,0,0,0,0,0,0,0,0,0,0,0,0,0,0,0,0,0,0,0,0,0,0,0,0,0,0,0,0,0,0,0,0,0,0,0,0,0,0,0,0,0,0,0,0,0,0,0,0,0,0,0,0,0,0,0,0,0,0,0,0,0,0,0,0,0,0,
0,0,0,0,0,0,0,0,0,0,0,0,0,0,0,0,0,0,0,0,0,0,0,0,0,0,0,0,0,0,0,0,0,0,0,0,0,0,0,0,0,0,0,0,0,0,0,0,0,0,0,0,0,0,0,0,0,0,0,0,0,0,0,0,0,0,0,0,0,0,0,0,0,0,0,0,0,0,0,0,0,0,0,0,0,0,0,0,0,0,0,0,0,0,0,0,0,0,0,0,0,0,0,0,0,0,0,0,0,0,0,0,0,0,0,0,0,0,0,0,0,0,0,0,0,0,0,0,0,0,0,0,0,0,0,0,0,0,0,0,0,0,0,0,0,0,0,0,0,0,0,0,0,0,0,0,0,0,0,0,0,0,0,0,0,0,0,0,0,0,0,0,0,0,0,0,0,0,0,0,0,0,0,0,0,0,0,0,0,0,0,0,0,0,0,0,0,0,0,0,0,0,0,0,0,0,0,0,0,0,0,0,0,0,0,0,0,0,0,0,0,0,0,0,0,0,0,0,0,0,0,0,0,0,0,0,0,0,0,0,0,0,0,0,0,0,0,0,0,0,
0,0,0,0,0,0,0,0,0,0,0,0,0,0,0,0,0,0,0,0,0,0,0,0,0,0,0,0,0,0,0,0,0,0,0,0,0,0,0,0,0,0,0,0,0,0,0,0,0,0,0,0,0,0,0,0,0,0,0,0,0,0,0,0,0,0,0,0,0,0,0,0,0,0,0,0,0,0,0,0,0,0,0,0,0,0,0,0,0,0,0,0,0,0,0,0,0,0,0,0,0,0,0,0,0,0,0,0,0,0,0,0,0,0,0,0,0,0,0,0,0,0,0,0,0,0,0,0,0,0,0,0,0,0,0,0,0,0,0,0,0,0,0,0,0,0,0,0,0,0,0,0,0,0,0,0,0,0,0,0,0,0,0,0,0,0,0,0,0,0,0,0,0,0,0,0,0,0,0,0,0,0,0,0,0,0,0,0,0,0,0,0,0,0,0,0,0,0,0,0,0,0,0,0,0,0,0,0,0,0,0,0,0,0,0,0,0,0,0,0,0,0,0,0,0,0,0,0,0,0,0,0,0,0,0,0,0,0,0,0,0,0,0,0,0,0,0,0,0,0,
0,0,0,0,0,0,0,0,0,0,0,0,0,0,0,0,0,0,0,0,0,0,0,0,0,0,0,0,0,0,0,0,0,0,0,0,0,0,0,0,0,0,0,0,0,0,0,0,0,0,0,0,0,0,0,0,0,0,0,0,0,0,0,0,0,0,0,0,0,0,0,0,0,0,0,0,0,0,0,0,0,0,0,0,0,0,0,0,0,0,0,0,0,0,0,0,0,0,0,0,0,0,0,0,0,0,0,0,0,0,0,0,0,0,0,0,0,0,0,0,0,0,0,0,0,0,0,0,0,0,0,0,0,0,0,0,0,0,0,0,0,0,0,0,0,0,0,0,0,0,0,0,0,0,0,0,0,0,0,0,0,0,0,0,0,0,0,0,0,0,0,0,0,0,0,0,0,0,0,0,0,0,0,0,0,0,0,0,0,0,0,0,0,0,0,0,0,0,0,0,0,0,0,0,0,0,0,0,0,0,0,0,0,0,0,0,0,0,0,0,0,0,0,0,0,0,0,0,0,0,0,0,0,0,0,0,0,0,0,0,0,0,0,0,0,0,0,0,0,0,
0,0,0,0,0,0,0,0,0,0,0,0,0,0,0,0,0,0,0,0,0,0,0,0,0,0,0,0,0,0,0,0,0,0,0,0,0,0,0,0,0,0,0,0,0,0,0,0,0,0,0,0,0,0,0,0,0,0,0,0,0,0,0,0,0,0,0,0,0,0,0,0,0,0,0,0,0,0,0,0,0,0,0,0,0,0,0,0,0,0,0,0,0,0,0,0,0,0,0,0,0,0,0,0,0,0,0,0,0,0,0,0,0,0,0,0,0,0,0,0,0,0,0,0,0,0,0,0,0,0,0,0,0,0,0,0,0,0,0,0,0,0,0,0,0,0,0,0,0,0,0,0,0,0,0,0,0,0,0,0,0,0,0,0,0,0,0,0,0,0,0,0,0,0,0,0,0,0,0,0,0,0,0,0,0,0,0,0,0,0,0,0,0,0,0,0,0,0,0,0,0,0,0,0,0,0,0,0,0,0,0,0,0,0,0,0,0,0,0,0,0,10037,10038,10039,0,0,0,0,0,0,0,0,0,0,0,0,0,0,0,0,0,0,0,0,0,0,0,0,0,0,
0,0,0,0,0,0,0,0,0,0,0,0,0,0,0,0,0,0,0,0,0,0,0,0,0,0,0,0,0,0,0,0,0,0,0,0,0,0,0,0,0,0,0,0,0,0,0,0,0,0,0,0,0,0,0,0,0,0,0,1694,0,0,0,0,0,0,0,0,0,0,0,0,0,0,0,0,0,0,0,0,0,0,0,0,0,0,0,0,0,0,0,0,0,0,0,0,0,0,0,0,0,0,0,0,0,0,0,0,0,0,0,0,0,0,0,0,0,0,0,0,0,0,0,0,0,0,0,0,0,0,0,0,0,0,0,0,0,0,0,0,0,0,0,0,0,0,0,0,0,0,0,0,0,0,0,0,0,0,0,0,0,0,0,0,0,0,0,0,0,0,0,0,0,0,0,0,0,0,0,0,0,0,0,0,0,0,0,0,0,0,0,0,0,0,0,0,0,0,0,0,0,0,0,0,0,0,0,0,0,0,0,0,0,0,0,0,0,0,0,0,0,10101,10102,10103,0,0,0,0,11384,0,0,0,0,0,0,0,0,0,0,0,0,0,0,0,0,0,0,0,0,0,
0,0,0,0,0,0,0,0,0,0,0,0,0,0,0,0,0,0,0,0,0,0,0,0,0,0,0,0,0,0,0,0,0,0,0,0,0,0,0,0,0,0,0,0,0,0,0,0,0,0,0,0,0,0,0,0,0,0,0,0,0,0,0,0,0,0,0,0,0,0,0,0,0,0,0,0,0,0,0,0,0,0,0,0,0,0,0,0,0,0,0,0,0,0,0,0,0,0,0,0,0,0,0,0,0,0,0,0,0,0,0,0,0,0,0,0,0,0,0,0,0,0,0,0,0,0,0,0,0,0,0,0,0,0,0,0,0,0,0,0,0,0,0,0,0,0,0,0,0,0,2695,0,0,0,0,0,0,0,0,0,0,0,0,0,0,0,0,0,0,0,0,0,0,0,0,0,0,0,0,0,0,0,0,0,0,0,0,0,0,0,0,0,0,0,0,0,0,0,0,0,0,0,0,0,0,0,0,0,0,0,0,0,0,0,0,0,11639,0,0,0,0,10165,10166,10167,0,0,0,0,11448,0,0,0,0,0,0,0,0,0,0,0,0,0,0,0,0,0,0,0,0,0,
0,0,0,0,0,0,0,0,0,0,0,0,0,0,0,0,0,0,0,0,0,0,0,0,0,0,0,0,0,0,0,0,0,0,0,0,0,0,0,0,0,0,0,0,0,0,0,0,0,0,0,0,0,0,0,0,0,0,0,0,0,0,0,0,0,0,0,0,0,0,0,0,0,0,0,0,0,0,0,0,0,0,0,0,0,0,0,0,0,0,0,0,0,0,0,0,0,0,0,0,0,0,0,0,0,0,0,0,0,0,0,0,0,0,0,0,0,0,0,0,0,0,0,0,0,0,0,0,0,0,0,0,0,0,0,0,0,0,0,0,0,0,0,0,0,0,0,0,0,0,2759,0,0,0,0,0,0,0,0,0,0,0,0,0,0,0,0,0,0,0,0,0,0,0,0,0,0,0,0,0,0,0,0,0,0,0,0,0,0,0,0,0,0,0,0,0,0,0,0,0,0,0,0,0,0,0,0,0,0,0,0,0,0,0,0,0,11703,0,0,0,0,0,0,0,0,0,0,0,11512,0,0,0,0,0,0,0,0,0,0,0,0,0,0,0,0,0,0,0,0,0,
0,0,0,0,0,0,0,0,0,0,0,0,0,0,0,0,0,0,0,0,0,0,0,0,0,0,0,0,0,0,0,0,0,0,0,0,0,0,0,0,0,0,0,0,0,0,0,0,0,0,0,0,0,0,0,0,0,0,0,0,0,0,0,0,0,0,0,0,0,0,0,0,0,0,0,0,0,0,0,0,0,0,0,0,0,0,0,0,0,0,0,0,0,0,0,0,0,0,0,0,0,0,0,0,0,0,0,0,0,0,0,0,0,0,0,0,0,0,0,0,0,0,0,0,0,0,0,0,0,0,0,0,0,0,0,0,0,0,0,0,0,0,0,0,0,0,0,0,0,0,2823,0,0,0,0,0,0,0,0,0,0,0,0,0,0,0,0,0,0,0,0,0,0,0,0,0,0,0,0,0,0,0,0,0,0,0,0,0,0,0,0,0,0,0,0,0,0,0,0,0,0,0,0,0,0,0,0,0,0,0,0,0,0,0,0,0,11767,0,0,0,0,0,0,0,0,0,0,0,11576,0,0,0,0,0,0,0,0,0,0,0,0,0,0,0,0,0,0,0,0,0,
0,0,0,0,0,0,0,0,0,0,0,0,0,0,0,0,0,0,0,0,0,0,0,0,0,0,0,0,0,0,0,0,0,0,0,0,0,0,0,0,0,0,0,0,0,0,0,0,0,0,0,0,0,0,0,0,0,0,0,0,0,0,0,0,0,0,0,0,0,0,0,0,0,0,0,0,0,0,0,0,0,0,0,0,0,0,0,0,0,0,0,0,0,0,0,0,0,0,0,0,0,0,0,0,0,0,0,0,0,0,0,0,0,0,0,0,0,0,0,0,0,0,0,0,0,0,0,0,0,0,0,0,0,0,0,0,0,0,0,0,0,0,0,0,0,0,0,0,0,0,0,0,0,0,0,0,0,0,0,0,0,0,0,0,0,0,0,0,0,0,0,0,0,0,0,0,0,0,0,0,0,0,0,0,0,0,0,0,0,0,0,0,0,0,0,0,0,0,0,0,0,0,0,0,0,0,0,0,0,0,0,0,0,0,0,0,0,0,0,0,0,0,0,0,0,0,0,0,0,0,0,0,0,0,0,0,0,0,0,0,0,0,0,0,0,0,0,0,0,0,
0,0,0,0,0,0,0,0,0,0,0,0,0,0,0,0,0,0,1694,0,0,0,0,0,0,0,0,0,0,0,0,0,0,0,0,0,0,0,0,0,0,0,0,0,0,0,0,0,0,0,0,0,0,0,0,0,0,0,0,0,0,0,0,0,0,0,0,0,0,0,0,0,0,0,0,0,0,0,0,0,0,0,0,0,0,0,0,0,0,0,0,0,0,0,0,0,0,0,0,0,0,0,0,0,0,0,0,0,0,0,0,0,0,0,0,0,0,0,0,0,0,0,0,0,0,0,0,0,0,0,0,0,0,0,0,0,0,0,0,0,0,0,0,0,0,0,0,0,0,0,0,0,0,0,0,0,0,0,0,0,0,0,0,0,0,0,0,0,0,0,0,0,0,0,0,0,0,0,0,0,0,0,0,0,0,0,0,0,0,0,0,0,0,0,0,0,0,0,0,0,0,0,0,0,0,0,0,0,0,0,0,0,0,0,0,0,0,0,0,0,0,0,0,0,0,0,0,0,0,0,0,0,0,0,0,0,0,0,0,0,0,0,0,0,0,0,0,0,0,0,
0,0,0,0,0,0,0,0,0,0,0,0,0,0,0,0,0,0,0,0,0,0,0,0,0,0,0,0,0,0,0,0,0,0,0,0,0,0,0,0,0,0,0,0,0,0,0,0,0,0,0,0,0,0,0,0,0,0,0,0,0,0,0,0,0,0,0,0,0,0,0,0,0,0,0,0,0,0,0,0,0,0,0,0,0,0,0,0,0,0,0,0,0,0,0,0,0,0,0,0,0,0,0,0,0,0,0,0,0,0,0,0,0,0,0,0,0,0,0,0,0,0,0,0,0,0,0,0,0,0,0,0,0,0,0,0,0,0,0,0,3335,0,0,0,0,0,0,0,0,0,0,0,0,0,0,0,0,0,0,0,0,0,0,0,0,0,0,0,0,0,0,0,0,0,0,0,0,0,0,0,0,0,0,0,0,0,0,0,0,0,0,0,0,0,0,0,0,0,0,0,0,0,0,0,0,0,0,0,0,0,0,0,0,0,0,0,0,0,0,0,0,0,0,0,0,0,0,0,0,0,0,0,0,0,0,0,0,0,0,0,0,0,0,0,0,0,0,0,0,0,
0,0,0,0,0,0,0,0,0,0,0,0,0,0,0,0,0,0,0,0,0,0,0,0,0,0,0,0,0,0,0,0,0,0,0,0,0,0,0,0,0,0,0,0,0,0,0,0,0,0,0,0,0,0,0,0,0,0,0,0,0,0,0,0,0,0,0,0,0,0,0,0,0,0,0,0,0,0,0,0,0,0,0,0,0,0,0,0,0,0,0,0,0,0,0,0,0,0,0,0,0,0,0,0,0,0,0,0,0,0,0,0,0,0,0,0,0,0,0,0,0,0,0,0,0,0,0,0,0,0,0,0,0,0,0,0,0,0,0,0,3399,0,0,0,0,0,0,0,0,0,0,0,0,0,0,0,0,0,0,0,0,0,0,0,0,0,0,0,0,0,0,0,0,0,0,0,0,0,0,0,0,0,0,0,0,0,0,0,0,0,0,0,0,0,0,0,0,0,0,0,0,0,0,0,0,0,0,0,0,0,0,0,0,0,0,0,0,0,0,0,0,6814,6815,6816,0,0,0,0,0,0,0,0,0,0,0,0,0,0,0,0,0,0,0,0,0,0,0,0,0,0,
0,0,0,0,0,0,0,0,0,0,0,0,0,0,0,0,0,0,0,0,0,0,0,0,0,0,0,0,0,0,0,0,0,0,0,0,0,0,0,0,0,0,0,0,0,0,0,0,0,0,0,0,0,0,0,0,0,0,0,0,0,0,0,0,0,0,0,0,0,0,0,0,0,0,0,0,0,0,0,0,0,0,0,0,0,0,0,0,0,0,0,0,0,0,0,0,0,0,0,0,0,0,0,0,0,0,0,0,0,0,0,0,0,0,0,0,0,0,0,0,0,0,0,0,0,0,0,0,0,0,0,0,0,0,0,0,0,0,0,0,3463,0,0,0,2698,0,0,0,0,0,0,0,0,0,0,0,0,0,0,2693,0,0,0,0,0,0,0,0,0,0,0,0,0,0,0,0,0,0,0,0,0,0,0,0,0,0,0,0,0,0,0,0,0,0,0,0,0,0,0,0,0,0,0,0,0,0,0,0,0,9763,9764,0,0,0,0,0,0,0,0,0,0,6878,6879,6880,0,0,0,0,0,0,0,0,0,0,9763,9764,0,0,0,0,0,0,0,0,0,0,0,0,0,0,
0,0,0,0,0,0,0,0,0,0,0,0,0,0,0,0,0,0,0,0,0,0,0,0,0,0,0,0,0,0,0,0,0,0,0,0,0,0,0,0,0,764,1012,1012,1012,1012,1012,947,0,0,0,0,0,0,0,0,0,0,0,0,0,0,0,0,0,0,0,0,0,0,0,0,0,0,0,0,0,0,0,0,0,0,0,0,0,0,0,0,0,0,0,0,0,0,0,0,0,0,0,0,0,0,0,0,0,0,3335,0,0,0,0,0,0,0,0,0,0,0,3342,0,0,0,0,0,0,0,0,0,0,0,0,0,0,0,0,0,0,0,0,0,0,0,0,0,2762,0,0,0,0,0,0,0,0,0,0,0,0,0,0,2757,0,0,0,0,0,0,0,0,0,0,0,0,0,0,0,0,0,0,0,0,0,0,0,0,0,0,0,0,0,0,0,0,0,0,0,0,0,0,0,0,0,0,0,0,0,0,0,0,2147493357,9827,9828,9709,0,0,0,0,0,0,0,0,10029,6942,6943,6944,10030,9970,9970,0,0,0,0,0,0,2147493355,9827,9828,9707,0,0,0,0,0,0,0,0,0,0,0,0,0,
0,0,0,0,0,0,0,0,0,0,0,0,0,0,0,0,0,0,0,0,0,0,0,0,0,0,0,0,0,0,0,0,0,0,0,0,0,0,0,0,0,828,1076,1395,1396,1397,1398,1076,1011,0,0,0,0,0,0,0,0,0,0,0,0,0,0,0,0,0,0,0,0,0,0,0,0,0,0,0,0,0,0,0,0,0,0,0,0,0,0,0,0,0,0,0,0,0,0,0,0,0,0,0,0,0,0,0,0,0,3399,0,0,0,0,0,0,0,0,0,0,0,3406,0,0,0,0,0,0,0,0,0,0,0,0,0,0,0,0,0,0,0,0,0,0,0,0,0,2826,0,0,0,0,0,0,0,0,0,0,0,0,0,0,2821,0,0,0,0,0,0,0,0,0,0,0,0,0,0,0,0,0,0,0,0,0,0,0,0,0,0,0,0,0,0,0,0,0,0,0,0,0,0,0,0,0,0,0,0,0,0,0,0,2147493421,0,0,9773,0,0,0,0,2147493618,2147493618,2147493747,2684364848,2147493742,7006,7007,7008,10094,536881200,10099,9970,9970,0,0,0,0,2147493419,0,0,9771,0,0,0,0,0,0,0,0,0,0,0,0,0,
0,0,0,0,0,0,0,0,0,0,0,0,0,0,0,0,0,0,0,0,0,0,0,0,0,0,0,0,0,0,882,0,0,0,0,0,0,0,0,0,0,0,0,0,0,0,0,0,1075,0,0,0,0,0,0,0,0,0,0,0,0,0,0,0,0,0,0,0,1506,0,0,0,0,1503,0,0,0,0,0,0,0,0,0,0,0,0,0,0,0,0,0,0,0,0,0,0,0,0,0,0,0,0,0,0,0,0,3463,0,0,0,0,0,0,0,0,0,0,0,3470,0,0,0,0,0,0,0,0,0,0,0,0,0,0,0,0,0,0,0,0,0,0,0,0,0,0,0,0,0,0,0,0,0,0,0,0,0,0,0,0,0,0,0,0,0,0,0,0,0,0,0,0,0,0,0,0,0,0,0,0,0,0,0,0,0,0,0,0,0,0,0,0,0,0,0,0,0,0,0,0,0,0,0,0,0,0,0,0,0,2147493485,0,0,9837,0,0,0,2147493618,2147493682,2684364912,2684364912,2147493810,2147493742,0,0,0,10094,10162,536881264,536881264,10034,9970,0,0,0,2147493483,0,0,9835,0,0,0,0,0,0,0,0,0,0,0,0,0,
0,0,0,0,0,0,0,0,0,0,0,0,0,0,0,0,0,0,0,0,0,0,0,0,0,0,0,0,0,0,946,947,0,0,0,0,0,0,0,0,949,950,0,0,0,0,0,0,0,0,0,0,0,0,0,0,0,0,0,0,0,0,0,0,0,0,0,0,0,0,0,0,0,0,0,0,0,0,0,0,0,0,0,0,0,0,0,0,0,0,0,0,0,0,0,0,0,0,0,0,0,0,0,0,0,0,0,0,0,0,0,0,0,0,0,0,0,0,0,0,0,0,0,0,0,0,0,0,0,0,0,0,0,0,0,0,0,0,0,0,0,0,0,0,0,0,0,0,0,0,0,0,0,0,0,0,0,0,0,0,0,0,0,0,0,0,0,0,0,0,0,0,0,0,0,0,0,0,0,0,0,0,0,0,0,0,0,0,0,0,0,0,0,0,0,0,0,0,0,0,0,0,0,0,0,0,0,0,0,0,0,0,0,0,0,2147493747,2684364848,2147493934,2147493934,2147493874,2147493806,0,0,0,10158,10226,10286,10286,536881200,10099,10100,0,0,0,0,0,0,0,0,0,0,0,0,0,0,0,0,0,0,0,
0,0,0,0,0,0,0,0,0,0,0,0,0,0,0,0,0,0,0,0,0,0,0,0,0,0,0,0,0,0,1010,1011,1012,1012,947,0,0,0,0,949,1013,1014,0,0,0,0,0,0,0,0,0,0,0,0,0,0,0,0,0,0,0,0,0,0,0,0,0,0,0,0,0,0,0,0,0,1505,0,0,0,0,0,0,0,0,0,0,0,0,0,0,0,0,0,0,0,0,0,0,0,0,0,0,0,0,0,0,0,0,0,0,0,0,0,0,0,0,0,0,0,0,0,0,0,0,0,0,0,0,0,0,0,0,0,0,0,0,0,0,0,0,0,0,0,0,0,0,0,0,0,0,1962,1963,1964,1965,1966,0,0,0,0,0,0,0,0,0,0,0,0,0,0,0,0,0,0,0,0,0,0,0,0,0,0,0,0,0,0,0,0,0,0,0,0,0,0,0,0,0,0,0,0,0,0,0,0,0,0,10037,10038,10039,0,0,0,0,0,0,0,2147493747,2147493742,0,0,0,0,10221,10222,10223,0,0,0,0,10094,10099,10100,0,0,0,0,0,0,10037,10038,10039,0,0,0,0,0,0,0,0,0,0,
0,0,0,0,0,0,0,0,0,0,0,0,0,0,0,0,0,0,0,0,0,0,0,0,0,0,0,0,0,0,0,1075,1076,1076,1011,0,0,0,0,1013,1077,0,0,0,0,0,0,0,0,0,0,0,0,0,0,0,0,0,0,0,0,0,0,0,0,0,0,0,0,0,0,0,0,0,0,0,0,0,0,0,1570,0,0,0,0,0,0,0,0,0,0,0,0,0,0,0,0,0,0,0,0,0,0,0,0,0,0,0,0,0,0,0,0,0,0,0,0,0,0,0,0,0,0,0,0,0,0,0,0,0,0,0,0,0,0,0,0,0,0,0,0,0,0,0,0,0,0,0,0,0,2026,2027,2028,2029,2030,0,0,0,0,0,0,0,0,0,0,0,0,0,0,0,0,0,0,0,0,0,0,0,0,0,0,0,0,0,0,0,0,0,0,0,0,0,0,0,0,0,0,0,0,0,0,0,0,0,0,10101,10102,10103,0,0,0,0,0,0,0,2147493747,2147493742,0,0,0,2147493677,10040,10041,10042,10029,0,0,0,10094,10099,10100,0,0,0,0,0,0,10101,10102,10103,0,0,0,0,0,0,0,0,0,0,
0,0,0,0,0,0,0,0,0,0,0,0,0,0,0,0,0,0,0,0,0,0,0,0,0,0,0,0,0,0,0,0,0,0,1075,0,0,0,0,1077,0,0,0,0,0,0,0,0,0,0,0,0,0,0,0,0,0,0,0,0,0,0,0,0,0,0,0,0,0,0,0,0,0,0,0,0,0,1566,0,0,0,0,0,0,0,0,0,0,0,0,0,0,0,0,0,0,0,0,0,0,0,0,0,0,0,0,0,0,0,0,0,0,0,0,0,0,0,0,0,0,0,0,0,0,0,0,0,0,0,0,0,0,0,0,0,0,0,0,0,0,0,0,0,0,0,0,0,0,0,0,2090,2091,2092,2093,2094,0,0,0,0,0,0,0,0,0,0,0,0,0,0,0,0,0,0,0,0,0,0,0,0,0,0,0,0,0,0,0,0,0,0,0,0,0,0,0,0,0,0,0,0,0,0,0,0,0,0,10165,10166,10167,0,0,0,0,0,0,0,2147493747,2147493742,0,0,0,2147493741,10104,10105,10106,10093,0,0,0,10094,10099,10100,0,0,0,0,0,0,10165,10166,10167,0,0,0,0,0,0,0,0,0,0,
0,0,0,0,0,0,0,808,809,0,0,0,0,0,0,0,0,0,0,0,0,0,0,0,0,0,0,0,0,0,0,0,0,0,0,0,0,0,0,0,0,0,0,0,0,0,0,0,0,0,0,0,0,0,0,0,0,0,0,0,0,0,0,0,0,0,0,0,0,0,0,0,0,0,0,0,0,0,0,0,0,0,0,0,0,0,0,0,0,0,0,0,0,0,0,0,0,0,0,0,0,0,0,0,0,0,0,0,0,0,0,0,0,0,0,0,0,0,0,0,0,0,0,0,0,0,0,0,0,0,0,0,0,0,0,0,0,0,0,0,0,0,0,0,2698,0,0,0,0,0,2154,2155,2156,2157,2158,0,0,0,0,0,0,0,0,0,0,0,0,0,0,0,0,0,0,0,0,0,0,0,0,0,0,0,0,0,0,0,0,0,0,0,0,0,0,0,0,0,0,0,0,0,0,0,0,0,0,0,0,0,0,0,0,0,0,0,0,2147493747,2147493742,0,0,0,2147493805,10168,10169,10170,10157,0,0,0,10094,10099,10100,0,0,0,0,0,0,0,0,0,0,0,0,0,0,0,0,0,0,0,
0,0,0,0,0,0,0,872,873,0,0,0,0,0,0,0,0,0,0,0,0,0,0,0,0,0,0,0,0,0,0,0,0,0,0,0,0,0,0,0,0,0,0,0,0,0,0,0,0,0,0,0,0,0,0,0,0,0,0,0,0,0,0,0,0,0,0,0,0,0,0,0,0,0,0,0,0,0,0,0,0,0,0,0,0,0,0,0,0,0,0,0,0,0,0,0,0,0,0,0,0,0,0,0,0,0,0,0,0,0,1962,1963,1964,1965,1966,0,0,0,0,0,0,0,0,0,0,0,0,0,0,0,0,0,0,0,0,0,0,0,0,0,0,0,0,0,2762,0,0,0,0,0,0,0,0,0,0,0,0,0,0,0,0,0,0,0,0,0,0,0,0,0,0,0,0,0,0,0,0,0,0,0,0,0,0,0,0,0,0,0,0,0,0,0,0,0,0,0,0,0,0,0,0,0,0,0,0,0,0,0,0,0,0,0,0,0,0,2147493934,2147493742,0,0,0,0,10285,10286,10287,0,0,0,0,10094,10286,10100,0,0,2147493355,0,0,9707,0,0,0,0,0,0,0,0,0,0,0,0,0,
0,0,0,0,0,0,0,936,937,0,0,0,0,0,0,0,0,0,0,0,0,0,0,0,0,0,0,0,0,0,0,0,0,0,0,0,0,0,0,0,0,0,0,0,0,0,0,0,0,0,0,0,0,0,0,0,0,0,0,0,0,0,0,0,0,0,0,0,0,0,0,0,0,0,0,0,0,0,0,0,0,0,0,0,0,0,0,0,0,0,0,0,0,0,0,0,0,0,0,0,0,0,0,0,0,0,0,0,0,0,2026,2027,2028,2029,2030,0,0,0,0,0,0,0,0,0,0,0,0,0,0,0,0,0,0,0,0,0,0,0,0,0,0,0,0,0,2826,0,0,0,0,0,0,0,0,0,0,0,0,0,2816,0,0,0,0,0,0,0,0,0,0,0,0,0,0,0,0,0,0,0,0,0,0,0,0,0,0,0,0,0,0,0,0,0,0,0,0,0,0,0,0,0,0,0,0,0,0,0,0,0,2147493420,0,0,9772,0,0,0,2147493748,2147493747,2147493870,2147493744,0,0,0,0,0,0,0,10096,10222,10099,10100,0,0,0,2147493419,0,0,9771,0,0,0,0,0,0,0,0,0,0,0,0,0,
0,0,0,0,0,0,0,0,0,0,0,0,0,0,0,0,0,0,0,0,0,0,0,0,0,0,0,0,0,0,0,0,0,0,0,0,0,0,0,0,0,0,0,0,0,0,0,0,0,0,0,0,0,0,0,0,0,0,0,0,0,0,0,0,0,0,0,0,0,0,0,0,0,0,0,0,0,0,0,0,0,0,0,0,0,0,0,0,0,0,0,0,0,0,0,0,0,0,0,0,0,0,0,0,0,0,0,0,0,0,2090,2091,2092,2093,2094,0,0,0,0,0,0,0,0,0,0,0,0,0,0,0,0,0,0,0,0,0,0,0,0,0,0,0,0,0,0,0,0,0,0,0,0,0,0,0,0,0,0,0,2880,0,0,0,0,0,0,0,0,0,0,0,0,0,0,0,0,0,0,0,0,0,0,0,0,0,0,0,0,0,0,0,0,0,0,0,0,0,0,0,0,0,0,0,0,0,0,0,0,0,2147493484,0,0,9836,0,0,0,2147493748,2147493934,2147493937,2147493870,2147493933,0,0,0,0,0,10285,10222,10289,10286,10100,0,0,0,2147493483,0,0,9835,0,0,0,0,0,0,0,0,0,0,0,0,0,
0,0,0,0,0,0,0,0,0,0,0,0,0,0,0,0,0,0,0,0,0,0,0,0,0,0,0,0,0,0,0,0,0,0,0,0,0,0,0,0,0,0,0,0,0,0,0,0,0,0,0,0,0,0,0,0,0,0,0,0,0,0,0,0,0,0,1438,0,0,0,0,0,0,0,0,0,0,0,0,0,0,0,0,0,0,0,0,0,0,0,0,0,0,0,0,2818,0,0,0,0,0,0,0,0,0,0,0,0,0,0,2154,2155,2156,2157,2158,0,0,0,0,0,0,0,0,0,0,0,0,0,0,0,0,0,0,0,0,0,0,0,0,0,0,0,0,0,0,0,0,0,0,0,0,0,0,0,0,0,0,0,2944,0,0,0,0,0,0,0,0,0,0,0,0,0,0,0,0,0,0,0,0,0,0,0,0,0,0,0,0,0,0,0,0,0,0,0,0,0,0,0,0,0,0,0,0,0,0,0,0,0,0,9893,9894,0,0,0,0,0,2147493748,2147493747,2147494000,2147493933,0,0,0,0,0,10285,10352,10099,10100,0,0,0,0,0,9697,9698,0,0,0,0,0,0,0,0,0,0,0,0,0,0,
0,0,0,0,0,0,0,0,0,0,0,0,0,0,0,0,0,0,0,0,0,0,0,0,0,0,0,0,0,0,0,0,0,0,0,0,0,0,0,0,0,0,0,0,0,0,0,0,0,0,0,0,0,0,0,0,0,0,0,0,0,0,0,0,0,0,0,0,0,0,0,0,0,0,0,0,0,0,0,0,0,0,0,0,0,0,0,0,0,0,0,0,0,0,0,0,0,0,0,0,0,0,0,0,0,0,0,0,0,0,0,0,0,0,0,0,0,0,0,0,0,0,0,0,0,0,0,0,0,0,0,0,0,0,0,0,0,0,0,0,0,0,0,0,0,0,0,0,0,0,0,0,0,0,0,0,0,0,3008,0,0,0,0,0,2696,0,0,0,0,0,0,0,0,0,2695,0,0,0,0,0,0,0,0,0,0,0,0,0,0,0,0,0,0,0,0,0,0,0,0,0,0,0,0,0,0,0,0,0,0,0,0,0,0,0,0,0,2147493935,2147493934,2147493934,2147493933,0,0,0,0,0,10285,10286,10286,10287,0,0,0,0,0,0,0,0,0,0,0,0,0,0,0,0,0,0,0,0,0,
0,0,0,0,0,0,0,0,0,0,0,0,0,0,0,0,0,0,0,0,0,0,0,0,0,0,0,0,0,0,0,0,0,0,0,0,0,0,0,0,0,0,0,0,0,0,0,0,0,0,0,0,0,0,0,0,0,0,0,0,0,0,0,0,0,0,0,0,0,0,0,0,0,0,0,0,0,0,0,0,0,0,0,0,0,0,0,0,0,0,0,0,0,0,0,0,0,0,0,0,0,0,0,0,0,0,0,0,0,0,0,0,0,0,0,0,0,0,0,0,0,0,0,0,0,0,0,0,0,0,0,0,0,0,0,0,0,0,0,0,0,0,0,0,0,0,0,0,0,0,0,0,0,0,0,0,0,0,0,0,0,0,0,0,2760,0,0,0,0,0,0,0,0,0,2759,0,0,0,0,0,0,0,0,0,0,0,0,0,0,0,0,0,0,0,0,0,0,0,0,0,0,0,0,0,0,0,0,0,0,0,0,0,0,0,0,0,0,0,0,0,0,0,0,0,0,0,0,0,0,0,0,0,0,0,0,0,0,0,0,0,0,0,0,0,0,0,0,0,0,0,
0,0,0,0,0,0,0,0,0,0,0,0,0,0,0,0,0,0,0,0,0,0,0,0,0,0,0,0,0,0,0,0,0,0,0,0,0,0,0,0,0,0,0,0,0,0,0,0,0,0,0,0,0,0,0,0,0,0,0,0,0,0,0,0,0,0,0,0,0,0,0,0,0,0,0,0,0,0,0,0,0,0,0,0,0,0,0,0,0,0,0,0,0,0,0,0,0,0,0,0,0,0,0,0,0,0,0,0,0,0,0,0,0,0,0,0,0,0,0,0,0,0,0,0,0,0,0,0,0,0,0,1957,1958,1959,1960,1961,0,0,0,0,0,0,0,0,0,0,0,0,0,0,0,0,0,0,0,0,0,0,0,0,0,0,0,0,2824,0,0,0,0,0,0,0,0,0,2823,0,0,0,0,0,0,0,0,0,0,0,0,0,0,0,0,0,0,0,0,0,0,0,0,0,0,0,0,0,0,0,0,0,0,0,0,0,0,0,0,0,0,0,0,0,0,0,0,0,0,0,0,0,0,0,0,0,0,0,0,0,0,0,0,0,0,0,0,0,0,0,0,0,0,0,
0,0,0,0,0,0,0,0,0,0,0,0,0,0,0,0,0,0,0,0,0,0,0,0,0,0,0,0,0,0,0,0,0,0,0,0,0,0,0,0,0,0,0,0,0,0,0,0,0,0,0,0,0,0,0,0,0,0,0,0,0,0,0,0,0,0,0,0,0,0,0,0,0,0,0,0,0,0,0,0,0,0,0,0,0,0,0,0,0,0,0,0,0,0,0,0,0,0,0,0,0,0,0,0,0,0,0,0,0,0,0,0,0,0,0,0,0,0,0,0,0,0,0,0,0,0,0,0,0,0,0,2021,2022,2023,2024,2025,0,0,0,0,0,0,0,0,0,0,0,0,0,0,0,0,0,0,0,0,0,0,0,0,0,0,0,0,0,0,0,0,0,0,0,0,0,0,0,0,0,0,0,0,0,0,0,0,0,0,0,0,0,0,0,0,0,0,0,0,0,0,0,0,0,0,0,0,0,0,0,0,0,0,0,0,0,0,0,0,3758106739,3758106675,3758106675,3758106675,3758106675,3758106675,3758106675,3758106739,3758106739,3758106739,3758106739,3758106739,3758106675,0,0,0,0,0,0,0,0,0,0,0,0,0,0,0,0,0,0,0,0,0,
0,0,0,0,0,1505,0,0,0,0,0,0,0,0,0,0,0,0,0,0,0,0,0,0,0,0,0,0,0,0,0,0,0,0,0,0,0,0,0,0,0,0,0,0,0,0,0,0,0,0,0,0,0,0,0,0,0,0,0,0,0,0,0,0,0,0,0,0,0,0,0,0,0,0,0,0,0,0,0,0,0,0,0,0,0,0,0,0,0,0,0,0,0,0,0,0,0,0,0,0,0,0,0,0,0,0,3338,0,0,0,0,0,0,0,0,0,0,0,3339,0,0,0,0,0,0,0,0,0,0,0,0,2085,2086,2087,2088,2089,0,0,0,0,0,0,0,0,0,0,0,0,0,0,0,0,0,0,0,0,0,0,0,0,0,0,0,0,0,0,0,0,0,0,0,0,0,0,0,0,0,0,0,0,0,0,0,0,0,0,0,0,0,0,0,0,0,0,0,0,0,0,0,0,0,0,0,0,0,0,0,0,0,0,0,0,0,0,0,0,3758106738,3758106674,3758106674,3758106674,10354,10354,3758106674,3758106738,3758106738,3758106738,3758106738,10354,0,0,0,0,0,0,0,0,0,0,0,0,0,0,0,0,0,0,0,0,0,0,
0,0,0,0,0,0,0,0,0,0,0,0,0,0,0,0,0,0,0,0,0,0,0,0,0,0,0,0,0,0,0,0,0,0,0,0,0,0,0,0,0,0,0,0,0,0,0,0,0,0,0,0,0,0,0,0,0,0,0,0,0,0,0,0,0,0,0,0,0,0,0,0,0,0,0,0,0,0,0,0,0,0,0,0,0,0,0,0,0,0,0,0,0,0,0,0,0,0,0,0,0,0,0,0,0,0,3402,0,0,0,0,0,0,0,0,0,0,0,3403,0,0,0,0,0,0,0,0,0,0,0,0,2149,2150,2151,2152,2153,0,0,0,0,0,0,0,0,0,0,0,0,0,0,0,0,0,0,0,0,0,0,0,0,0,0,0,0,0,0,0,0,0,0,0,0,0,0,0,0,0,0,0,0,0,0,0,0,0,0,0,0,0,0,0,0,0,0,0,0,0,0,0,0,0,0,0,0,0,0,0,0,0,0,0,0,0,0,0,0,3758106737,10354,3758106673,3758106673,3758106673,3758106673,3758106673,3758106737,10354,3758106737,3758106737,3758106737,3758106673,0,0,0,0,0,0,0,0,0,0,0,0,0,0,0,0,0,0,0,0,0,
0,0,0,0,0,0,0,0,0,0,0,0,0,0,0,0,0,0,0,0,0,0,0,0,0,0,0,0,0,0,0,0,0,0,0,0,0,0,0,0,0,0,0,0,0,0,0,0,0,0,0,0,0,0,0,0,0,0,0,0,0,0,0,0,0,0,0,0,0,0,0,0,0,0,0,0,0,0,0,0,0,0,0,0,0,0,0,0,0,0,0,0,0,0,0,0,0,0,0,0,0,0,0,0,0,0,3466,0,0,0,0,0,0,0,0,0,0,0,3467,0,0,0,0,0,0,0,0,0,0,0,0,2213,2214,2215,2216,2217,0,0,0,0,0,0,0,0,0,0,0,0,0,0,0,0,0,0,0,0,0,0,0,0,0,0,0,0,0,0,0,0,0,0,0,0,0,0,0,0,0,0,0,0,0,0,0,0,0,0,0,0,0,0,0,0,0,0,0,0,0,0,0,0,0,0,0,0,0,0,0,0,0,0,0,0,0,0,0,0,3758106736,3758106672,3758106672,3758106672,3758106672,3758106672,3758106672,3758106736,3758106736,3758106736,3758106736,3758106736,3758106672,0,0,0,0,0,0,0,0,0,0,0,0,0,0,0,0,0,0,0,0,0,
0,0,0,0,0,0,0,0,0,0,0,0,0,0,0,0,0,0,0,0,0,0,0,0,0,0,0,0,0,0,0,0,0,0,0,0,0,0,0,0,0,0,0,0,0,0,0,0,0,0,0,0,0,0,0,0,0,0,0,0,0,0,0,0,0,0,0,0,0,0,0,0,0,0,0,0,0,0,0,0,0,0,0,0,0,0,0,0,0,0,0,0,0,0,0,0,0,0,0,0,0,0,0,0,0,0,0,0,0,0,0,0,0,0,0,0,0,0,0,0,0,0,0,0,0,0,0,0,0,0,0,0,0,0,0,0,0,0,0,0,0,0,0,0,0,0,0,0,0,0,0,0,0,0,0,0,0,0,0,0,0,0,0,0,0,0,0,0,0,0,0,0,0,0,0,0,0,0,0,0,0,0,0,0,0,0,0,0,0,0,0,0,0,0,0,0,0,0,0,0,0,0,0,0,0,0,0,0,0,0,0,0,0,0,0,0,0,0,0,0,0,0,0,0,0,0,0,0,0,0,0,0,0,0,0,0,0,0,0,0,0,0,0,0,0,0,0,0,0,0,
0,0,0,0,0,0,0,0,0,0,0,0,0,0,0,0,0,0,0,0,0,0,0,0,0,0,0,0,0,0,0,0,7892,7893,7894,0,0,0,0,0,0,0,0,0,0,0,0,0,0,0,0,0,0,0,0,0,0,0,0,0,0,0,0,0,0,0,0,0,0,0,0,0,0,0,0,0,0,0,0,0,0,0,0,0,0,0,0,0,0,0,0,0,0,0,0,0,0,0,0,0,0,0,0,0,0,0,0,0,0,0,0,0,0,0,0,0,0,0,0,0,0,0,0,0,0,0,0,0,0,0,0,0,0,0,0,0,0,0,0,0,0,0,0,0,0,0,0,0,0,0,0,0,0,0,0,0,0,0,0,0,0,0,0,0,0,0,0,0,0,0,0,0,0,0,0,0,0,0,0,0,0,0,0,0,0,0,0,0,0,0,0,0,0,0,0,0,0,0,0,0,0,0,0,0,0,0,0,0,0,0,0,0,0,0,0,0,0,0,9955,9956,0,0,0,0,0,9959,9960,0,0,0,0,0,0,0,0,0,0,0,0,0,0,0,0,0,0,0,0,0,0,0,
0,0,0,0,0,0,0,0,0,0,0,0,0,0,0,0,0,0,0,0,0,0,0,0,0,0,0,0,0,0,0,0,7956,7957,7958,0,0,0,0,0,0,0,0,0,0,0,0,0,0,0,0,0,0,0,0,0,0,0,0,0,0,0,0,0,0,0,0,0,0,0,0,0,0,0,0,0,0,0,0,0,0,0,0,0,0,0,0,0,0,0,0,0,0,0,0,0,0,0,1957,1958,1959,1960,1961,0,0,0,0,0,0,0,0,0,0,0,0,0,0,0,0,0,0,0,0,0,0,0,0,0,0,0,0,0,0,0,0,0,0,0,0,0,0,0,0,0,0,0,0,0,0,0,0,0,0,0,0,0,0,0,0,0,0,0,0,0,0,0,0,0,0,0,0,0,0,0,0,0,0,0,0,0,0,0,0,0,0,0,0,0,0,0,0,0,0,0,0,0,0,0,0,0,0,0,0,0,0,0,0,0,0,0,0,0,0,0,0,0,0,0,10019,10020,0,0,0,0,0,10023,10024,0,0,0,0,0,0,0,0,0,0,0,0,0,0,0,0,0,0,0,0,0,0,0,
0,0,0,0,0,0,0,0,0,0,0,0,0,0,0,0,0,0,0,0,0,0,0,0,0,0,0,0,0,0,0,0,0,0,0,0,0,0,0,0,0,0,0,0,0,0,0,0,0,0,0,0,0,0,0,0,0,0,0,0,0,0,0,0,0,0,0,0,0,0,0,0,0,0,0,0,0,0,0,0,0,0,0,0,0,0,0,0,0,0,0,0,0,0,0,0,0,0,2021,2022,2023,2024,2025,0,0,0,0,0,0,0,0,0,0,0,0,0,0,0,0,0,0,0,0,0,0,0,0,0,0,0,0,0,0,0,0,0,0,0,0,0,0,0,0,0,0,0,0,0,0,0,2819,0,0,0,0,0,0,0,0,0,0,0,0,0,0,0,0,0,0,0,0,0,0,0,0,0,0,0,0,0,0,0,0,0,0,0,0,0,0,0,0,0,0,0,0,0,0,0,0,0,0,0,0,0,0,0,0,0,0,0,0,0,0,0,0,0,0,0,0,0,0,0,0,0,0,0,0,0,0,0,0,0,0,0,0,0,0,0,0,0,0,0,0,0,0,0,0,0,0,0,
0,0,0,0,0,0,0,0,0,0,0,0,0,0,0,0,0,0,0,0,0,0,0,0,0,0,0,0,0,0,0,0,0,0,0,0,0,0,0,0,0,0,0,0,0,0,0,0,0,0,0,0,0,0,0,0,0,0,0,0,0,0,0,0,0,0,0,0,0,0,0,0,0,0,0,0,0,0,0,0,0,0,0,0,0,0,0,0,0,0,0,0,0,0,0,0,0,0,2085,2086,2087,2088,2089,0,0,0,0,0,0,0,0,0,0,0,0,0,0,0,0,0,0,0,0,0,0,0,0,0,0,0,0,0,0,0,0,0,0,0,0,0,0,0,0,0,0,0,0,0,0,0,2883,0,0,0,0,0,0,0,0,0,0,0,0,0,0,0,0,0,0,0,0,0,0,0,0,0,0,0,0,0,0,0,0,0,0,0,0,0,0,0,0,0,0,0,0,0,0,0,0,0,0,0,0,0,0,0,0,0,0,0,0,0,10750,10751,0,0,0,0,0,0,0,0,0,0,0,0,0,0,0,0,0,10752,10753,0,0,0,0,0,0,0,0,0,0,0,0,0,0,0,0,0,
0,0,0,0,0,0,0,0,0,0,0,0,0,0,0,0,0,0,0,0,0,0,0,0,0,0,0,0,0,0,0,0,0,0,0,0,0,0,0,0,0,0,0,0,0,0,0,0,0,0,0,0,0,0,0,0,0,0,0,0,0,0,0,0,0,0,0,0,0,0,0,0,0,0,0,0,0,0,0,0,0,0,0,0,0,0,0,0,0,0,0,0,0,0,0,0,0,0,2149,2150,2151,2152,2153,0,0,0,0,0,0,0,0,0,0,0,0,0,0,0,0,0,0,0,0,0,0,0,0,0,0,0,0,0,0,0,0,0,0,0,0,0,0,0,0,0,0,0,0,0,0,0,2947,0,0,0,0,0,0,0,0,0,0,0,0,0,2696,0,0,0,0,0,0,0,0,0,2695,0,0,0,0,0,0,0,0,0,0,0,0,0,0,0,0,0,0,0,0,0,0,0,0,0,0,0,0,0,0,0,0,0,0,0,0,0,10814,10815,0,0,0,0,0,0,0,0,0,0,0,0,0,0,0,0,0,10816,10817,0,0,0,0,0,0,0,0,0,0,0,0,0,0,0,0,0,
0,0,0,0,0,0,0,0,0,0,0,0,0,0,0,0,0,0,0,0,0,0,0,0,0,0,0,0,0,0,0,0,0,0,0,0,0,0,0,0,0,0,0,0,0,0,0,0,0,0,0,0,0,0,0,0,0,0,0,0,0,0,0,0,0,0,0,0,0,0,0,0,0,0,0,0,0,0,0,0,0,0,0,0,0,0,0,0,0,0,0,0,0,0,0,0,0,0,2213,2214,2215,2216,2217,0,0,0,0,0,0,0,0,0,0,0,0,0,0,0,0,0,0,0,0,0,0,0,0,0,0,0,0,0,0,0,0,0,0,0,0,0,0,0,0,0,0,0,0,0,0,0,3011,0,0,0,0,0,0,0,0,0,0,0,0,0,2760,0,0,0,0,0,0,0,0,0,2759,0,0,0,0,0,0,0,0,0,0,0,0,0,0,0,0,0,0,0,0,0,0,0,0,0,0,0,0,0,0,0,0,0,0,0,0,0,10878,10879,0,0,0,0,0,0,0,0,0,0,0,0,0,0,0,0,0,10880,10881,0,0,0,0,0,0,0,0,0,0,0,0,0,0,0,0,0,
0,0,0,0,0,0,0,0,0,0,0,0,0,0,0,0,0,0,0,0,0,0,0,0,0,0,0,0,0,0,0,0,0,0,0,0,0,0,0,0,0,0,0,0,0,0,0,0,0,0,0,0,0,0,0,0,0,0,0,0,0,0,0,0,0,0,0,0,0,0,0,0,0,0,0,0,0,0,0,0,0,0,0,0,0,0,0,0,0,0,0,0,0,0,0,0,0,0,0,0,0,0,0,0,0,0,0,0,0,0,0,0,0,0,0,0,0,0,0,0,0,0,0,0,0,0,0,0,0,0,0,0,0,0,0,0,0,0,0,0,0,0,0,0,0,0,0,0,0,0,0,0,0,0,0,0,0,0,0,0,0,0,0,0,2824,0,0,2819,0,0,0,0,0,0,2823,0,0,0,0,0,0,0,0,0,0,0,0,0,0,0,0,0,0,0,0,0,0,0,0,0,0,0,0,0,0,0,0,0,0,0,0,0,0,0,0,0,0,0,0,0,0,0,0,0,0,0,0,0,0,0,0,0,0,0,0,0,0,0,0,0,0,0,0,0,0,0,0,0,0,0,
0,0,0,0,0,0,0,0,0,0,0,0,0,0,0,0,0,0,0,0,0,0,0,0,0,0,0,0,0,0,0,0,0,0,0,0,0,0,0,0,0,0,0,0,0,0,0,0,0,0,0,0,0,0,0,0,0,0,0,0,0,0,0,0,0,0,0,0,0,0,0,0,0,0,0,0,0,0,0,0,0,0,0,0,0,0,0,0,0,0,0,0,0,0,0,0,0,0,0,0,0,0,0,0,0,0,0,0,0,0,0,0,0,0,0,0,0,0,0,0,0,0,0,0,0,0,0,0,0,0,0,0,0,0,0,0,0,0,0,0,0,0,0,0,0,0,0,0,0,0,0,0,0,0,0,0,0,0,0,0,0,0,0,0,0,0,0,2883,0,0,0,0,0,0,0,0,0,0,0,0,0,0,0,0,0,0,0,0,0,0,0,0,0,0,0,0,0,0,0,0,0,0,0,0,0,0,0,0,0,0,0,0,0,0,0,0,0,0,0,0,0,0,0,0,0,0,0,0,0,0,0,0,0,0,0,0,0,0,0,0,0,0,0,0,0,0,0,0,0,0,
0,0,0,0,0,0,0,0,0,0,0,0,0,0,0,0,0,0,0,0,0,0,0,0,0,0,0,0,0,0,0,0,0,0,0,0,0,0,0,0,0,0,0,0,0,0,0,0,0,0,0,0,0,0,1633,0,1631,0,0,0,0,1697,0,0,0,0,0,0,0,0,0,0,0,0,0,0,0,0,0,0,0,0,0,0,0,0,0,0,0,0,0,0,0,0,0,0,0,0,0,0,0,0,0,0,0,0,0,0,0,0,0,0,0,0,0,0,0,0,0,0,0,0,0,0,0,0,0,0,0,0,0,0,0,0,0,0,0,0,0,0,0,0,0,0,0,0,0,0,0,0,0,0,0,0,0,0,0,0,0,0,0,0,0,0,0,0,0,2947,0,0,0,0,0,0,0,0,0,0,0,0,0,0,0,0,0,0,0,0,0,0,0,0,0,0,0,0,0,0,0,0,0,0,0,0,0,0,0,0,0,0,0,0,0,0,0,0,0,0,0,0,0,0,0,0,0,0,0,0,0,0,0,0,0,0,0,0,0,0,0,0,0,0,0,0,0,0,0,0,0,0,
0,0,0,0,0,0,0,0,0,0,0,0,0,0,0,0,0,0,0,0,0,0,0,0,0,0,0,0,0,0,0,0,0,0,0,0,0,0,0,0,0,0,0,0,0,0,0,0,0,0,0,0,0,0,0,0,0,0,0,0,0,0,0,0,0,0,0,0,0,0,0,0,0,0,0,0,0,0,0,0,0,0,0,0,0,0,0,0,0,0,0,0,0,0,0,0,0,0,0,0,0,0,0,0,0,0,0,0,0,0,0,0,0,0,0,0,0,0,0,0,0,0,0,0,0,0,0,0,0,0,0,0,0,0,0,0,0,0,0,0,0,0,0,0,0,0,0,0,0,0,0,0,0,0,0,0,0,0,0,0,0,0,0,0,0,0,0,3011,0,0,0,0,0,0,0,0,0,0,0,0,0,0,0,0,0,0,0,0,0,0,0,0,0,0,0,0,0,0,0,0,0,0,0,0,0,0,0,0,0,0,0,0,0,0,0,0,0,0,0,0,0,0,0,0,0,0,0,0,0,0,0,0,0,0,0,0,0,0,0,0,0,0,0,0,0,0,0,0,0,0,
0,0,0,0,0,0,0,0,0,0,0,0,0,0,0,0,0,0,0,0,0,0,0,0,0,0,0,0,0,0,0,0,0,0,0,0,0,0,0,0,0,0,0,0,0,0,0,0,0,0,0,0,0,0,0,0,0,0,0,0,0,0,0,0,0,0,0,0,0,0,0,0,0,0,0,0,0,0,0,0,0,0,0,0,0,0,0,0,0,0,0,0,0,0,0,0,0,0,0,0,0,0,0,0,0,0,0,0,0,0,0,0,0,0,0,0,0,0,0,0,0,0,0,0,0,0,0,0,0,0,0,0,0,0,0,0,0,0,0,0,0,0,0,0,0,0,0,0,0,0,0,0,0,0,0,0,0,0,0,0,0,0,0,0,0,0,0,0,0,0,0,0,0,0,0,0,0,0,0,0,0,0,0,0,0,0,0,0,0,0,0,0,0,0,0,0,0,0,0,0,0,0,0,0,0,0,0,0,0,0,0,0,0,0,0,0,0,8748,0,0,0,0,0,0,0,0,0,8748,0,0,0,0,0,0,0,0,0,0,0,0,0,0,0,0,0,0,0,0,0,0,
0,0,0,0,0,0,0,0,0,0,0,0,0,0,0,0,0,0,0,0,0,0,0,0,0,0,0,0,0,0,0,0,0,0,0,0,0,0,0,0,0,0,0,0,0,0,0,0,0,0,0,0,0,0,0,0,0,0,0,0,0,0,0,0,0,0,0,0,0,0,0,0,0,0,0,0,0,0,0,0,0,0,0,0,0,0,0,0,0,0,0,0,0,0,0,0,0,0,0,0,0,0,0,0,0,0,0,0,0,0,0,0,0,0,0,0,0,0,0,0,0,0,0,0,0,0,0,0,0,0,0,0,0,0,0,0,0,0,0,0,0,0,0,0,0,0,0,0,0,0,0,0,0,0,0,0,0,0,0,0,0,0,0,0,0,0,0,0,0,0,0,0,0,0,0,0,0,0,0,0,0,0,0,0,0,0,0,0,0,0,0,0,0,0,0,0,0,0,0,0,0,0,0,0,0,0,0,0,0,0,0,0,10037,10038,10039,0,0,0,0,0,0,0,0,0,0,0,0,0,0,0,10037,10038,10039,0,0,0,0,0,0,0,0,0,0,0,0,0,0,0,0,0,
0,0,0,0,0,0,0,0,0,0,0,0,0,0,0,0,0,0,0,0,0,0,0,0,0,0,0,0,0,0,0,0,0,0,0,0,0,0,0,0,0,0,0,0,0,0,0,0,0,0,0,0,0,0,0,0,0,0,0,0,0,0,0,0,0,0,0,0,0,0,0,0,0,0,0,0,0,0,0,0,0,0,0,0,0,0,0,0,0,0,0,0,0,0,0,0,0,0,0,0,0,0,0,0,0,0,0,0,0,0,0,0,0,0,0,0,0,0,0,0,0,0,0,0,0,0,0,0,0,0,0,0,0,0,0,0,0,0,0,0,0,0,0,0,0,0,0,0,0,0,0,0,0,0,0,0,0,0,0,0,0,0,0,0,0,0,0,0,0,0,0,0,0,0,0,0,0,0,0,0,0,0,0,0,0,0,0,0,0,0,0,0,0,0,0,0,0,0,0,0,0,0,0,0,0,0,0,0,0,0,0,0,10101,10102,10103,0,0,0,0,0,0,9969,9970,9971,9972,0,0,0,0,0,10101,10102,10103,0,0,0,0,0,0,0,0,0,0,0,0,0,0,0,0,0,
0,0,0,0,0,0,0,0,0,0,0,0,0,0,0,0,0,0,0,0,0,0,0,0,0,0,0,0,0,0,0,0,0,0,0,0,0,0,0,0,0,0,0,0,0,0,0,0,0,0,0,0,0,0,0,0,0,0,0,0,0,0,0,0,0,0,0,0,0,0,0,0,0,0,0,0,0,0,0,0,0,0,0,0,0,0,0,0,0,0,0,0,0,0,0,0,0,0,0,0,0,0,0,0,0,0,0,0,0,0,0,0,0,0,0,0,0,0,0,0,0,0,0,0,0,0,0,0,0,0,0,0,0,0,0,0,0,0,0,0,0,0,0,0,0,0,0,0,0,0,0,0,0,0,0,0,0,0,0,0,0,0,0,0,0,0,0,0,0,0,0,0,0,0,0,0,0,0,0,0,0,0,0,0,0,0,0,0,0,0,0,0,0,0,0,0,0,0,0,0,0,0,0,0,0,0,0,0,0,0,0,0,10165,10166,10167,0,0,0,0,0,10032,10033,10034,10035,10036,0,0,0,0,0,10165,10166,10167,0,0,0,0,0,0,0,0,0,0,0,0,0,0,0,0,0,
0,0,0,0,0,0,0,0,0,0,0,0,0,0,0,0,0,0,0,0,0,0,0,0,0,0,0,0,0,0,0,0,0,0,0,0,0,0,0,0,0,0,0,0,0,0,0,0,0,0,0,0,0,0,0,0,0,0,0,0,0,0,0,0,0,0,0,0,0,0,0,0,0,0,0,0,0,0,0,0,0,0,0,0,0,0,0,0,0,0,0,0,0,0,0,0,0,0,0,0,0,0,0,0,0,0,0,0,0,0,0,0,0,0,0,0,0,0,0,0,0,0,0,0,0,0,0,0,0,0,0,0,0,0,0,0,0,0,0,0,0,0,0,0,0,0,0,0,0,0,0,0,0,0,0,0,0,0,0,0,0,0,0,0,0,0,0,0,0,0,0,0,0,0,0,0,0,0,0,0,0,0,0,0,0,0,0,0,0,0,0,0,0,0,0,0,0,0,0,0,0,0,0,0,0,0,0,0,0,0,0,0,0,0,0,0,0,0,0,0,10096,10097,10098,10099,10100,0,0,0,0,0,0,0,0,0,0,0,0,0,0,0,0,0,0,0,0,0,0,0,0,0,
0,0,0,0,0,0,0,0,0,0,0,0,0,0,0,0,0,0,0,0,0,0,0,0,0,0,0,0,0,0,0,0,0,0,0,0,0,0,0,0,0,0,0,0,0,0,0,0,0,0,0,0,0,0,0,0,0,0,0,0,0,0,0,0,0,0,0,0,0,0,0,0,0,0,0,0,0,0,0,0,0,0,0,0,0,0,0,0,0,0,0,0,0,0,0,0,0,0,0,0,0,0,0,0,2816,0,0,0,0,0,0,0,0,0,0,0,0,0,0,0,0,0,0,0,2819,0,0,0,0,0,0,0,0,0,0,0,0,0,0,0,0,0,0,0,0,0,0,0,0,0,0,1957,1958,1959,1960,1961,0,0,0,0,0,0,0,0,0,0,0,0,0,0,0,0,0,8823,8824,8825,0,0,0,0,0,0,0,0,0,0,0,0,0,0,0,0,0,0,0,0,0,0,0,0,0,0,0,0,0,0,0,0,0,0,0,0,0,0,0,0,0,0,0,0,10160,10161,10162,10163,10164,0,0,0,0,0,0,0,0,0,0,0,0,0,0,0,0,0,0,0,0,0,0,0,0,0,
0,0,0,0,0,0,0,0,0,0,0,0,0,0,0,0,0,0,0,0,0,0,0,0,0,0,0,0,0,0,0,0,0,0,0,0,0,0,0,0,0,0,0,0,0,0,0,0,0,0,0,0,0,0,0,0,0,0,0,0,0,0,0,0,0,0,0,0,0,0,0,0,0,0,0,0,0,0,0,0,0,0,0,0,0,0,0,0,0,0,0,0,0,0,0,0,0,0,0,0,0,0,0,0,2880,0,0,0,0,0,0,0,0,0,0,0,0,0,0,0,0,0,0,0,2883,0,0,0,0,0,0,0,0,0,0,0,0,0,0,0,0,0,0,0,0,0,0,0,0,0,0,2021,2022,2023,2024,2025,0,0,0,0,0,0,0,0,0,0,0,0,0,0,0,9701,9702,8887,8888,8889,0,0,0,9701,9702,0,0,0,0,0,0,0,0,0,0,0,0,0,0,0,0,0,0,0,0,0,0,0,0,0,0,0,0,0,0,0,0,0,0,0,0,0,0,0,10224,10225,10226,10227,10228,0,0,0,0,0,0,0,0,0,0,0,0,0,0,0,0,0,0,0,0,0,0,0,0,0,
0,0,0,0,0,0,0,0,0,0,0,0,0,0,0,0,0,0,0,0,0,0,0,0,0,0,0,0,0,0,0,0,0,0,0,0,0,0,0,0,0,0,0,0,0,0,0,0,0,0,0,0,0,0,0,0,0,0,0,0,0,0,0,0,0,0,0,0,0,0,0,0,0,0,0,0,0,0,0,0,0,0,0,0,0,0,0,0,0,0,0,0,0,0,0,0,0,0,0,0,0,0,0,0,2944,0,0,0,0,0,0,0,0,0,0,0,0,0,0,0,0,0,0,0,2947,0,0,0,0,0,0,0,0,0,0,0,0,0,0,0,0,0,0,0,0,0,0,0,0,0,0,2085,2086,2087,2088,2089,0,0,0,0,0,0,0,0,0,0,0,0,0,9707,0,0,0,0,0,0,0,0,0,0,0,0,0,0,0,0,0,0,0,0,0,0,0,0,0,0,0,0,0,0,0,0,0,0,0,0,0,0,0,0,0,0,0,0,0,0,0,9814,0,0,0,0,0,0,0,0,0,9814,0,0,0,0,0,0,0,0,0,0,0,0,0,0,0,0,0,0,0,0,0,0,
0,0,0,0,0,0,0,0,0,0,0,0,0,0,0,0,0,0,0,0,0,0,0,0,0,0,0,0,0,0,0,0,0,0,0,0,0,0,0,0,0,0,0,0,0,0,0,0,0,0,0,0,0,0,0,0,0,0,0,0,0,0,0,0,0,0,0,0,0,0,0,0,0,0,0,0,0,0,0,0,0,0,0,0,0,0,0,0,0,0,0,0,0,0,0,0,0,0,0,0,0,0,0,0,3008,0,0,0,0,0,0,0,0,0,0,0,0,0,0,0,0,0,0,0,3011,0,0,0,0,0,0,0,0,0,0,0,0,0,0,0,0,0,0,0,0,0,0,0,0,0,0,2149,2150,2151,2152,2153,0,0,0,0,0,0,0,0,0,0,0,0,0,9771,0,0,0,0,0,0,0,0,0,0,0,0,0,0,0,0,0,0,0,0,0,0,0,0,0,0,0,0,0,0,0,0,0,0,0,0,0,0,0,0,0,0,0,0,0,0,0,9878,0,0,0,0,0,0,0,0,0,9878,0,0,0,0,0,0,0,0,0,0,0,0,0,0,0,0,0,0,0,0,0,0,
0,0,0,0,0,0,0,0,0,0,0,0,0,0,0,0,0,0,0,0,0,0,0,0,0,0,0,0,0,0,0,0,0,0,0,0,0,0,0,0,0,0,0,0,0,0,0,0,0,0,0,0,0,0,1631,0,0,0,0,0,0,0,0,0,0,0,0,0,0,0,0,0,0,0,0,0,0,0,0,0,0,0,0,0,0,0,0,0,0,0,0,0,0,0,0,0,0,0,0,0,0,0,0,0,0,0,0,0,0,0,0,0,0,0,0,0,0,0,0,0,0,0,0,0,0,0,0,0,0,0,0,0,0,0,0,0,0,0,0,0,0,0,0,0,0,0,0,0,0,0,0,2213,2214,2215,2216,2217,0,0,0,0,0,0,0,0,0,0,0,0,0,9835,0,0,0,0,0,0,0,0,0,0,0,0,2147493355,0,0,0,0,0,0,0,0,0,0,0,0,0,0,0,0,0,0,0,0,0,0,0,0,0,0,0,0,0,0,0,0,0,0,9942,0,0,0,0,0,0,0,0,0,9942,0,0,0,0,0,0,0,0,0,0,0,0,0,0,0,0,0,0,0,0,0,0,
0,0,0,0,0,0,0,0,0,0,0,0,0,0,0,0,0,0,0,0,0,0,0,0,0,0,0,0,0,0,0,0,0,0,0,0,0,0,0,0,0,0,0,0,0,0,0,0,0,0,0,0,0,0,0,0,0,0,0,0,0,0,0,0,0,0,0,0,0,0,0,0,0,0,0,0,0,0,0,0,0,0,0,0,0,0,0,0,0,0,0,0,0,0,0,0,0,0,0,0,0,0,0,0,0,0,0,0,0,0,0,0,0,0,0,0,0,0,0,0,0,0,0,0,0,0,0,0,0,0,0,0,0,0,0,0,0,0,0,0,0,0,0,0,0,0,0,0,0,0,0,0,0,0,0,0,0,0,0,0,0,0,0,0,0,0,0,0,0,0,0,0,0,0,0,0,0,0,0,0,0,0,2147493419,0,0,0,0,0,0,0,0,0,0,0,0,0,0,0,0,0,0,0,0,0,0,0,0,0,0,0,0,0,0,0,0,0,0,0,0,0,0,0,0,0,0,0,0,0,0,0,0,0,0,0,0,0,0,0,0,0,0,0,0,0,0,0,0,0,0,0,
0,0,0,0,0,0,0,0,0,0,0,0,0,0,0,0,0,0,0,0,0,0,0,0,0,0,0,0,0,0,0,0,0,0,0,0,0,0,0,0,0,0,0,0,0,0,0,0,0,0,0,0,0,0,0,1633,0,0,0,0,0,0,0,0,0,0,0,0,0,0,0,0,0,0,0,0,0,0,0,0,0,0,0,0,0,0,0,0,0,0,0,0,0,0,0,0,0,0,0,0,0,0,0,0,0,0,0,0,0,0,0,0,0,0,0,0,0,0,0,0,0,0,0,0,0,0,0,0,0,0,0,0,0,0,0,0,0,0,0,0,0,0,0,0,0,0,0,0,0,0,0,0,0,0,0,0,0,0,0,0,0,0,0,0,0,0,0,0,0,0,0,0,0,0,0,0,0,0,0,0,0,0,2147493483,0,0,0,0,0,0,0,0,0,0,0,0,0,0,0,0,0,0,0,0,0,0,0,0,0,0,0,0,0,0,0,0,0,0,0,0,0,0,0,0,0,0,0,0,0,0,0,0,0,0,0,0,0,0,0,0,0,0,0,0,0,0,0,0,0,0,0,
0,0,0,0,0,0,0,0,0,0,0,0,0,0,0,0,0,0,0,0,0,0,0,0,0,0,0,0,0,0,0,0,0,0,0,0,0,0,0,0,0,0,0,0,0,0,12705,0,0,0,0,0,0,0,0,0,0,0,0,0,0,0,0,0,0,0,0,0,0,0,0,0,0,0,0,0,0,0,0,0,0,0,0,0,0,0,0,0,0,0,0,0,0,0,0,0,0,0,0,0,0,0,0,0,0,0,0,0,0,0,0,0,0,3081,0,0,0,0,0,0,0,0,0,0,0,0,0,0,0,0,0,0,0,0,0,0,0,0,0,0,0,0,0,0,0,0,0,0,0,0,0,0,0,0,0,0,0,0,0,0,0,0,0,0,0,0,0,0,0,9707,0,0,0,0,0,0,0,0,0,0,0,0,0,0,0,0,0,0,0,0,0,0,0,0,0,0,0,0,0,0,0,0,0,0,0,0,0,0,0,0,0,0,0,0,0,0,0,0,0,0,0,0,0,0,0,0,0,0,0,0,0,0,0,0,0,0,0,0,0,0,0,0,0,0,0,0,0,0,0,0,
0,0,0,0,0,0,0,0,0,0,0,0,0,0,0,0,0,0,0,0,0,0,0,0,0,0,0,0,0,0,0,0,0,0,0,0,0,0,0,0,0,0,0,0,0,0,0,0,0,0,0,0,0,0,0,0,0,0,0,0,0,0,0,0,0,0,0,0,0,0,0,0,0,0,0,0,0,0,0,0,0,0,0,0,0,0,0,0,0,0,0,0,0,0,0,0,0,0,0,0,0,0,0,0,0,0,0,0,0,0,0,0,0,3145,0,0,0,0,0,0,0,0,0,0,0,0,0,0,0,0,0,0,0,0,0,0,0,0,0,0,0,0,0,0,0,0,0,0,0,0,0,0,0,0,0,0,0,0,0,0,0,0,0,0,0,0,0,0,0,9771,0,0,0,0,0,0,0,0,0,0,0,0,0,0,0,0,0,0,0,0,0,0,0,0,0,0,0,0,0,0,0,0,0,0,0,0,0,0,0,0,0,0,0,0,0,0,0,0,0,0,0,0,0,0,0,0,0,0,0,0,0,0,0,0,0,0,0,0,0,0,0,0,0,0,0,0,0,0,0,0,
0,0,0,0,0,0,0,0,0,0,0,0,0,0,0,0,0,0,0,0,0,0,0,0,0,0,0,0,0,0,0,0,0,0,0,0,0,0,0,0,0,0,0,0,0,0,0,0,0,0,0,0,0,0,0,0,0,0,0,0,0,0,0,0,0,0,0,0,0,0,0,0,0,0,0,0,0,0,0,0,0,0,0,0,0,0,0,0,0,0,0,0,0,0,0,0,0,0,0,0,0,0,0,0,0,0,0,0,0,0,0,0,0,3209,0,0,0,0,0,0,0,0,0,0,0,0,0,0,0,0,0,0,0,0,0,0,0,0,0,0,0,0,0,0,0,0,0,0,0,0,0,0,0,0,0,0,0,0,0,0,0,0,0,0,0,0,0,0,0,9835,0,0,0,0,0,0,0,0,0,0,0,0,0,0,0,0,0,0,0,0,0,0,0,0,0,0,0,0,0,0,0,0,0,0,0,0,0,0,0,0,0,0,0,0,0,0,0,0,0,0,0,0,0,0,0,0,0,0,0,0,0,0,0,0,0,0,0,0,0,0,0,0,0,0,0,0,0,0,0,0,
0,0,0,0,0,0,0,0,0,0,0,0,0,0,0,0,0,0,0,0,0,0,0,0,0,0,0,0,0,0,0,0,0,0,0,0,0,0,0,0,0,0,0,0,0,0,0,0,0,0,0,0,0,0,0,0,0,0,0,0,0,0,0,0,0,0,0,0,0,0,0,0,0,0,0,0,0,0,0,0,0,0,0,0,0,0,0,0,0,0,0,0,0,0,0,0,0,0,0,0,0,0,0,0,0,0,0,0,0,0,0,0,0,3273,0,0,0,0,0,0,0,0,0,0,0,0,0,0,0,0,0,0,2696,0,0,0,0,0,0,0,0,0,0,0,0,0,0,0,2695,0,0,0,0,0,0,0,0,0,0,0,0,0,0,0,0,0,0,0,0,0,0,0,0,0,0,0,0,0,0,0,0,0,0,0,0,0,0,0,0,0,0,0,0,0,0,10034,10035,0,0,0,0,0,0,0,0,0,0,0,0,0,0,0,0,0,0,0,0,0,0,0,0,0,0,0,0,0,0,0,0,0,0,0,0,0,0,0,0,0,0,0,0,0,0,0,0,0,0,0,0,0,
0,0,0,0,0,0,0,0,0,0,0,0,0,0,0,0,0,0,0,0,0,0,0,0,0,0,0,0,0,0,0,0,0,0,0,0,0,0,0,0,0,0,0,0,0,0,0,0,0,0,0,0,0,0,0,0,0,0,0,0,0,0,0,0,0,0,0,0,0,0,0,0,0,0,0,0,0,0,0,0,0,0,0,0,0,0,0,0,0,0,0,0,0,0,0,0,0,0,0,0,0,0,0,0,0,0,0,0,0,0,0,0,0,0,0,0,0,0,0,0,0,0,0,0,0,0,0,0,0,0,0,0,2760,0,0,0,0,0,0,0,0,0,0,0,0,0,0,0,2759,0,0,0,0,0,0,0,0,0,0,0,0,0,0,0,0,0,0,0,0,0,0,0,0,0,0,0,0,0,0,0,0,0,0,0,0,0,0,0,0,0,0,0,0,0,10097,10098,0,0,0,0,0,0,0,0,0,0,0,0,0,0,0,0,0,0,0,0,0,0,0,0,0,0,0,0,0,0,0,0,0,0,0,0,0,0,0,0,0,0,0,0,0,0,0,0,0,0,0,0,0,0,
0,0,0,0,0,0,0,0,0,0,0,0,0,0,0,0,0,0,0,0,0,0,0,0,0,0,0,0,0,0,0,0,0,0,0,0,0,0,0,0,0,0,0,0,0,0,0,0,0,0,0,0,0,0,0,0,0,0,0,0,0,0,0,0,0,0,0,0,0,0,0,0,0,0,0,0,0,0,0,0,0,0,0,0,0,0,0,0,0,0,0,0,0,0,0,0,0,0,0,0,0,0,0,0,0,0,0,0,0,0,0,0,0,0,0,0,0,0,0,0,0,0,0,0,0,0,0,0,0,0,0,0,2824,0,0,0,0,0,0,0,0,0,0,0,0,0,0,0,2823,0,0,0,0,0,0,0,0,0,0,0,0,0,0,0,0,0,0,0,0,9707,0,0,0,0,0,0,0,0,0,0,0,0,0,0,0,0,0,0,0,0,0,0,0,0,10161,10162,10163,0,0,0,0,0,0,0,0,0,0,0,0,0,0,0,0,0,0,0,0,0,0,0,0,0,0,0,0,0,0,0,0,0,0,0,0,0,0,0,0,0,0,0,0,0,0,0,0,0,0,0,0,0,
0,0,0,0,0,0,0,0,0,0,0,0,0,0,0,0,0,0,0,0,0,0,0,0,0,0,0,0,0,0,0,0,0,0,0,0,0,0,0,0,0,0,0,0,0,0,0,0,0,0,0,0,0,0,0,0,0,0,0,0,0,0,0,0,0,0,0,0,0,0,0,0,0,0,0,0,0,0,0,0,0,0,0,0,0,0,0,0,0,0,0,0,0,0,0,0,0,0,0,0,0,0,0,0,0,0,0,0,0,0,0,0,0,0,0,0,0,0,0,0,0,0,0,0,0,0,0,0,0,0,0,0,0,0,0,0,0,0,0,0,0,0,0,0,0,0,0,0,0,0,0,0,0,0,0,0,0,0,0,0,0,0,0,0,0,0,0,0,0,9771,0,0,0,0,0,0,0,0,0,0,0,0,0,0,0,0,0,0,0,0,0,0,0,0,0,0,0,0,0,0,0,0,0,0,0,0,0,0,0,0,0,0,0,0,0,0,0,0,0,0,0,0,0,0,0,0,0,0,0,0,0,0,0,0,0,0,0,0,0,0,0,0,0,0,0,0,0,0,0,0,
0,0,0,0,0,0,0,0,0,0,0,0,0,0,0,0,0,0,0,0,0,0,0,0,0,0,0,0,0,0,0,0,0,0,0,0,0,0,0,0,0,0,0,0,0,0,0,0,0,0,0,0,0,0,0,0,0,0,0,0,0,0,0,0,0,0,0,0,0,0,0,0,0,0,0,0,0,0,0,0,0,0,0,0,0,0,0,0,0,0,0,0,0,0,0,0,0,0,0,0,0,0,0,0,0,0,0,0,0,0,0,0,0,0,0,0,0,0,0,0,0,0,0,0,0,0,0,0,0,0,0,0,0,0,0,0,0,0,0,0,0,0,0,0,0,0,0,0,0,0,0,0,0,0,0,0,0,0,0,0,0,0,0,0,0,0,0,0,0,9835,0,0,0,0,0,0,0,0,0,0,0,0,0,0,0,0,0,0,0,0,0,0,0,0,0,0,0,0,0,0,0,0,0,0,0,0,0,0,0,0,0,0,0,0,0,0,0,0,0,0,0,0,0,0,0,0,0,0,0,0,0,0,0,0,0,0,0,0,0,0,0,0,0,0,0,0,0,0,0,0,
0,0,0,0,0,0,0,0,0,0,0,0,0,0,0,0,0,0,0,0,0,0,0,0,0,0,0,0,0,0,0,0,0,0,0,0,0,0,0,0,0,0,0,0,0,0,0,0,0,0,0,0,0,0,0,0,0,0,0,0,0,0,0,0,0,0,0,0,0,0,0,0,0,0,0,0,0,0,0,0,0,0,0,0,0,0,0,0,0,0,0,0,0,0,0,0,0,0,0,0,0,0,0,0,0,0,0,0,0,0,0,0,0,0,0,0,0,0,0,0,0,0,0,0,0,0,0,0,0,0,0,0,0,0,0,0,0,0,0,0,0,0,0,0,0,0,0,0,0,0,0,0,0,0,0,0,0,0,0,0,0,0,0,0,0,0,0,0,0,0,0,0,0,0,0,0,0,0,0,0,0,0,0,0,0,0,0,0,0,0,0,0,0,0,0,0,0,0,0,0,0,0,0,0,0,0,0,0,0,0,0,0,0,0,0,0,0,0,0,0,0,0,0,0,0,0,0,0,0,0,0,0,0,0,0,0,0,0,0,0,0,0,0,0,0,0,0,0,0,0,
0,0,0,0,0,0,0,0,0,0,0,0,0,0,0,0,0,0,0,0,0,0,0,0,0,0,0,0,0,0,0,0,0,0,0,0,0,0,0,0,0,0,0,0,0,0,0,0,0,0,0,0,0,0,0,0,0,0,0,0,0,0,0,0,0,0,0,0,0,0,0,0,0,0,0,0,0,0,0,0,0,0,0,0,0,0,0,0,0,0,0,0,0,0,0,0,0,0,0,0,0,0,0,0,0,0,0,0,0,0,0,0,0,0,0,0,0,0,0,0,0,0,0,0,0,0,0,0,0,0,0,0,0,0,0,0,0,0,0,0,0,0,0,0,0,0,0,0,0,0,0,0,0,0,0,0,0,0,0,0,0,0,0,0,0,0,0,0,0,0,0,0,0,0,0,0,0,0,0,0,0,0,2147493355,0,0,0,0,0,0,0,0,0,0,0,0,0,0,0,0,0,0,0,0,0,0,0,0,0,0,0,0,0,0,0,0,0,0,0,0,0,0,0,0,0,0,0,0,0,0,0,0,0,0,0,0,0,0,0,0,0,0,0,0,0,0,0,0,0,0,0,
0,0,0,0,0,0,0,0,0,0,0,0,0,0,0,0,0,0,0,0,0,0,0,0,0,0,0,0,0,0,0,0,0,0,0,0,0,0,0,0,0,0,0,0,0,0,0,0,0,0,0,0,0,0,0,0,0,0,0,0,0,0,0,0,0,0,0,0,0,0,0,0,0,0,0,0,0,0,0,0,0,0,0,0,0,0,0,0,0,0,0,0,0,0,0,0,0,0,0,0,0,0,0,0,0,0,0,0,0,0,0,0,0,0,0,0,0,0,0,0,0,0,0,0,0,0,0,0,0,0,0,0,0,0,0,0,0,0,0,0,0,0,0,0,0,0,0,0,0,0,0,0,0,0,0,0,0,0,0,0,0,0,0,0,0,0,0,0,0,9707,0,0,0,0,0,0,0,0,0,0,0,0,2147493419,0,0,0,0,0,0,0,0,0,0,0,0,0,0,0,0,0,0,0,0,0,0,0,0,0,0,0,0,0,0,0,0,0,0,0,0,0,0,0,0,0,0,0,0,0,0,0,0,0,0,0,0,0,0,0,0,0,0,0,0,0,0,0,0,0,0,0,
0,0,0,0,0,0,0,0,0,0,0,0,0,0,0,0,0,0,0,0,0,0,0,0,0,0,0,0,0,0,0,0,0,0,0,0,0,0,0,0,0,0,0,0,0,0,0,0,0,0,0,0,0,0,0,0,0,0,0,0,0,0,0,0,0,0,0,0,0,0,0,0,0,0,0,0,0,0,0,0,0,0,0,0,0,0,0,0,0,0,0,0,0,0,0,0,0,0,0,0,0,0,0,0,0,0,0,0,0,0,0,0,0,0,0,0,0,0,0,0,0,0,0,0,0,0,0,0,0,0,0,0,0,0,0,0,0,0,0,1963,1964,1965,1966,0,0,0,0,0,0,0,0,0,0,0,0,0,0,0,0,0,0,0,0,0,0,0,0,0,0,9771,0,0,0,0,0,0,0,0,0,0,0,0,2147493483,0,0,0,0,0,0,0,0,0,0,0,0,0,0,0,0,0,0,0,0,0,0,0,0,0,0,0,0,0,0,0,0,0,0,0,0,0,9970,9970,9970,9970,9970,0,0,0,0,0,0,0,0,0,0,0,0,0,0,0,0,0,0,0,0,0,0,0,0,0,
0,0,0,0,0,0,0,0,0,0,0,0,0,0,0,0,0,0,0,0,0,0,0,0,0,0,0,0,0,0,0,0,0,0,0,0,0,0,0,0,0,0,0,0,0,0,0,0,0,0,0,0,0,0,0,0,0,0,0,0,0,0,0,0,0,0,0,0,0,0,0,0,0,0,0,0,0,0,0,0,0,0,0,0,0,0,0,0,0,0,0,0,0,0,0,0,0,0,0,0,0,0,0,0,0,0,0,0,0,0,0,0,0,0,0,0,0,0,0,0,0,0,0,0,0,0,0,0,0,0,0,0,0,0,0,0,0,0,2026,2027,2028,2029,2030,0,0,0,0,0,0,0,0,0,0,0,0,0,0,0,0,0,0,0,0,0,0,0,0,0,0,9835,0,0,0,0,0,0,0,0,0,0,0,0,0,0,0,0,0,0,0,0,0,0,0,0,0,0,0,0,0,0,0,0,0,0,0,0,0,0,0,0,0,0,0,0,0,0,0,0,0,10096,10097,10097,10097,10097,10097,10100,0,0,0,0,0,0,0,0,0,0,0,0,0,0,0,0,0,0,0,0,0,0,0,0,
0,0,0,0,0,0,0,0,0,0,0,0,0,0,0,0,0,0,0,0,0,0,0,0,0,0,0,0,0,0,0,0,0,0,0,0,0,0,0,0,0,0,0,0,0,0,0,0,0,0,0,0,0,0,0,0,0,0,0,0,0,0,0,0,0,0,0,0,0,0,0,0,0,0,0,0,0,0,0,0,0,0,0,0,0,0,0,0,0,0,0,0,0,0,0,0,0,0,0,0,0,0,0,0,0,0,0,0,0,0,0,0,0,0,0,0,0,0,0,0,0,0,0,0,0,0,0,0,0,0,0,0,0,0,0,0,0,0,2090,2091,2092,2093,2094,0,0,0,0,0,0,0,0,0,0,0,0,0,0,0,0,0,0,0,0,0,0,0,0,0,0,0,0,9957,9958,0,0,9953,9954,0,0,0,9955,9956,0,0,0,0,0,0,0,0,0,0,0,0,0,0,0,0,0,0,0,0,0,0,0,0,0,0,0,0,0,0,0,0,0,0,0,0,0,10096,10097,10040,10041,10042,10097,10100,0,0,0,0,0,0,0,0,0,0,0,0,0,0,0,0,0,0,0,0,0,0,0,0,
0,0,0,0,0,0,0,0,0,0,0,0,0,0,0,0,0,0,0,0,0,0,0,0,0,0,0,0,0,0,0,0,0,0,0,0,0,0,0,0,0,0,0,0,0,0,0,0,0,0,0,0,0,0,0,0,0,0,0,0,0,0,0,0,0,0,0,0,0,0,0,0,0,0,0,0,0,0,0,0,0,0,0,0,0,0,0,0,0,0,0,0,0,0,0,0,1962,1963,1964,1965,1966,0,0,0,0,0,0,0,0,0,0,0,0,0,0,0,0,0,0,0,0,0,0,0,0,0,0,0,0,0,0,0,0,0,0,0,0,0,0,2155,2156,2157,2158,0,0,0,0,0,0,0,0,0,0,0,0,0,0,0,0,0,0,0,0,0,0,0,0,0,0,0,0,10021,10022,0,0,10017,10018,0,0,0,10019,10020,0,0,0,0,0,0,0,0,0,0,0,0,0,0,0,0,0,0,0,0,0,0,0,0,0,0,0,0,0,0,0,0,0,0,0,0,0,10096,10097,10104,10105,10106,10097,10100,0,0,0,0,0,0,0,0,0,0,0,0,0,0,0,0,0,0,0,0,0,0,0,0,
0,0,0,0,0,0,0,0,0,0,0,0,0,0,0,0,0,0,0,0,0,0,0,0,0,0,0,0,0,0,0,0,0,0,0,0,0,0,0,0,0,0,0,0,0,0,0,0,0,0,0,0,0,0,0,0,0,0,0,0,0,0,0,0,0,0,0,0,0,0,0,0,0,0,0,0,0,0,0,0,0,0,0,0,0,0,0,0,0,0,0,0,0,0,0,0,2026,2027,2028,2029,2030,0,0,0,0,0,0,0,0,0,0,0,0,0,0,0,0,0,0,0,0,0,0,0,0,0,0,0,0,0,0,0,0,0,0,0,0,0,0,0,0,0,0,0,0,0,0,0,0,0,0,0,0,0,0,0,0,0,0,0,0,0,0,0,0,0,0,0,0,0,0,0,0,0,0,0,0,0,0,0,0,0,0,0,0,0,0,0,0,0,0,0,0,0,0,0,0,0,0,0,0,0,0,0,0,0,0,0,0,0,0,0,0,0,0,0,0,0,0,10096,10097,10168,10169,10170,10097,10100,0,0,0,0,0,0,0,0,9970,0,9970,9970,9970,0,9970,9970,9970,0,0,0,0,0,0,0,
0,0,0,0,0,0,0,0,0,0,0,0,0,0,0,0,0,0,0,0,0,0,0,0,0,0,0,0,0,0,0,0,0,0,0,0,0,0,0,0,0,0,0,0,0,0,0,0,0,0,0,0,0,0,0,0,0,0,0,0,0,0,0,0,0,0,0,0,0,0,0,0,0,0,0,0,0,0,0,0,0,0,0,0,0,0,0,0,0,0,0,0,0,0,0,0,2090,2091,2092,2093,2094,0,0,0,0,0,0,0,0,0,0,0,0,0,0,0,0,0,0,1957,1958,1959,1960,1961,0,0,0,0,0,0,0,0,0,0,0,0,0,0,0,0,0,0,0,0,0,0,0,0,0,0,0,0,0,0,0,0,0,0,0,0,0,0,0,0,0,0,0,0,0,0,0,0,0,0,0,0,0,0,0,0,0,0,0,0,0,0,0,0,0,0,0,0,0,0,0,0,0,0,0,0,0,0,0,0,0,0,0,0,0,0,0,0,0,0,0,0,0,0,0,10096,10097,10097,10097,10097,10097,10100,0,0,0,0,0,0,0,10096,10288,0,10290,10291,10288,0,10288,10289,10290,10100,0,0,0,0,0,0,
0,0,0,0,0,0,0,0,0,0,0,0,0,0,0,0,0,0,0,0,0,0,0,0,0,0,0,0,0,0,0,0,0,0,0,0,0,0,0,0,0,0,0,0,0,0,0,0,0,0,0,0,0,0,0,0,0,0,0,0,0,0,0,0,0,0,0,0,0,0,0,0,0,0,0,0,0,0,0,0,0,0,0,0,0,0,0,0,0,0,0,0,0,0,0,0,2154,2155,2156,2157,2158,0,0,0,0,0,0,0,0,0,0,0,0,0,0,0,0,0,0,2021,2022,2023,2024,2025,0,0,0,0,0,0,0,0,0,0,0,0,0,0,0,0,0,0,0,0,0,0,0,0,0,0,0,0,0,0,0,0,0,0,0,0,0,0,0,0,0,0,0,0,0,0,0,0,0,0,0,0,0,0,0,0,0,0,0,0,0,0,0,0,0,0,0,0,0,0,0,2684364912,2684364848,0,0,0,0,0,0,0,0,0,0,0,0,0,0,0,0,0,0,0,0,0,0,0,10226,10226,10226,10226,10226,0,0,0,0,0,0,0,0,0,10352,10353,0,10355,10352,0,10352,10353,10354,10100,0,0,0,0,0,0,
0,0,0,0,0,0,0,0,0,0,0,0,0,0,0,0,0,0,0,0,0,0,0,0,0,0,0,0,0,0,0,0,0,0,0,0,0,0,0,0,0,0,0,0,0,0,0,0,0,0,0,0,0,0,0,0,0,0,0,0,0,0,0,0,0,0,0,0,0,0,0,0,0,0,0,0,0,0,0,0,0,0,0,0,0,0,0,0,0,0,0,0,0,0,0,0,0,0,0,0,0,0,0,0,0,0,0,0,0,0,0,0,0,0,0,0,0,0,0,2085,2086,2087,2088,2089,0,0,0,0,0,0,0,0,2696,0,0,0,0,0,0,0,0,0,0,0,0,0,0,0,2695,0,0,0,0,0,0,0,0,0,0,0,0,0,0,0,0,0,0,0,0,0,0,0,0,0,0,0,0,0,0,0,0,0,0,0,0,0,0,0,0,0,0,0,0,0,0,2684364913,2684364849,0,0,0,0,0,0,0,0,0,0,0,0,0,0,0,0,0,0,0,0,0,0,0,0,0,0,0,0,0,0,0,0,0,0,0,0,0,10226,10226,0,10226,10226,0,10226,10226,10226,0,0,0,0,0,0,0,
0,0,0,0,0,0,0,0,0,0,0,0,0,0,0,0,0,0,0,0,0,0,0,0,0,0,0,0,0,0,0,0,0,0,0,0,0,0,0,0,0,0,0,0,0,0,0,0,0,0,0,0,0,0,0,0,0,0,0,0,0,0,0,0,0,0,0,0,0,0,0,0,0,0,0,0,0,0,0,0,0,0,0,0,0,0,0,0,0,0,0,0,0,0,0,0,0,0,0,0,0,0,0,0,0,0,0,0,0,0,0,0,0,0,0,0,0,0,0,2149,2150,2151,2152,2153,0,0,0,0,0,0,0,0,2760,0,0,0,0,0,0,0,0,0,0,0,0,0,0,0,2759,0,0,0,0,0,0,0,0,0,0,0,0,0,0,0,0,0,0,0,0,0,0,0,0,0,0,0,0,0,0,0,0,0,0,0,0,0,0,0,0,0,0,0,0,0,0,0,2684364850,0,0,0,0,0,0,0,0,0,0,0,0,0,0,0,0,0,0,0,0,0,0,0,0,0,0,0,0,0,0,0,0,0,0,0,0,0,0,0,0,0,0,0,0,0,0,0,0,0,0,0,0,0,
0,0,0,0,0,0,0,0,0,0,0,0,0,0,0,0,0,0,0,0,0,0,0,0,0,0,0,0,0,0,0,0,0,0,0,0,0,0,0,0,0,0,0,0,0,0,0,0,0,0,0,0,0,0,0,0,0,0,0,0,0,0,0,0,0,0,0,0,0,0,0,0,0,0,0,0,0,0,0,0,0,0,0,0,0,0,0,0,0,0,0,0,0,0,0,0,0,0,0,0,0,0,0,0,0,0,0,0,0,0,0,0,0,0,0,0,0,0,0,2213,2214,2215,2216,2217,0,0,0,0,0,0,0,0,2824,0,0,0,0,0,0,0,0,0,0,0,0,0,0,0,2823,0,0,0,0,0,0,0,0,0,0,0,0,0,0,0,0,0,0,0,0,0,0,0,0,0,0,0,0,0,0,0,0,0,0,0,0,0,0,0,0,0,0,0,0,0,0,2684364915,2684364851,0,0,0,0,0,0,0,0,0,0,0,0,0,0,0,0,0,0,0,0,0,0,0,0,0,0,0,0,0,0,0,0,0,0,0,0,0,0,0,0,0,0,0,0,0,0,0,0,0,0,0,0,0,
0,0,0,0,0,0,0,0,0,0,0,0,0,0,0,0,0,0,0,0,0,0,0,0,0,0,0,0,0,1934,1935,1936,1937,1938,1939,1940,1941,1942,1943,1944,1945,1946,1947,1948,1949,0,0,0,0,0,0,0,0,0,0,0,0,0,0,0,0,0,0,0,0,0,0,0,0,0,0,0,0,0,0,0,1377,0,0,0,0,0,0,0,0,0,0,0,0,0,0,0,0,0,0,0,0,0,0,0,0,0,0,0,0,0,0,0,0,0,0,0,0,0,0,0,0,0,0,0,0,0,0,0,0,0,0,0,0,0,0,0,0,0,0,0,0,0,0,0,0,0,0,0,0,0,0,0,0,0,0,0,0,0,0,0,0,0,0,0,0,0,0,0,0,0,0,0,0,0,0,0,0,0,0,0,0,0,0,0,0,0,0,0,0,0,0,0,0,0,0,0,0,0,0,0,0,0,0,0,0,0,0,0,0,0,0,0,0,0,0,0,0,0,2147492652,0,3758106739,3758106675,0,9004,0,0,0,0,0,0,0,0,0,0,0,0,0,0,0,0,0,0,0,0,0,0,0,0,0,0,0,0,0,0,
0,0,0,0,0,0,0,0,0,0,0,0,0,0,0,0,0,0,0,0,0,0,0,0,0,0,0,0,0,1998,1999,2000,2001,2002,2003,2004,2005,2006,2007,2008,2009,2010,2011,2012,2013,2461,0,0,0,0,0,0,0,0,0,0,0,0,0,0,0,0,0,0,0,0,0,0,0,0,0,0,0,0,0,0,0,0,0,0,0,0,0,0,0,0,0,0,0,0,0,0,0,0,0,0,0,0,0,0,0,0,0,0,0,0,0,0,0,0,0,0,0,0,0,0,0,0,0,0,0,0,0,0,0,0,0,0,0,0,0,0,0,0,0,0,0,0,0,0,0,0,0,0,0,0,0,0,0,0,0,0,0,0,0,0,0,0,0,0,0,0,0,0,0,0,0,0,0,0,0,0,0,0,0,0,0,0,0,0,0,0,0,0,0,0,0,0,0,0,0,0,0,0,0,0,0,0,0,0,0,0,0,0,0,0,0,0,0,0,0,0,0,0,0,0,3758106738,3758106674,0,0,0,0,0,0,0,0,0,0,0,0,0,0,0,0,0,0,0,0,0,0,0,0,0,0,0,0,0,0,0,0,
0,0,0,0,0,0,0,0,0,0,0,0,0,0,0,0,0,0,0,0,0,0,0,0,0,0,0,0,0,2062,2063,2064,2065,2066,2067,2068,2069,2070,2071,2072,2073,2074,2075,2076,2077,2525,0,0,0,0,0,0,0,0,0,0,0,0,0,0,0,0,0,0,0,0,0,0,0,0,0,0,0,0,0,0,0,0,0,0,0,0,0,0,0,0,0,0,0,0,0,0,0,0,0,0,0,0,0,0,0,0,0,0,0,0,0,0,0,0,0,0,0,0,0,0,0,0,0,0,0,0,0,0,0,0,0,0,0,0,0,0,0,0,0,0,0,0,0,0,0,0,0,0,2819,0,0,0,0,0,0,0,0,0,0,0,0,0,0,0,0,0,0,0,0,0,0,0,0,0,0,0,0,0,0,0,0,0,0,0,0,0,0,0,0,0,0,0,0,0,0,0,0,0,0,0,0,0,0,0,0,0,0,0,0,0,0,0,0,0,0,0,0,0,0,0,3758106737,3758106673,0,0,0,0,0,0,0,0,0,0,0,0,0,0,0,0,0,0,0,0,0,0,0,0,0,0,0,0,0,0,0,0,
0,0,0,0,0,0,0,0,0,0,0,0,0,0,0,0,0,0,0,0,0,0,0,0,0,0,0,0,0,2126,2127,2128,2129,2130,2131,2132,2133,2134,2135,2136,2137,2138,2139,2140,2141,0,0,0,0,0,0,0,0,0,0,0,0,0,0,0,0,0,0,0,0,0,0,0,0,0,0,0,0,0,0,0,0,0,0,0,0,0,0,0,0,0,0,0,0,0,0,0,0,0,0,0,0,0,0,0,0,0,0,0,0,0,0,0,0,0,0,0,0,0,0,0,0,0,0,0,0,0,0,0,0,0,0,0,0,0,0,0,0,0,0,0,0,0,0,0,0,0,0,0,2883,0,0,0,0,0,0,0,0,0,0,0,0,0,0,0,0,0,0,0,0,0,0,0,0,0,0,0,0,0,0,0,0,0,0,0,0,0,0,0,0,0,0,0,0,0,0,0,0,0,0,9970,0,0,0,0,0,0,0,0,0,0,0,0,0,0,0,0,0,0,0,0,3758106736,3758106672,0,0,0,0,0,0,0,0,0,0,0,0,0,0,0,0,0,0,0,0,0,0,0,0,0,0,0,0,0,0,0,0,
0,0,0,0,0,0,0,0,0,0,0,0,0,0,0,0,0,0,0,0,0,0,0,0,0,0,0,0,0,2190,2191,2192,2193,2194,2195,2196,2197,2198,2199,2200,2201,2202,2203,2204,2205,0,0,0,0,0,0,0,0,0,0,0,0,0,0,0,0,0,0,0,0,0,0,0,0,0,0,0,0,0,0,0,0,0,0,0,0,0,0,0,0,0,0,0,0,0,0,0,0,0,0,0,0,0,0,0,0,0,0,0,0,0,0,0,0,0,0,0,0,0,0,0,0,0,0,0,0,0,0,0,0,0,0,0,0,0,0,0,3085,0,0,0,0,0,0,0,0,0,0,0,2947,0,0,0,0,0,0,0,0,0,0,0,0,0,0,0,0,0,0,0,0,0,0,0,0,0,0,0,0,0,0,0,0,0,0,0,0,0,0,0,0,0,0,0,0,0,0,0,0,0,0,2684364912,2684364848,10100,0,0,0,0,0,0,0,0,0,0,0,0,0,0,0,0,0,0,0,0,0,0,0,0,0,0,0,0,0,0,0,0,0,0,0,0,0,0,0,0,0,0,0,0,0,0,0,0,0,0,0,0,
0,0,0,0,0,0,0,0,0,0,0,0,0,0,0,0,0,0,0,0,0,0,0,0,0,0,0,0,0,2254,2255,2256,2257,2258,2259,2260,2261,2262,2263,2264,2265,2266,2267,2268,2269,0,0,0,0,0,0,0,0,0,0,0,0,0,0,0,0,0,0,0,0,0,0,0,0,0,0,0,0,0,0,0,0,0,0,0,0,0,0,0,0,0,0,0,0,0,0,0,0,0,0,0,0,0,0,0,0,0,0,0,0,0,0,0,0,0,0,0,0,0,0,0,0,0,0,0,0,0,0,0,0,0,0,0,0,0,0,0,3149,0,0,0,0,0,0,0,0,0,0,0,3011,0,0,0,0,0,0,0,0,0,0,0,0,0,0,0,0,0,0,0,0,0,0,0,0,0,0,0,0,0,0,0,0,0,0,0,0,0,0,0,0,0,0,0,0,0,0,0,0,0,10096,2684364913,2684364849,10100,0,0,0,0,0,0,0,0,0,0,0,0,0,0,0,0,0,0,0,0,0,0,0,0,0,0,0,0,0,0,0,0,0,0,0,0,0,0,0,0,0,0,0,0,0,0,0,0,0,0,0,0,
0,0,0,0,0,0,0,0,1439,0,0,0,0,0,0,0,0,0,0,0,0,0,0,0,0,0,0,0,0,2318,2319,2320,2321,2322,2323,2324,2325,2326,2327,2328,2329,2330,2331,2332,2333,0,0,0,0,0,0,0,0,0,0,0,0,0,0,0,0,0,0,0,0,0,0,0,0,0,0,0,0,0,0,0,0,0,0,0,0,0,0,0,0,0,0,0,0,0,0,0,0,0,0,0,0,0,0,0,0,0,0,0,0,0,0,0,0,0,0,0,0,0,0,0,0,0,0,0,0,0,0,0,0,0,0,0,0,0,0,0,3213,0,0,0,0,0,0,0,0,0,0,0,0,0,0,0,0,0,0,0,0,0,0,0,0,0,0,0,0,0,0,0,0,0,0,0,0,0,0,0,0,0,0,0,0,0,0,0,0,0,0,0,0,0,0,0,0,0,0,0,0,2147492780,0,2684364914,2684364850,10100,9132,0,0,0,0,0,0,0,0,0,0,0,0,0,0,0,0,0,0,0,0,0,0,0,0,0,0,0,0,0,0,0,0,0,0,0,0,0,0,0,0,0,0,0,0,0,0,0,0,0,0,0,
0,0,0,0,0,0,0,0,0,0,0,0,0,0,0,0,0,0,0,0,0,0,0,0,0,0,0,0,0,2382,2383,2384,2385,2386,2387,2388,2389,2390,2391,2392,2393,2394,2395,2396,2397,0,0,0,0,0,0,0,0,0,0,0,0,0,0,0,0,0,0,0,0,0,0,0,0,0,0,0,0,0,0,0,0,0,0,0,0,0,0,0,0,0,0,0,0,0,0,0,0,0,0,0,0,0,0,0,0,0,0,0,0,0,0,0,0,0,0,0,0,0,0,0,0,0,0,0,0,0,0,0,0,0,0,0,0,0,0,0,3277,0,0,0,0,0,0,0,0,0,0,0,0,0,0,0,0,0,0,0,0,0,0,0,0,0,0,0,0,0,0,0,0,0,0,0,0,0,0,0,0,0,0,0,0,0,0,0,0,0,0,0,0,0,0,0,0,0,8934,9695,9696,0,10096,2684364915,2684364851,0,0,9695,9696,2147492582,0,0,0,0,0,0,0,0,0,0,0,0,0,0,3758106739,3758106675,0,0,0,0,0,0,0,0,0,0,0,0,0,0,0,0,0,0,0,0,0,0,0,0,0,0,0,0,0,0,0,0,
0,0,0,0,0,0,0,0,0,0,0,0,0,0,0,0,0,0,0,0,0,0,0,0,0,0,0,0,0,0,0,0,0,0,0,0,0,0,0,0,0,0,0,0,0,0,0,0,0,0,0,0,0,0,0,0,0,0,0,0,0,0,0,0,0,0,0,0,0,0,0,0,0,0,0,0,0,0,0,0,0,0,0,0,0,0,0,0,0,0,0,0,0,0,0,0,0,0,0,0,0,0,0,0,0,0,0,0,0,0,0,0,0,0,0,0,0,0,0,0,0,0,0,0,0,0,0,0,0,0,0,0,0,0,0,0,0,0,0,0,0,0,0,0,0,0,0,0,0,0,0,0,0,0,0,0,0,0,0,0,0,0,0,0,0,0,0,0,0,0,0,0,0,0,0,0,0,0,0,0,0,0,0,0,0,0,0,0,0,0,0,0,0,0,0,0,10226,0,0,0,0,0,0,0,0,0,0,0,0,0,0,0,0,0,0,0,3758106738,3758106674,0,0,0,0,0,0,0,0,0,0,0,0,0,0,0,0,0,0,0,0,0,0,0,0,0,0,0,0,0,0,0,0,
0,0,0,0,0,0,0,0,0,0,0,0,0,0,0,0,0,0,0,0,0,0,0,0,0,0,0,0,0,0,0,0,0,0,0,0,0,0,0,0,0,0,0,0,0,0,0,0,0,0,0,0,0,0,0,0,0,0,0,0,0,0,0,0,0,0,0,0,0,0,0,0,0,0,0,0,0,0,0,0,0,0,0,0,0,0,0,0,0,0,0,0,0,0,0,0,0,0,0,0,0,0,0,0,0,0,0,0,0,0,0,0,0,0,0,0,0,0,0,0,0,0,0,0,0,0,0,0,0,0,0,0,0,0,0,0,0,0,0,0,0,0,0,0,0,0,0,0,0,0,0,0,0,0,0,0,0,0,0,0,0,0,0,0,0,0,0,0,0,0,0,0,0,0,0,0,0,0,0,0,0,0,0,0,0,0,0,0,0,0,0,0,0,0,9970,9970,9970,9970,0,0,0,0,0,0,0,0,0,0,0,0,0,0,0,0,0,0,3758106737,3758106673,0,0,0,0,0,0,0,0,0,0,0,0,0,0,0,0,0,0,0,0,0,0,0,0,0,0,0,0,0,0,0,0,
0,0,0,0,0,0,0,0,0,0,0,0,0,0,0,0,0,0,0,0,0,0,0,0,0,0,0,0,0,0,0,0,0,0,0,0,0,0,0,0,0,0,0,0,0,0,0,0,0,0,0,0,0,0,0,0,0,0,0,0,0,0,0,0,0,0,0,0,0,0,0,0,0,0,0,0,0,0,0,0,0,0,0,0,0,0,0,0,0,0,0,0,0,0,0,0,0,0,0,0,0,0,0,0,0,0,0,0,0,0,0,0,0,0,0,0,0,0,0,0,0,0,0,0,0,0,0,0,0,0,0,0,0,0,0,0,0,0,0,0,0,0,0,0,0,0,0,0,0,0,0,0,0,0,0,0,0,0,0,0,0,0,0,0,0,0,0,0,0,0,0,0,0,0,0,0,0,0,0,0,0,0,0,0,0,0,0,0,0,0,0,0,0,10096,10288,10289,10290,10291,10100,0,0,0,0,0,0,0,0,0,0,0,0,0,0,0,2147492652,0,3758106736,3758106672,0,9004,0,0,0,0,0,0,0,0,0,0,0,0,0,0,0,0,0,0,0,0,0,0,9970,0,0,0,0,0,0,0,
0,0,0,0,0,0,0,0,0,0,0,0,0,0,0,0,0,0,0,0,0,0,0,0,0,0,0,0,0,0,0,0,0,0,0,0,0,0,0,0,0,0,0,0,0,0,0,0,0,0,0,0,0,0,0,0,0,0,0,0,0,0,0,0,0,0,0,0,0,0,0,0,0,0,0,0,0,0,0,0,0,0,0,0,0,0,0,0,0,0,0,0,0,0,0,0,0,1957,1958,1959,1960,1961,0,0,0,0,0,0,0,0,0,0,0,0,0,0,0,0,0,0,0,0,0,0,0,0,0,0,0,0,0,0,0,0,0,0,0,0,0,0,0,0,0,0,0,0,0,0,0,0,0,0,0,0,0,0,0,0,0,0,0,0,0,0,0,0,0,3076,0,0,0,0,0,0,0,3079,0,0,0,0,0,0,0,0,0,0,0,0,0,0,0,0,0,10096,10352,10353,10354,10355,10100,0,0,0,0,0,0,0,0,0,0,0,0,0,0,0,0,0,0,0,0,0,0,0,0,0,0,0,0,0,0,0,0,0,0,0,0,0,0,0,0,0,0,10288,10288,0,0,0,0,0,0,0,
0,0,0,0,0,0,0,0,0,0,0,0,0,0,0,0,0,0,0,0,0,0,0,0,0,0,0,0,0,0,0,0,0,0,0,0,0,0,0,0,0,0,0,0,0,0,0,0,0,0,0,0,0,0,0,0,0,0,0,0,0,0,0,0,0,0,0,0,0,0,0,0,0,0,0,0,0,0,0,0,0,0,0,0,0,0,0,0,0,0,0,0,0,0,0,0,0,2021,2022,2023,2024,2025,0,0,0,0,0,0,0,0,0,0,0,0,0,0,0,0,0,0,0,0,0,0,0,0,0,0,0,0,0,1962,1963,1964,1965,1966,0,0,0,0,0,0,0,0,0,0,0,0,0,0,0,0,0,0,0,0,0,0,0,0,0,0,0,0,0,0,0,0,0,0,0,0,0,0,0,0,0,0,0,0,0,0,0,0,0,0,0,0,0,8748,0,0,0,10096,10352,0,10354,10355,0,0,0,0,0,0,0,0,0,0,0,0,0,0,0,0,0,0,9970,9970,0,0,0,0,0,0,0,0,0,0,0,0,0,0,0,0,0,0,0,0,0,0,10096,10288,10352,10353,0,0,0,0,0,0,
0,0,0,0,0,0,0,0,0,0,0,0,0,0,0,0,0,0,0,0,0,0,0,0,0,0,0,0,0,0,0,0,0,0,0,0,0,0,0,0,0,0,0,0,0,0,0,0,0,0,0,0,0,0,0,0,0,0,0,0,0,0,0,0,0,0,0,0,0,0,0,0,0,0,0,0,0,0,0,0,0,0,0,0,0,0,0,0,0,0,0,0,0,0,0,0,0,2085,2086,2087,2088,2089,0,0,0,0,0,0,0,0,0,0,0,0,0,0,0,0,0,0,0,0,0,0,0,0,0,0,0,0,0,2026,2027,2028,2029,2030,0,0,0,0,0,0,0,0,0,0,0,0,0,0,0,0,0,0,0,0,0,0,0,0,0,0,0,0,0,0,0,0,0,0,0,0,0,0,0,0,0,0,0,0,0,9970,0,9970,9970,9970,9970,0,9970,0,0,0,0,10096,10352,10353,10354,10355,10100,0,0,0,0,0,0,0,0,0,0,0,0,0,0,0,0,10033,10034,10034,10035,9970,9970,9970,9970,0,0,0,0,9970,9970,9970,9970,9970,9970,0,0,0,0,0,0,0,0,0,10352,10353,0,0,0,9132,0,0,
0,0,0,0,0,0,0,0,0,0,0,0,0,0,0,0,0,0,0,0,0,0,0,0,0,0,0,0,0,0,0,0,0,0,0,0,0,0,0,0,0,0,0,0,0,0,0,0,0,0,0,0,0,0,0,0,0,0,0,0,0,0,0,0,0,0,0,0,0,0,0,0,0,0,0,0,0,0,0,0,0,0,0,0,0,0,0,0,0,0,0,0,0,0,0,0,0,2149,2150,2151,2152,2153,0,0,0,0,0,0,0,0,0,0,0,0,0,0,0,0,0,0,0,0,0,0,0,0,0,0,0,0,0,2090,2091,2092,2093,2094,0,0,0,0,0,0,0,0,0,0,0,0,0,0,0,0,0,0,0,0,0,0,0,0,0,0,0,0,0,0,0,0,0,0,0,0,0,0,0,0,0,0,0,0,10096,10352,10353,10352,10353,10352,10353,10354,10355,10100,0,0,0,10096,10352,10353,10354,10355,10100,0,0,10352,10352,10352,10352,0,10352,10352,10352,10352,10352,0,10352,10352,10352,10352,10352,10352,10352,10352,10352,10352,10352,10353,10354,0,10288,10289,10288,10289,10288,10289,10290,10291,0,0,0,0,0,0,0,10288,0,10353,0,0,0,0,0,0,
0,0,0,0,0,0,0,0,0,0,1505,0,0,0,0,0,0,0,0,0,0,0,0,0,0,0,0,0,0,0,0,0,0,0,0,0,0,0,0,0,0,0,0,0,0,0,0,0,0,0,0,0,0,0,0,0,0,0,0,0,0,0,0,0,0,0,0,0,0,0,0,0,0,0,0,0,0,0,0,0,0,0,0,0,0,0,0,0,0,0,0,0,0,0,0,0,0,2213,2214,2215,2216,2217,0,0,0,0,0,0,0,0,0,0,0,0,0,0,0,0,0,0,0,0,0,0,0,0,0,0,0,0,0,2154,2155,2156,2157,2158,0,0,0,0,0,0,0,0,0,0,0,0,0,0,0,0,0,0,0,0,0,0,0,0,0,0,0,0,0,0,0,3140,0,0,0,0,0,0,0,3143,0,0,0,0,0,10226,10226,10226,10226,0,10226,10226,10226,8812,0,0,0,10096,10352,10353,0,10355,10100,0,0,0,0,0,0,0,0,0,8812,0,0,0,0,0,0,10161,10162,10162,10163,10226,10226,0,0,0,0,8812,0,10226,10226,10226,0,10226,10226,0,0,0,0,0,0,0,0,10288,10352,10353,0,0,0,0,0,0,
0,0,0,0,0,0,0,0,0,0,0,0,0,0,0,0,0,0,0,0,0,0,0,0,0,0,0,0,0,0,0,0,0,0,0,0,0,0,0,0,0,0,0,0,0,0,0,0,0,0,0,0,0,0,0,0,0,0,0,0,0,0,0,0,0,0,0,0,0,0,0,0,0,0,0,0,0,0,0,0,0,0,0,0,0,0,0,0,0,0,0,0,0,0,0,0,0,0,0,0,0,0,0,0,0,0,0,0,0,0,0,0,0,0,0,0,0,0,0,0,0,0,0,0,0,0,0,0,0,0,0,0,0,0,0,0,0,0,0,0,0,0,0,0,0,0,0,0,0,0,0,0,0,0,0,0,0,0,0,0,0,0,0,0,0,0,0,3204,0,0,0,0,0,0,0,3207,0,0,0,0,0,0,0,0,0,0,0,0,0,8876,0,0,0,0,10352,10353,10354,10355,10100,0,0,2147493355,0,0,0,0,0,0,8876,0,0,0,0,0,0,0,10226,10226,0,0,0,0,0,0,0,8876,0,0,0,0,0,0,0,0,0,0,0,0,0,0,0,10352,10352,10353,0,0,0,0,0,0,
0,0,0,0,0,0,0,0,0,0,0,0,0,0,0,0,0,0,0,0,0,0,0,0,0,0,0,0,0,0,0,0,0,0,0,0,0,0,0,0,0,0,0,0,0,0,0,0,0,0,0,0,0,0,0,0,0,0,0,0,0,0,0,0,0,0,0,0,0,0,0,0,0,0,0,0,0,0,0,0,0,0,0,0,0,0,0,0,0,0,0,0,0,0,0,0,0,0,0,0,0,0,0,0,0,0,0,0,0,0,0,0,0,0,0,0,0,0,0,0,0,0,0,0,0,3084,0,0,0,0,0,0,0,0,0,0,0,0,0,0,0,0,3082,0,0,0,0,0,0,0,0,0,0,0,0,0,0,0,0,0,0,0,0,0,0,0,0,3268,0,0,0,0,0,0,0,3271,0,0,0,0,0,0,0,0,0,0,0,0,0,0,9771,0,0,10096,10352,0,10354,10355,10100,0,0,2147493419,0,0,0,0,0,0,0,0,0,0,0,0,0,0,0,0,0,0,0,0,0,0,0,0,0,0,0,0,0,0,0,0,0,0,0,0,0,0,0,0,0,0,0,0,0,0,0,0,
0,0,0,0,0,0,0,0,0,0,0,0,0,0,0,0,0,0,0,0,0,0,0,0,0,0,0,0,0,0,0,0,0,0,0,0,0,0,0,0,0,0,0,0,0,0,0,0,0,0,0,0,0,0,0,0,0,0,0,0,0,0,0,0,0,0,0,0,0,0,0,0,0,0,0,0,0,0,0,0,0,0,0,0,0,0,0,0,0,0,0,0,0,0,0,0,0,0,0,0,0,0,0,0,0,0,0,0,0,0,0,0,0,0,0,0,0,0,0,0,0,0,0,0,0,3148,0,0,0,0,0,0,0,0,0,0,0,0,0,0,0,0,3146,0,0,0,0,0,0,0,0,0,0,0,0,0,0,0,0,0,0,0,0,0,0,0,0,0,0,0,0,0,0,0,0,0,0,0,0,0,0,0,0,0,0,0,0,0,0,0,9835,0,0,10096,10352,10353,10354,10355,10100,0,0,2147493483,0,0,0,0,0,0,0,0,0,0,0,0,0,0,0,0,0,0,0,0,0,0,0,0,0,0,0,0,0,0,0,0,0,0,0,0,0,0,0,0,0,0,0,0,0,0,0,0,
0,0,0,0,0,0,0,0,0,0,0,0,0,0,0,0,0,0,0,0,0,0,0,0,0,0,0,0,0,0,0,0,0,0,0,0,0,0,0,0,0,0,0,0,0,0,0,0,0,0,0,0,0,0,0,0,0,0,0,0,0,0,0,0,0,0,0,0,0,0,0,0,0,0,0,0,0,0,0,0,0,0,0,0,0,0,0,0,0,0,0,0,0,0,0,0,0,0,0,0,0,0,0,0,0,0,0,0,0,0,0,0,0,0,0,0,0,0,0,0,0,0,0,0,0,3212,0,0,0,0,0,0,0,0,0,0,0,0,0,0,0,0,3210,0,0,0,0,0,0,0,0,0,0,0,0,0,0,0,0,0,0,0,0,0,0,0,0,0,0,0,0,0,0,0,0,0,0,0,0,0,0,0,0,0,0,0,0,0,0,0,0,0,0,0,10226,10226,10226,10226,0,0,0,0,0,0,0,0,0,0,0,0,0,0,0,0,0,0,0,0,0,0,0,0,0,0,0,0,0,0,0,0,0,0,0,0,0,0,0,0,0,0,0,0,0,0,0,0,0,0,0,0,
0,0,0,0,0,0,0,0,0,0,0,0,0,0,0,0,0,0,0,0,0,0,0,0,0,0,0,0,0,0,0,0,0,0,0,0,0,0,0,0,0,0,0,0,0,0,0,0,0,0,0,0,0,0,0,0,0,0,0,0,0,0,0,0,0,0,0,0,0,0,0,0,0,0,0,0,0,0,0,0,0,0,0,0,0,0,0,0,0,0,0,0,0,0,0,0,0,0,0,0,0,0,0,0,0,0,0,0,0,0,0,0,0,0,0,0,0,0,0,0,0,0,0,0,0,0,0,0,0,0,0,0,0,0,0,0,0,0,0,0,0,0,0,0,0,0,0,0,0,0,0,0,0,0,0,0,0,0,0,0,0,0,0,0,0,0,0,0,0,0,0,0,0,0,0,0,0,0,0,0,0,0,0,0,0,0,0,0,0,0,2147492774,9953,9954,0,0,0,0,0,0,9953,9954,9126,0,0,0,0,0,0,0,0,0,0,0,0,0,0,0,0,0,0,0,0,0,0,0,0,0,0,0,0,0,0,0,0,0,0,0,0,0,0,0,0,0,0,0,0,0,0,0,0,
0,0,0,0,0,0,0,0,0,0,0,0,0,0,0,0,0,0,0,0,0,0,0,0,0,0,0,0,0,0,0,0,0,0,0,0,0,0,0,0,0,0,0,0,0,0,0,0,0,0,0,0,0,0,0,0,0,0,0,0,0,0,0,0,0,0,0,0,0,0,0,0,0,0,0,0,0,0,0,0,0,0,0,0,0,0,0,0,0,0,0,0,0,0,0,0,0,0,0,0,0,0,0,0,0,0,0,0,0,0,0,0,0,0,0,0,0,0,0,0,0,0,0,0,0,0,0,0,0,0,0,0,0,0,0,0,0,0,0,0,0,0,0,0,0,0,0,0,0,0,0,0,0,0,0,0,0,0,0,0,0,0,0,0,0,0,0,0,0,0,0,0,0,0,0,0,0,0,0,0,0,0,0,0,0,0,0,0,0,0,0,10017,10018,0,0,0,0,0,0,10017,10018,0,0,0,0,0,0,0,0,0,0,0,0,0,0,0,0,0,0,0,0,0,0,0,0,0,0,0,0,0,0,0,0,0,0,0,0,0,0,0,0,0,0,0,0,0,0,0,0,0,
0,0,0,0,0,0,0,0,0,0,0,0,0,0,0,0,0,0,0,0,0,0,0,0,0,0,0,0,0,0,0,0,0,0,0,0,0,0,0,0,0,0,0,0,0,0,0,0,0,0,0,0,0,0,0,0,0,0,0,0,0,0,0,0,0,0,0,0,0,0,0,0,0,0,0,0,0,0,0,0,0,0,0,0,0,0,0,0,0,0,0,0,0,0,0,0,0,0,0,0,0,0,0,0,0,0,0,0,0,0,0,0,0,0,0,0,0,0,0,0,0,0,0,0,0,0,0,0,0,0,0,0,0,0,0,0,0,0,0,0,0,0,0,0,0,0,0,0,0,0,0,0,0,0,0,0,0,0,0,0,0,0,0,0,0,0,0,0,0,0,0,0,0,0,0,0,0,0,0,0,0,0,0,0,0,0,0,0,0,0,0,0,0,0,0,0,0,0,0,0,0,0,0,0,0,0,0,0,0,0,0,0,0,0,0,0,0,0,0,0,0,0,0,0,0,0,0,0,0,0,0,0,0,0,0,0,0,0,0,0,0,0,0,0,0,0,0,0,0,0,
0,0,0,0,0,0,0,0,0,0,0,0,0,0,0,0,0,0,0,0,0,0,0,0,0,0,0,0,0,0,0,0,0,0,0,0,0,0,0,0,0,0,0,0,0,0,0,0,0,0,0,0,0,0,0,0,0,0,0,0,0,0,0,0,0,0,0,0,0,0,0,0,0,0,0,0,0,0,0,0,0,0,0,0,0,0,0,0,0,0,0,0,0,0,0,0,0,0,0,0,0,0,0,0,0,0,0,0,0,0,0,0,0,0,0,0,0,0,0,0,0,0,0,0,0,0,0,0,0,0,0,0,0,0,0,0,0,0,0,0,0,0,0,0,0,0,0,0,0,0,0,0,0,0,0,0,0,0,0,0,0,0,0,0,0,0,0,0,0,0,0,0,0,0,0,0,0,0,0,0,0,0,0,0,0,0,0,0,0,0,0,0,0,0,0,0,0,0,0,0,0,0,0,0,0,0,0,0,0,0,0,0,0,0,0,0,0,0,0,0,0,0,0,0,0,0,0,0,0,0,0,0,0,0,0,0,0,0,0,0,0,0,0,0,0,0,0,0,0,0,
0,0,0,0,0,0,0,0,0,0,0,0,0,0,0,0,0,0,0,0,0,0,0,0,0,0,0,0,0,0,0,0,0,0,0,0,0,0,0,0,0,0,0,0,0,0,0,0,0,0,0,0,0,0,0,0,0,0,0,0,0,0,0,0,0,0,0,0,0,0,0,0,0,0,0,0,0,0,0,0,0,0,0,0,0,0,0,0,0,0,0,0,0,0,0,0,0,0,0,0,0,0,0,0,0,0,0,0,0,0,0,0,0,0,0,0,0,0,0,0,0,0,0,0,0,0,0,0,0,0,0,0,0,0,0,0,0,0,0,0,0,0,0,0,0,0,0,0,0,0,0,0,0,0,0,0,0,0,0,0,0,0,0,0,0,0,0,0,0,0,0,0,0,0,0,0,0,0,0,0,0,0,0,0,0,0,0,0,0,0,0,0,0,0,0,0,0,0,0,0,0,0,0,0,0,0,0,0,0,0,0,0,0,0,0,0,0,0,0,0,0,0,0,0,0,0,0,0,0,0,0,0,0,0,0,0,0,0,0,0,0,0,0,0,0,0,0,0,0,0
</data>
 </layer>
 <layer id="6" name="tron" width="250" height="110">
  <data encoding="csv">
0,0,0,0,0,0,0,0,0,0,0,0,0,0,0,0,0,0,0,0,0,0,0,0,0,0,0,0,0,0,0,0,0,0,0,0,0,0,0,0,0,0,0,0,0,0,0,0,0,0,0,0,0,0,0,0,0,0,0,0,0,0,0,0,0,0,0,0,0,0,0,0,0,0,0,0,0,0,0,0,0,0,0,0,0,0,0,0,0,0,0,0,0,0,0,0,0,0,0,0,0,0,0,0,0,0,0,0,0,0,0,0,0,0,0,0,0,0,0,0,0,0,0,0,0,0,0,0,0,0,0,0,0,0,0,0,0,0,0,0,0,0,0,0,0,0,0,0,0,0,0,0,0,0,0,0,0,0,0,0,0,0,0,0,0,0,0,0,0,0,0,0,0,0,0,0,0,0,0,0,0,0,0,0,0,0,0,0,0,0,0,0,0,0,0,0,0,0,0,0,0,0,0,0,0,0,0,0,0,0,0,0,0,0,0,0,0,0,0,0,0,0,0,0,0,0,0,0,0,0,0,0,0,0,0,0,0,0,0,0,0,0,0,0,0,0,0,0,0,0,
0,0,0,0,0,0,0,0,0,0,0,0,0,0,0,0,0,0,0,0,0,0,0,0,0,0,0,0,0,0,0,0,0,0,0,0,0,0,0,0,0,0,0,0,0,0,0,0,0,0,0,0,0,0,0,0,0,0,0,0,0,0,0,0,0,0,0,0,0,0,0,0,0,0,0,0,0,0,0,0,0,0,0,0,0,0,0,0,0,0,0,0,0,0,0,0,0,0,0,0,0,0,0,0,0,0,0,0,0,0,0,0,0,0,0,0,0,0,0,0,0,0,0,0,0,0,0,0,0,0,0,0,0,0,0,0,0,0,0,0,0,0,0,0,0,0,0,0,0,0,0,0,0,0,0,0,0,0,0,0,0,0,0,0,0,0,0,0,0,0,0,0,0,0,0,0,0,0,0,0,0,0,0,0,0,0,0,0,0,0,0,0,0,0,0,0,0,0,0,0,0,0,0,0,0,0,0,0,0,0,0,0,0,0,0,0,0,0,0,0,0,0,0,0,0,0,0,0,0,0,0,0,0,0,0,0,0,0,0,0,0,0,0,0,0,0,0,0,0,0,
0,0,0,0,0,0,0,0,0,0,0,0,0,0,0,0,0,0,0,0,0,0,0,0,0,0,0,0,0,0,0,0,0,0,0,0,0,0,0,0,0,0,0,0,0,0,0,0,0,0,0,0,0,0,0,0,0,0,0,0,0,0,0,0,0,0,0,0,0,0,0,0,0,0,0,0,0,0,0,0,0,0,0,0,0,0,0,0,0,0,0,0,0,0,0,0,0,0,0,0,0,0,0,0,0,0,0,0,0,0,0,0,0,0,0,0,0,0,0,0,0,0,0,0,0,0,0,0,0,0,0,0,0,0,0,0,0,0,0,0,0,0,0,0,0,0,0,0,0,0,0,0,0,0,0,0,0,0,0,0,0,0,0,0,0,0,0,0,0,0,0,0,0,0,0,0,0,0,0,0,0,0,0,0,0,0,0,0,0,0,0,0,0,0,0,0,0,0,0,0,0,0,0,0,0,0,0,0,0,0,0,0,0,0,0,0,0,0,0,0,0,0,0,0,0,0,0,0,0,0,0,0,0,0,0,0,0,0,0,0,0,0,0,0,0,0,0,0,0,0,
0,0,0,0,0,0,0,0,0,0,0,0,0,0,0,0,0,0,0,0,0,0,0,0,0,0,0,0,0,0,0,0,0,0,0,0,0,0,0,0,0,0,0,0,0,0,0,0,0,0,0,0,0,0,0,0,0,0,0,0,0,0,0,0,0,0,0,0,0,0,0,0,0,0,0,0,0,0,0,0,0,0,0,0,0,0,0,0,0,0,0,0,0,0,0,0,0,0,0,0,0,0,0,0,0,0,0,0,0,0,0,0,0,0,0,0,0,0,0,0,0,0,0,0,0,0,0,0,0,0,0,0,0,0,0,0,0,0,0,0,0,0,0,0,0,0,0,0,0,0,0,0,0,0,0,0,0,0,0,0,0,0,0,0,0,0,0,0,0,0,0,0,0,0,0,0,0,0,0,0,0,0,0,0,0,0,0,0,0,0,0,0,0,0,0,0,0,0,0,0,0,0,0,0,0,0,0,0,0,0,0,0,0,0,0,0,0,0,0,0,0,0,0,0,0,0,0,0,0,0,0,0,0,0,0,0,0,0,0,0,0,0,0,0,0,0,0,0,0,0,
0,0,0,0,0,0,0,0,0,0,0,0,0,0,0,0,0,0,0,0,0,0,0,0,0,0,0,0,0,0,0,0,0,0,0,0,0,0,0,0,0,0,0,0,0,0,0,0,0,0,0,0,0,0,0,0,0,0,0,0,0,0,0,0,0,0,0,0,0,0,0,0,0,0,0,0,0,0,0,0,0,0,0,0,0,0,0,0,0,0,0,0,0,0,0,0,0,0,0,0,0,0,0,0,0,0,0,0,0,0,0,0,0,0,0,0,0,0,0,0,0,0,0,0,0,0,0,0,0,0,0,0,0,0,0,0,0,0,0,0,0,0,0,0,0,0,0,0,0,0,0,0,0,0,0,0,0,0,0,0,0,0,0,0,0,0,0,0,0,0,0,0,0,0,0,0,0,0,0,0,0,0,0,0,0,0,0,0,0,0,0,0,0,0,0,0,0,0,0,0,0,0,0,0,0,0,0,0,0,0,0,0,0,0,0,0,0,0,0,0,0,0,0,0,0,0,0,0,0,0,0,0,0,0,0,0,0,0,0,0,0,0,0,0,0,0,0,0,0,0,
0,0,0,0,0,0,0,0,0,0,0,0,0,0,0,0,0,0,0,0,0,0,0,0,0,0,0,0,0,0,0,0,0,0,0,0,0,0,0,0,0,0,0,0,0,0,0,0,0,0,0,0,0,0,0,0,0,0,0,0,0,0,0,0,0,0,0,0,0,0,0,0,0,0,0,0,0,0,0,0,0,0,0,0,0,0,0,0,0,0,0,0,0,0,0,0,0,0,0,0,0,0,0,0,0,0,0,0,0,0,0,0,0,0,0,0,0,0,0,0,0,0,0,0,0,0,0,0,0,0,0,0,0,0,0,0,0,0,0,0,0,0,0,0,0,0,0,0,0,0,0,0,0,0,0,0,0,0,0,0,0,0,0,0,0,0,0,0,0,0,0,0,0,0,0,0,0,0,0,0,0,0,0,0,0,0,0,0,0,0,0,0,0,0,0,0,0,0,0,0,0,0,0,0,0,0,0,0,0,0,0,0,0,0,0,0,0,0,0,0,0,0,0,0,0,0,0,0,0,0,0,0,0,0,0,0,0,0,0,0,0,0,0,0,0,0,0,0,0,0,
0,0,0,0,0,0,0,0,0,0,0,0,0,0,0,0,0,0,0,0,0,0,0,0,0,0,0,0,0,0,0,0,0,0,0,0,0,0,0,0,0,0,0,0,0,0,0,0,0,0,0,0,0,0,0,0,0,0,0,0,0,0,0,0,0,0,0,0,0,0,0,0,0,0,0,0,0,0,0,0,0,0,0,0,0,0,0,0,0,0,0,0,0,0,0,0,0,0,0,0,0,0,0,0,0,0,0,0,0,0,0,0,0,0,0,0,0,0,0,0,0,0,0,0,0,0,0,0,0,0,0,0,0,0,0,0,0,0,0,0,0,0,0,0,0,0,0,0,0,0,0,0,0,0,0,0,0,0,0,0,0,0,0,0,0,0,0,0,0,0,0,0,0,0,0,0,0,0,0,0,0,0,0,0,0,0,0,0,0,0,0,0,0,0,0,0,0,0,0,0,0,0,0,0,0,0,0,0,0,0,0,0,0,0,0,0,0,0,0,0,0,0,0,0,0,0,0,0,0,0,0,0,0,0,0,0,0,0,0,0,0,0,0,0,0,0,0,0,0,0,
0,0,0,0,0,0,0,0,0,0,0,0,0,0,0,0,0,0,0,0,0,0,0,0,0,0,0,0,0,0,0,0,0,0,0,0,0,0,0,0,0,0,0,0,0,0,0,0,0,0,0,0,0,0,0,0,0,0,0,0,0,0,0,0,0,0,0,0,0,0,0,0,0,0,0,0,0,0,0,0,0,0,0,0,0,0,0,0,0,0,0,0,0,0,0,0,0,0,0,0,0,0,0,0,0,0,0,0,0,0,0,0,0,0,0,0,0,0,0,0,0,0,0,0,0,0,0,0,0,0,0,0,0,0,0,0,0,0,0,0,0,0,0,0,0,0,0,0,0,0,0,0,0,0,0,0,0,0,0,0,0,0,0,0,0,0,0,0,0,0,0,0,0,0,0,0,0,0,0,0,0,0,0,0,0,0,0,0,0,0,0,0,0,0,0,0,0,0,0,0,0,0,0,0,0,0,0,0,0,0,0,0,0,0,0,0,0,0,0,0,0,0,0,0,0,0,0,0,0,0,0,0,0,0,0,0,0,0,0,0,0,0,0,0,0,0,0,0,0,0,
0,0,0,0,0,0,0,0,0,0,0,0,0,0,0,0,0,0,0,0,0,0,0,0,0,0,0,0,0,0,0,0,0,0,0,0,0,0,0,0,0,0,0,0,0,0,0,0,0,0,0,0,0,0,0,0,0,0,0,0,0,0,0,0,0,0,0,0,0,0,0,0,0,0,0,0,0,0,0,0,0,0,0,0,0,0,0,0,0,0,0,0,0,0,0,0,0,0,0,0,0,0,0,0,0,0,0,0,0,0,0,0,0,0,0,0,0,0,0,0,0,0,0,0,0,0,0,0,0,0,0,0,0,0,0,0,0,0,0,0,0,0,0,0,0,0,0,0,0,0,0,0,0,0,0,0,0,0,0,0,0,0,0,0,0,0,0,0,0,0,0,0,0,0,0,0,0,0,0,0,0,0,0,0,0,0,0,0,0,0,0,0,0,0,0,0,0,0,0,0,0,0,0,0,0,0,0,0,0,0,0,0,0,0,0,0,0,0,0,0,0,0,0,0,0,0,0,0,0,0,0,0,0,0,0,0,0,0,0,0,0,0,0,0,0,0,0,0,0,0,
0,0,0,0,0,0,0,0,0,0,0,0,0,0,0,0,0,0,0,0,0,0,0,0,0,0,0,0,0,0,0,0,0,0,0,0,0,0,0,0,0,0,0,0,0,0,0,0,0,0,0,0,0,0,0,0,0,0,0,0,0,0,0,0,0,0,0,0,0,0,0,0,0,0,0,0,0,0,0,0,0,0,0,0,0,0,0,0,0,0,0,0,0,0,0,0,0,0,0,0,0,0,0,0,0,0,0,0,0,0,0,0,0,0,0,0,0,0,0,0,0,0,0,0,0,0,0,0,0,0,0,0,0,0,0,0,0,0,0,0,0,0,0,0,0,0,0,0,0,0,0,0,0,0,0,0,0,0,0,0,0,0,0,0,0,0,0,0,0,0,0,0,0,0,0,0,0,0,0,0,0,0,0,0,0,0,0,0,0,0,0,0,0,0,0,0,0,0,0,0,0,0,0,0,0,0,0,0,0,0,0,0,0,0,0,0,0,0,0,0,0,0,0,0,0,0,0,0,0,0,0,0,0,0,0,0,0,0,0,0,0,0,0,0,0,0,0,0,0,0,
0,0,0,0,0,0,0,0,0,0,0,0,0,0,0,0,0,0,0,0,0,0,0,0,0,0,0,0,0,0,0,0,0,0,0,0,0,0,0,0,0,0,0,0,0,0,0,0,0,0,0,0,0,0,0,0,0,0,0,0,0,0,0,0,0,0,0,0,0,0,0,0,0,0,0,0,0,0,0,0,0,0,0,0,0,0,0,0,0,0,0,0,0,0,0,0,0,0,0,0,0,0,0,0,0,0,0,0,0,0,0,0,0,0,0,0,0,0,0,0,0,0,0,0,0,0,0,0,0,0,0,0,0,0,0,0,0,0,0,0,0,0,0,0,0,0,0,0,0,0,0,0,0,0,0,0,0,0,0,0,0,0,0,0,0,0,0,0,0,0,0,0,0,0,0,0,0,0,0,0,0,0,0,0,0,0,0,0,0,0,0,0,0,0,0,0,0,0,0,0,0,0,0,0,0,0,0,0,0,0,0,0,0,0,0,0,0,0,0,0,0,0,0,0,0,0,0,0,0,0,0,0,0,0,0,0,0,0,0,0,0,0,0,0,0,0,0,0,0,0,
0,0,0,0,0,0,0,0,0,0,0,0,0,0,0,0,0,0,0,0,0,0,0,0,0,0,0,0,0,0,0,0,0,0,0,0,0,0,0,0,0,0,0,0,0,0,0,0,0,0,0,0,0,0,0,0,0,0,0,0,0,0,0,0,0,0,0,0,0,0,0,0,0,0,0,0,0,0,0,0,0,0,0,0,0,0,0,0,0,0,0,0,0,0,0,0,0,0,0,0,0,0,0,0,0,0,0,0,0,0,0,0,0,0,0,0,0,0,0,0,0,0,0,0,0,0,0,0,0,0,0,0,0,0,0,0,0,0,0,0,0,0,0,0,0,0,0,0,0,0,0,0,0,0,0,0,0,0,0,0,0,0,0,0,0,0,0,0,0,0,0,0,0,0,0,0,0,0,0,0,0,0,0,0,0,0,0,0,0,0,0,0,0,0,0,0,0,0,0,0,0,0,0,0,0,0,0,0,0,0,0,0,0,0,0,0,0,0,0,0,0,0,0,0,0,0,0,0,0,0,0,0,0,0,0,0,0,0,0,0,0,0,0,0,0,0,0,0,0,0,
0,0,0,0,0,0,0,0,0,0,0,0,0,0,0,0,0,0,0,0,0,0,0,0,0,0,0,0,0,0,0,0,0,0,0,0,0,0,0,0,0,0,0,0,0,0,0,0,0,0,0,0,0,0,0,0,0,0,0,0,0,0,0,0,0,0,0,0,0,0,0,0,0,0,0,0,0,0,0,0,0,0,0,0,0,0,0,0,0,0,0,0,0,0,0,0,0,0,0,0,0,0,0,0,0,0,0,0,0,0,0,0,0,0,0,0,0,0,0,0,0,0,0,0,0,0,0,0,0,0,0,0,0,0,0,0,0,0,0,0,0,0,0,0,0,0,0,0,0,0,0,0,0,0,0,0,0,0,0,0,0,0,0,0,0,0,0,0,0,0,0,0,0,0,0,0,0,0,0,0,0,0,0,0,0,0,0,0,0,0,0,0,0,0,0,0,0,0,0,0,0,0,0,0,0,0,0,0,0,0,0,0,0,0,0,0,0,0,0,0,0,0,0,0,0,0,0,0,0,0,0,0,0,0,0,0,0,0,0,0,0,0,0,0,0,0,0,0,0,0,
0,0,0,0,0,0,0,0,0,0,0,0,0,0,0,0,0,0,0,0,0,0,0,0,0,0,0,0,0,0,0,0,0,0,0,0,0,0,0,0,0,0,0,0,0,0,0,0,0,0,0,0,0,0,0,0,0,0,0,0,0,0,0,0,0,0,0,0,0,0,0,0,0,0,0,0,0,0,0,0,0,0,0,0,0,0,0,0,0,0,0,0,0,0,0,0,0,0,0,0,0,0,0,0,0,0,0,0,0,0,0,0,0,0,0,0,0,0,0,0,0,0,0,0,0,0,0,0,0,0,0,0,0,0,0,0,0,0,0,0,0,0,0,0,0,0,0,0,0,0,0,0,0,0,0,0,0,0,0,0,0,0,0,0,0,0,0,0,0,0,0,0,0,0,0,0,0,0,0,0,0,0,0,0,0,0,0,0,0,0,0,0,0,0,0,0,0,0,0,0,0,0,0,0,0,0,0,0,0,0,0,0,0,0,0,0,0,0,0,0,0,0,0,0,0,0,0,0,0,0,0,0,0,0,0,0,0,0,0,0,0,0,0,0,0,0,0,0,0,0,
0,0,0,0,0,0,0,0,0,0,0,0,0,0,0,0,0,0,0,0,0,0,0,0,0,0,0,0,0,0,0,0,0,0,0,0,0,0,0,0,0,0,0,0,0,0,0,0,0,0,0,0,0,0,0,0,0,0,0,0,0,0,0,0,0,0,0,0,0,0,0,0,0,0,0,0,0,0,0,0,0,0,0,0,0,0,0,0,0,0,0,0,0,0,0,0,0,0,0,0,0,0,0,0,0,0,0,0,0,0,0,0,0,0,0,0,0,0,0,0,0,0,0,0,0,0,0,0,0,0,0,0,0,0,0,0,0,0,0,0,0,0,0,0,0,0,0,0,0,0,0,0,0,0,0,0,0,0,0,0,0,0,0,0,0,0,0,0,0,0,0,0,0,0,0,0,0,0,0,0,0,0,0,0,0,0,0,0,0,0,0,0,0,0,0,0,0,0,0,0,0,0,0,0,0,0,0,0,0,0,0,0,0,0,0,0,0,0,0,0,0,0,0,0,0,0,0,0,0,0,0,0,0,0,0,0,0,0,0,0,0,0,0,0,0,0,0,0,0,0,
0,0,0,0,0,0,0,0,0,0,0,0,0,0,0,0,0,0,0,0,0,0,0,0,0,0,0,0,0,0,0,0,0,0,0,0,0,0,0,0,0,0,0,0,0,0,0,0,0,0,0,0,0,0,0,0,0,0,0,0,0,0,0,0,0,0,0,0,0,0,0,0,0,0,0,0,0,0,0,0,0,0,0,0,0,0,0,0,0,0,0,0,0,0,0,0,0,0,0,0,0,0,0,0,0,0,0,0,0,0,0,0,0,0,0,0,0,0,0,0,0,0,0,0,0,0,0,0,0,0,0,0,0,0,0,0,0,0,0,0,0,0,0,0,0,0,0,0,0,0,0,0,0,0,0,0,0,0,0,0,0,0,0,0,0,0,0,0,0,0,0,0,0,0,0,0,0,0,0,0,0,0,0,0,0,0,0,0,0,0,0,0,0,0,0,0,0,0,0,0,0,0,0,0,0,0,0,0,0,0,0,0,0,0,0,0,0,0,0,0,0,0,0,0,0,0,0,0,0,0,0,0,0,0,0,0,0,0,0,0,0,0,0,0,0,0,0,0,0,0,
0,0,0,0,0,0,0,0,0,0,0,0,0,0,0,0,0,0,0,0,0,0,0,0,0,0,0,0,0,0,0,0,0,0,0,0,0,0,0,0,0,0,0,0,0,0,0,0,0,0,0,0,0,0,0,0,0,0,0,0,0,0,0,0,0,0,0,0,0,0,0,0,0,0,0,0,0,0,0,0,0,0,0,0,0,0,0,0,0,0,0,0,0,0,0,0,0,0,0,0,0,0,0,0,0,0,0,0,0,0,0,0,0,0,0,0,0,0,0,0,0,0,0,0,0,0,0,0,0,0,0,0,0,0,0,0,0,0,0,0,0,0,0,0,0,0,0,0,0,0,0,0,0,0,0,0,0,0,0,0,0,0,0,0,0,0,0,0,0,0,0,0,0,0,0,0,0,0,0,0,0,0,0,0,0,0,0,0,0,0,0,0,0,0,0,0,0,0,0,0,0,0,0,0,0,0,0,0,0,0,0,0,0,0,0,0,0,0,0,0,0,0,0,0,0,0,0,0,0,0,0,0,0,0,0,0,0,0,0,0,0,0,0,0,0,0,0,0,0,0,
0,0,0,0,0,0,0,0,0,0,0,0,0,0,0,0,0,0,0,0,0,0,0,0,0,0,0,0,0,0,0,0,0,0,0,0,0,0,0,0,0,0,0,0,0,0,0,0,0,0,0,0,0,0,0,0,0,0,0,0,0,0,0,0,0,0,0,0,0,0,0,0,0,0,0,0,0,0,0,0,0,0,0,0,0,0,0,0,0,0,0,0,0,0,0,0,0,0,0,0,0,0,0,0,0,0,0,0,0,0,0,0,0,0,0,0,0,0,0,0,0,0,0,0,0,0,0,0,0,0,0,0,0,0,0,0,0,0,0,0,0,0,0,0,0,0,0,0,0,0,0,0,0,0,0,0,0,0,0,0,0,0,0,0,0,0,0,0,0,0,0,0,0,0,0,0,0,0,0,0,0,0,0,0,0,0,0,0,0,0,0,0,0,0,0,0,0,0,0,0,0,0,0,0,0,0,0,0,0,0,0,0,0,0,0,0,0,0,0,0,0,6817,6818,6819,0,0,0,0,0,0,0,0,0,0,0,0,0,0,0,0,0,0,0,0,0,0,0,0,0,0,
0,0,0,0,0,0,0,0,0,0,0,0,0,0,0,0,0,0,0,0,0,0,0,0,0,0,0,0,0,0,0,0,0,0,0,0,0,0,0,0,0,0,0,0,0,0,0,0,0,0,0,0,0,0,0,0,0,0,0,0,0,0,0,0,0,0,0,0,0,0,0,0,0,0,0,0,0,0,0,0,0,0,0,0,0,0,0,0,0,0,0,0,0,0,0,0,0,0,0,0,0,0,0,0,0,0,0,0,0,0,0,0,0,0,0,0,0,0,0,0,0,0,0,0,0,0,0,0,0,0,0,0,0,0,0,0,0,0,0,0,0,0,0,0,0,0,0,0,0,0,0,0,0,0,0,0,0,0,0,0,0,0,0,0,0,0,0,0,0,0,0,0,0,0,0,0,0,0,0,0,0,0,0,0,0,0,0,0,0,0,0,0,0,0,0,0,0,0,0,0,0,0,0,0,0,0,0,0,0,0,0,0,0,0,0,0,0,0,0,0,0,6881,6882,6883,0,0,0,0,0,0,0,0,0,0,0,0,0,0,0,0,0,0,0,0,0,0,0,0,0,0,
0,0,0,0,0,0,0,0,0,0,0,0,0,0,0,0,0,0,0,0,0,0,0,0,0,0,0,0,0,0,0,0,0,0,0,0,0,0,0,0,0,0,0,0,0,0,0,0,0,0,0,0,0,0,0,0,0,0,0,0,0,0,0,0,0,0,0,0,0,0,0,0,0,0,0,0,0,0,0,0,0,0,0,0,0,0,0,0,0,0,0,0,0,0,0,0,0,0,0,0,0,0,0,0,0,0,0,0,0,0,0,0,0,0,0,0,0,0,0,0,0,0,0,0,0,0,0,0,0,0,0,0,0,0,0,0,0,0,0,0,0,0,0,0,0,0,0,0,0,0,0,0,0,0,0,0,0,0,0,0,0,0,0,0,0,0,0,0,0,0,0,0,0,0,0,0,0,0,0,0,0,0,0,0,0,0,0,0,0,0,0,0,0,0,0,0,0,0,0,0,0,0,0,0,0,0,0,11385,0,0,0,0,0,0,0,0,0,0,0,0,0,6945,6946,6947,0,0,0,0,0,0,0,0,0,0,0,0,0,11386,0,0,0,0,0,0,0,0,0,0,0,0,
0,0,0,0,0,0,0,0,0,0,0,0,0,0,0,0,0,0,0,0,0,0,0,0,0,0,0,0,0,0,0,0,0,0,0,0,0,0,0,0,0,0,0,0,0,0,0,0,0,0,0,0,0,0,0,0,0,0,0,0,0,0,0,0,0,0,0,0,0,0,0,0,0,0,0,0,0,0,0,0,0,0,0,0,0,0,0,0,0,0,0,0,0,0,0,0,0,0,0,0,0,0,0,0,0,0,0,0,0,0,0,0,0,0,0,0,0,0,0,0,0,0,0,0,0,0,0,0,0,0,0,0,0,0,0,0,0,0,0,0,0,0,0,0,0,0,0,0,0,0,0,0,0,0,0,0,0,0,0,0,0,0,0,0,0,0,0,0,0,0,0,0,0,0,0,0,0,0,0,0,0,0,0,0,0,0,0,0,0,0,0,0,0,0,0,0,0,0,0,0,0,0,0,0,0,0,0,11449,0,0,0,0,0,0,0,0,0,0,0,0,0,7009,7010,7011,0,0,0,0,0,0,0,0,0,0,0,0,0,11450,0,0,0,0,0,0,0,0,0,0,0,0,
0,0,0,0,0,0,0,0,0,0,0,0,0,0,0,0,0,0,0,0,0,0,0,0,0,0,0,0,0,0,0,0,0,0,0,0,0,0,0,0,0,0,0,0,0,0,0,0,0,0,0,0,0,0,0,0,0,0,0,0,0,0,0,0,0,0,0,0,0,0,0,0,0,0,0,0,0,0,0,0,0,0,0,0,0,0,0,0,0,0,0,0,0,0,0,0,0,0,0,0,0,0,0,0,0,0,0,0,0,0,0,0,0,0,0,0,0,0,0,0,0,0,0,0,0,0,0,0,0,0,0,0,0,0,0,0,0,0,0,0,0,0,0,0,0,0,0,0,0,0,0,0,0,0,0,0,0,0,0,0,0,0,0,0,0,0,0,0,0,0,0,0,0,0,0,0,0,0,0,0,0,0,0,0,0,0,0,0,0,0,0,0,0,0,0,0,0,0,0,0,0,0,0,0,0,0,0,11513,0,0,0,0,0,0,0,0,0,0,0,0,0,0,0,0,0,0,0,0,0,0,0,0,0,0,0,0,0,11514,0,0,0,0,0,0,0,0,0,0,0,0,
0,0,0,0,0,0,0,0,0,0,0,0,0,0,0,0,0,0,0,0,0,0,0,0,0,0,0,0,0,0,0,0,0,0,0,0,0,0,0,0,0,0,0,0,0,0,0,0,0,0,0,0,0,0,0,0,0,0,0,0,0,0,0,0,0,0,0,0,0,0,0,0,0,0,0,0,0,0,0,0,0,0,0,0,0,0,0,0,0,0,0,0,0,0,0,0,0,0,0,0,0,0,0,0,0,0,0,0,0,0,0,0,0,0,0,0,0,0,0,0,0,0,0,0,0,0,0,0,0,0,0,0,0,0,0,0,0,0,0,0,0,0,0,0,0,0,0,0,0,0,0,0,0,0,0,0,0,0,0,0,0,0,0,0,0,0,0,0,0,0,0,0,0,0,0,0,0,0,0,0,0,0,0,0,0,0,0,0,0,0,0,0,0,0,0,0,0,0,0,0,0,0,0,0,0,0,0,11577,0,0,0,0,0,0,0,0,0,0,9970,9970,0,0,0,0,0,0,0,0,0,0,0,0,0,0,0,0,0,11578,0,0,0,0,0,0,0,0,0,0,0,0,
0,0,0,0,0,0,0,0,0,0,0,0,0,0,0,0,0,0,0,0,0,0,0,0,0,0,0,0,0,0,0,0,0,0,0,0,0,0,0,0,0,0,0,0,0,0,0,0,0,0,0,0,0,0,0,0,0,0,0,0,0,0,0,0,0,0,0,0,0,0,0,0,0,0,0,0,0,0,0,0,0,0,0,0,0,0,0,0,0,0,0,0,0,0,0,0,0,0,0,0,0,0,0,0,0,0,0,0,0,0,0,0,0,0,0,0,0,0,0,0,0,0,0,0,0,0,0,0,0,0,0,0,0,0,0,0,0,0,0,0,0,0,0,0,0,0,0,0,0,0,0,0,0,0,0,0,0,0,0,0,0,0,0,0,0,0,0,0,0,0,0,0,0,0,0,0,0,0,0,0,0,0,0,0,0,0,0,0,0,0,0,0,0,0,0,0,0,0,0,0,0,0,0,0,0,0,0,0,0,0,0,0,0,0,0,0,0,10096,0,0,0,0,0,0,0,0,0,10100,0,0,0,0,0,0,0,0,0,0,0,0,0,0,0,0,0,0,0,0,0,0,
0,0,0,0,0,0,0,0,0,0,0,0,0,0,0,0,0,0,0,0,0,0,0,0,0,0,0,0,0,0,0,0,0,0,0,0,0,0,0,0,0,0,0,0,0,0,0,0,0,0,0,0,0,0,0,0,0,0,0,0,0,0,0,0,0,0,0,0,0,0,0,0,0,0,0,0,0,0,0,0,0,0,0,0,0,0,0,0,0,0,0,0,0,0,0,0,0,0,0,0,0,0,0,0,0,0,0,0,0,0,0,0,0,0,0,0,0,0,0,0,0,0,0,0,0,0,0,0,0,0,0,0,0,0,0,0,0,0,0,0,0,0,0,0,0,0,0,0,0,0,0,0,0,0,0,0,0,0,0,0,0,0,0,0,0,0,0,0,0,0,0,0,0,0,0,0,0,0,0,0,0,0,0,0,0,0,0,0,0,0,0,0,0,0,0,0,0,0,0,0,0,0,0,0,0,0,0,0,0,0,0,0,0,0,0,10096,0,0,0,0,0,0,0,0,0,0,0,0,0,10100,0,0,0,0,0,0,0,0,0,0,0,0,0,0,0,0,0,0,0,0,
0,0,0,0,0,0,0,0,0,0,0,0,0,0,0,0,0,0,0,0,0,0,0,0,0,0,0,0,0,0,0,0,0,0,0,0,0,0,0,0,0,0,0,0,0,0,0,0,0,0,0,0,0,0,0,0,0,0,0,0,0,0,0,0,0,0,0,0,0,0,0,0,0,0,0,0,0,0,0,0,0,0,0,0,0,0,0,0,0,0,0,0,0,0,0,0,0,0,0,0,0,0,0,0,0,0,0,0,0,0,0,0,0,0,0,0,0,0,0,0,0,0,0,0,0,0,0,0,0,0,0,0,0,0,0,0,0,0,0,0,0,0,0,0,0,0,0,0,0,0,0,0,0,0,0,0,0,0,0,0,0,0,0,0,0,0,0,0,0,0,0,0,0,0,0,0,0,0,0,0,0,0,0,0,0,0,0,0,0,0,0,0,0,0,0,0,0,0,0,0,0,0,0,0,0,0,0,0,0,0,0,0,0,0,10096,0,0,0,0,10100,0,0,0,0,0,10096,0,0,0,0,0,0,0,0,0,0,0,0,0,0,0,0,0,0,0,0,0,0,0,0,
0,0,0,0,0,0,0,0,0,0,0,0,0,0,0,0,0,0,0,0,0,0,0,0,0,0,0,0,0,0,0,0,0,0,0,0,0,0,0,0,0,0,0,0,0,0,0,0,0,0,0,0,0,0,0,0,0,0,0,0,0,0,0,0,0,0,0,0,0,0,0,0,0,0,0,0,0,0,0,0,0,0,0,0,0,0,0,0,0,0,0,0,0,0,0,0,0,0,0,0,0,0,0,0,0,0,0,0,0,0,0,0,0,0,0,0,0,0,0,0,0,0,0,0,0,0,0,0,0,0,0,0,0,0,0,0,0,0,0,0,0,0,0,0,0,0,0,0,0,0,0,0,0,0,0,0,0,0,0,0,0,0,0,0,0,0,0,0,0,0,0,0,0,0,0,0,0,0,0,0,0,0,0,0,0,0,0,0,0,0,0,0,0,0,0,0,0,0,0,0,0,0,0,0,0,0,0,0,0,0,0,0,0,0,10096,0,0,0,0,0,0,0,0,0,0,0,0,0,0,0,0,0,0,0,0,0,0,0,0,0,0,0,0,0,0,0,0,0,0,0,
0,0,0,0,0,0,0,0,0,0,0,0,0,0,0,0,0,0,0,0,0,0,0,0,0,0,0,0,0,0,0,0,0,0,0,0,0,0,0,0,0,0,0,0,0,0,0,0,0,0,0,0,0,0,0,0,0,0,0,0,0,0,0,0,0,0,0,0,0,0,0,0,0,0,0,0,0,0,0,0,0,0,0,0,0,0,0,0,0,0,0,0,0,0,0,0,0,0,0,0,0,0,0,0,0,0,0,0,0,0,0,0,0,0,0,0,0,0,0,0,0,0,0,0,0,0,0,0,0,0,0,0,0,0,0,0,0,0,0,0,0,0,0,0,0,0,0,0,0,0,0,0,0,0,0,0,0,0,0,0,0,0,0,0,0,0,0,0,0,0,0,0,0,0,0,0,0,0,0,0,0,0,0,0,0,0,0,0,0,0,0,0,0,0,0,0,0,0,0,0,0,0,0,0,0,0,0,0,0,0,0,0,0,0,10096,0,0,0,0,0,0,0,0,0,0,0,0,0,0,0,0,0,0,0,0,0,0,0,0,0,0,0,0,0,0,0,0,0,0,0,
0,0,0,0,0,0,0,0,0,0,0,0,0,0,0,0,0,0,0,0,0,0,0,0,0,0,0,0,0,0,0,0,0,0,0,0,0,0,0,0,0,0,0,0,0,0,0,0,0,0,0,0,0,0,0,0,0,0,0,0,0,0,0,0,0,0,0,0,0,0,0,0,0,0,0,0,0,0,0,0,0,0,0,0,0,0,0,0,0,0,0,0,0,0,0,0,0,0,0,0,0,0,0,0,0,0,0,0,0,0,0,0,0,0,0,0,0,0,0,0,0,0,0,0,0,0,0,0,0,0,0,0,0,0,0,0,0,0,0,0,0,0,0,0,0,0,0,0,0,0,0,0,0,0,0,0,0,0,0,0,0,0,0,0,0,0,0,0,0,0,0,0,0,0,0,0,0,0,0,0,0,0,0,0,0,0,0,0,0,0,0,0,0,0,0,0,0,0,0,0,0,0,0,0,0,0,0,0,0,0,0,0,0,0,10096,0,0,0,0,0,0,0,0,0,0,0,0,0,0,0,0,0,0,0,0,0,0,0,0,0,0,0,0,0,0,0,0,0,0,0,
0,0,0,0,0,0,0,0,0,0,0,0,0,0,0,0,0,0,0,0,0,0,0,0,0,0,0,0,0,0,0,0,0,0,0,0,0,0,0,0,0,0,0,0,0,0,0,0,0,0,0,0,0,0,0,0,0,0,0,0,0,0,0,0,0,0,0,0,0,0,0,0,0,0,0,0,0,0,0,0,0,0,0,0,0,0,0,0,0,0,0,0,0,0,0,0,0,0,0,0,0,0,0,0,0,0,0,0,0,0,0,0,0,0,0,0,0,0,0,0,0,0,0,0,0,0,0,0,0,0,0,0,0,0,0,0,0,0,0,0,0,0,0,0,0,0,0,0,0,0,0,0,0,0,0,0,0,0,0,0,0,0,0,0,0,0,0,0,0,0,0,0,0,0,0,0,0,0,0,0,0,0,0,0,0,0,0,0,0,0,0,0,0,0,0,0,0,0,0,0,0,0,0,0,0,0,0,0,0,0,0,0,0,0,10096,0,0,0,0,0,0,0,0,0,0,0,0,0,0,0,0,0,0,0,0,0,0,0,0,0,0,0,0,0,0,0,0,0,0,0,
0,0,0,0,0,0,0,0,0,0,0,0,0,0,0,0,0,0,0,0,0,0,0,0,0,0,0,0,0,0,0,0,0,0,0,0,0,0,0,0,0,0,0,0,0,0,0,0,0,0,0,0,0,0,0,0,0,0,0,0,0,0,0,0,0,0,0,0,0,0,0,0,0,0,0,0,0,0,0,0,0,0,0,0,0,0,0,0,0,0,0,0,0,0,0,0,0,0,0,0,0,0,0,0,0,0,0,0,0,0,0,0,0,0,0,0,0,0,0,0,0,0,0,0,0,0,0,0,0,0,0,0,0,0,0,0,0,0,0,0,0,0,0,0,0,0,0,0,0,0,0,0,0,0,0,0,0,0,0,0,0,0,0,0,0,0,0,0,0,0,0,0,0,0,0,0,0,0,0,0,0,0,0,0,0,0,0,0,0,0,0,0,0,0,0,0,0,0,0,0,0,0,0,0,0,0,0,11388,0,0,0,0,0,0,10096,0,0,0,0,0,0,0,0,0,0,0,0,0,0,0,0,0,0,0,0,0,0,11388,0,0,0,0,0,0,0,0,0,0,0,0,
0,0,0,0,0,0,0,0,0,0,0,0,0,0,0,0,0,0,0,0,0,0,0,0,0,0,0,0,0,0,0,0,0,0,0,0,0,0,0,0,0,0,0,0,0,0,0,0,0,0,0,0,0,0,0,0,0,0,0,0,0,0,0,0,0,0,0,0,0,0,0,0,0,0,0,0,0,0,0,0,0,0,0,0,0,0,0,0,0,0,0,0,0,0,0,0,0,0,0,0,0,0,0,0,0,0,0,0,0,0,0,0,0,0,0,0,0,0,0,0,0,0,0,0,0,0,0,0,0,0,0,0,0,0,0,0,0,0,0,0,0,0,0,0,0,0,0,0,0,0,0,0,0,0,0,0,0,0,0,0,0,0,0,0,0,0,0,0,0,0,0,0,0,0,0,0,0,0,0,0,0,0,0,0,0,0,0,0,0,0,0,0,0,0,0,0,0,0,0,0,0,0,0,0,0,0,0,11452,0,0,0,0,0,0,0,0,0,0,0,0,0,0,0,0,0,0,0,0,0,0,0,0,0,0,0,0,0,11452,0,0,0,0,0,0,0,0,0,0,0,0,
0,0,0,0,0,0,0,0,0,0,0,0,0,0,0,0,0,0,0,0,0,0,0,0,0,0,0,0,0,0,0,0,0,0,0,0,0,0,0,0,0,0,0,0,0,0,0,0,0,0,0,0,0,0,0,0,0,0,0,0,0,0,0,0,0,0,0,0,0,0,0,0,0,0,0,0,0,0,0,0,0,0,0,0,0,0,0,0,0,0,0,0,0,0,0,0,0,0,0,0,0,0,0,0,0,0,0,0,0,0,0,0,0,0,0,0,0,0,0,0,0,0,0,0,0,0,0,0,0,0,0,0,0,0,0,0,0,0,0,0,0,0,0,0,0,0,0,0,0,0,0,0,0,0,0,0,0,0,0,0,0,0,0,0,0,0,0,0,0,0,0,0,0,0,0,0,0,0,0,0,0,0,0,0,0,0,0,0,0,0,0,0,0,0,0,0,0,0,0,0,0,0,0,0,0,0,0,11516,0,0,0,0,0,0,0,0,0,0,0,0,0,0,0,0,0,0,0,0,0,0,0,0,0,0,0,0,0,11516,0,0,0,0,0,0,0,0,0,0,0,0,
0,0,0,0,0,0,0,0,0,0,0,0,0,0,0,0,0,0,0,0,0,0,0,0,0,0,0,0,0,0,0,0,0,0,0,0,0,0,0,0,0,0,0,0,0,0,0,0,0,0,0,0,0,0,0,0,0,0,0,0,0,0,0,0,0,0,0,0,0,0,0,0,0,0,0,0,0,0,0,0,0,0,0,0,0,0,0,0,0,0,0,0,0,0,0,0,0,0,0,0,0,0,0,0,0,0,0,0,0,0,0,0,0,0,0,0,0,0,0,0,0,0,0,0,0,0,0,0,0,0,0,0,0,0,0,0,0,0,0,0,0,0,0,0,0,0,0,0,0,0,0,0,0,0,0,0,0,0,0,0,0,0,0,0,0,0,0,0,0,0,0,0,0,0,0,0,0,0,0,0,0,0,0,0,0,0,0,0,0,0,0,0,0,0,0,0,0,0,0,0,0,0,0,0,0,0,0,11580,0,0,0,0,0,0,0,0,0,0,0,0,0,0,0,0,0,0,0,0,0,0,0,0,0,0,0,0,0,11580,0,0,0,0,0,0,0,0,0,0,0,0,
0,0,0,0,0,0,0,0,0,0,0,0,0,0,0,0,0,0,0,0,0,0,0,0,0,0,0,0,0,0,0,0,0,0,0,0,0,0,0,0,0,0,0,0,0,0,0,0,0,0,0,0,0,0,0,0,0,0,0,0,0,0,0,0,0,0,0,0,0,0,0,0,0,0,0,0,0,0,0,0,0,0,0,0,0,0,0,0,0,0,0,0,0,0,0,0,0,0,0,0,0,0,0,0,0,0,0,0,0,0,0,0,0,0,0,0,0,0,0,0,0,0,0,0,0,0,0,0,0,0,0,0,0,0,0,0,0,0,0,0,0,0,0,0,0,0,0,0,0,0,0,0,0,0,0,0,0,0,0,0,0,0,0,0,0,0,0,0,0,0,0,0,0,0,0,0,0,0,0,0,0,0,0,0,0,0,0,0,0,0,0,0,0,0,0,0,0,0,0,0,0,0,0,0,0,0,0,0,0,0,0,0,0,0,0,0,0,0,0,0,0,0,0,0,0,0,0,0,0,0,0,0,0,0,0,0,0,0,0,0,0,0,0,0,0,0,0,0,0,0,
0,0,0,0,0,0,0,0,0,0,0,0,0,0,0,0,0,0,0,0,0,0,0,0,0,0,0,0,0,0,0,0,0,0,0,0,0,0,0,0,0,0,0,0,0,0,0,0,0,0,0,0,0,0,0,0,0,0,0,0,0,0,0,0,0,0,0,0,0,0,0,0,0,0,0,0,0,0,0,0,0,0,0,0,0,0,0,0,0,0,0,0,0,0,0,0,0,0,0,0,0,0,0,0,0,0,0,0,0,0,0,0,0,0,0,0,0,0,0,0,0,0,0,0,0,0,0,0,0,0,0,0,0,0,0,0,0,0,0,0,0,0,0,0,0,0,0,0,0,0,0,0,0,0,0,0,0,0,0,0,0,0,0,0,0,0,0,0,0,0,0,0,0,0,0,0,0,0,0,0,0,0,0,0,0,0,0,0,0,0,0,0,0,0,0,0,0,0,0,0,0,0,0,0,0,0,0,0,0,0,0,0,0,0,0,0,11388,0,0,0,0,0,0,0,0,0,0,0,0,0,0,0,0,0,0,0,0,0,0,0,0,0,0,0,0,0,0,0,0,0,
0,0,0,0,0,0,0,0,0,0,0,0,0,0,0,0,0,0,0,0,0,0,0,0,0,0,0,0,0,0,0,0,0,0,0,0,0,0,0,0,0,0,0,0,0,0,0,0,0,0,0,0,0,0,0,0,0,0,0,0,0,0,0,0,0,0,0,0,0,0,0,0,0,0,0,0,0,0,0,0,0,0,0,0,0,0,0,0,0,0,0,0,0,0,0,0,0,0,0,0,0,0,0,0,0,0,0,0,0,0,0,0,0,0,0,0,0,0,0,0,0,0,0,0,0,0,0,0,0,0,0,0,0,0,0,0,0,0,0,0,0,0,0,0,0,0,0,0,0,0,0,0,0,0,0,0,0,0,0,0,0,0,0,0,0,0,0,0,0,0,0,0,0,0,0,0,0,0,0,0,0,0,0,0,0,0,0,0,0,0,0,0,0,0,0,0,0,0,0,0,0,0,0,0,0,0,0,0,0,0,0,0,0,0,0,0,11452,0,0,0,0,0,0,0,0,0,0,0,11644,0,0,0,0,0,0,0,0,0,0,0,0,0,0,0,0,0,0,0,0,0,
0,0,0,0,0,0,0,0,0,0,0,0,0,0,0,0,0,0,0,0,0,0,0,0,0,0,0,0,0,0,0,0,0,0,0,0,0,0,0,0,0,0,0,0,0,0,0,0,0,0,0,0,0,0,0,0,0,0,0,0,0,0,0,0,0,0,0,0,0,0,0,0,0,0,0,0,0,0,0,0,0,0,0,0,0,0,0,0,0,0,0,0,0,0,0,0,0,0,0,0,0,0,0,0,0,0,0,0,0,0,0,0,0,0,0,0,0,0,0,0,0,0,0,0,0,0,0,0,0,0,0,0,0,0,0,0,0,0,0,0,0,0,0,0,0,0,0,0,0,0,0,0,0,0,0,0,0,0,0,0,0,0,0,0,0,0,0,0,0,0,0,0,0,0,0,0,0,0,0,0,0,0,0,0,0,0,0,0,0,0,0,0,0,0,0,0,0,0,0,0,0,0,0,0,0,0,0,0,0,0,0,0,0,0,0,0,11516,0,0,0,0,10037,10038,10039,0,0,0,0,11708,0,0,0,0,0,0,0,0,0,0,0,0,0,0,0,0,0,0,0,0,0,
0,0,0,0,0,0,0,0,0,0,0,0,0,0,0,0,0,0,0,0,0,0,0,0,0,0,0,0,0,0,0,0,0,0,0,0,0,0,0,0,0,0,0,0,0,0,0,0,0,0,0,0,0,0,0,0,0,0,0,0,0,0,0,0,0,0,0,0,0,0,0,0,0,0,0,0,0,0,0,0,0,0,0,0,0,0,0,0,0,0,0,0,0,0,0,0,0,0,0,0,0,0,0,0,0,0,0,0,0,0,0,0,0,0,0,0,0,0,0,0,0,0,0,0,0,0,0,0,0,0,0,0,0,0,0,0,0,0,0,0,0,0,0,0,0,0,0,0,0,0,0,0,0,0,0,0,0,0,0,0,0,0,0,0,0,0,0,0,0,0,0,0,0,0,0,0,0,0,0,0,0,0,0,0,0,0,0,0,0,0,0,0,0,0,0,0,0,0,0,0,0,0,0,0,0,0,0,0,0,0,0,0,0,0,0,0,11580,0,0,0,0,10101,10102,10103,0,0,0,0,11772,0,0,0,0,0,0,0,0,0,0,0,0,0,0,0,0,0,0,0,0,0,
0,0,0,0,0,0,0,0,0,0,0,0,0,0,0,0,0,0,0,0,0,0,0,0,0,0,0,0,0,0,0,0,0,0,0,0,0,0,0,0,0,0,0,0,0,0,0,0,0,0,0,0,0,0,0,0,0,0,0,0,0,0,0,0,0,0,0,0,0,0,0,0,0,0,0,0,0,0,0,0,0,0,0,0,0,0,0,0,0,0,0,0,0,0,0,0,0,0,0,0,0,0,0,0,0,0,0,0,0,0,0,0,0,0,0,0,0,0,0,0,0,0,0,0,0,0,0,0,0,0,0,0,0,0,0,0,0,0,0,0,0,0,0,0,0,0,0,0,0,0,0,0,0,0,0,0,0,0,0,0,0,0,0,0,0,0,0,0,0,0,0,0,0,0,0,0,0,0,0,0,0,0,0,0,0,0,0,0,0,0,0,0,0,0,0,0,0,0,0,0,0,0,0,0,0,0,0,0,0,0,0,0,0,0,0,0,0,0,0,0,0,10165,10166,10167,0,0,0,0,0,0,0,0,0,0,0,0,0,0,0,0,0,0,0,0,0,0,0,0,0,0,
0,0,0,0,0,0,0,0,0,0,0,0,0,0,0,0,0,0,0,0,0,0,0,0,0,0,0,0,0,0,0,0,0,0,0,0,0,0,0,0,0,0,0,0,0,0,0,0,0,0,0,0,0,0,0,0,0,0,0,0,0,0,0,0,0,0,0,0,0,0,0,0,0,0,0,0,0,0,0,0,0,0,0,0,0,0,0,0,0,0,0,0,0,0,0,0,0,0,0,0,0,0,0,0,0,0,0,0,0,0,0,0,0,0,0,0,0,0,0,0,0,0,0,0,0,0,0,0,0,0,0,0,0,0,0,0,0,0,0,0,0,0,0,0,0,0,0,0,0,0,0,0,0,0,0,0,0,0,0,0,0,0,0,0,0,0,0,0,0,0,0,0,0,0,0,0,0,0,0,0,0,0,0,0,0,0,0,0,0,0,0,0,0,0,0,0,0,0,0,0,0,0,0,0,0,0,0,0,0,0,0,0,0,0,0,0,0,0,0,0,0,0,0,0,0,0,0,0,0,0,0,0,0,0,0,0,0,0,0,0,0,0,0,0,0,0,0,0,0,0,
0,0,0,0,0,0,0,0,0,0,0,0,0,0,0,0,0,0,0,0,0,0,0,0,0,0,0,0,0,0,0,0,0,0,0,0,0,0,0,0,0,0,0,0,0,0,0,0,0,0,0,0,0,0,0,0,0,0,0,0,0,0,0,0,0,0,0,0,0,0,0,0,0,0,0,0,0,0,0,0,0,0,0,0,0,0,0,0,0,0,0,0,0,0,0,0,0,0,0,0,0,0,0,0,0,0,0,0,0,0,0,0,0,0,0,0,0,0,0,0,0,0,0,0,0,0,0,0,0,0,0,0,0,0,0,0,0,0,0,0,0,0,0,0,0,0,0,0,0,0,0,0,0,0,0,0,0,0,0,0,0,0,0,0,0,0,0,0,0,0,0,0,0,0,0,0,0,0,0,0,0,0,0,0,0,0,0,0,0,0,0,0,0,0,0,0,0,0,0,0,0,0,0,0,0,0,0,0,0,0,0,0,0,0,0,0,0,0,0,0,0,0,0,0,0,0,0,0,0,0,0,0,0,0,0,0,0,0,0,0,0,0,0,0,0,0,0,0,0,0,
0,0,0,0,0,0,0,0,0,0,0,0,0,0,0,0,0,0,0,0,0,0,0,0,0,0,0,0,0,0,0,0,0,0,0,0,0,0,0,0,0,0,0,0,0,0,0,0,0,0,0,0,0,0,0,0,0,0,0,0,0,0,0,0,0,0,0,0,0,0,0,0,0,0,0,0,0,0,0,0,0,0,0,0,0,0,0,0,0,0,0,0,0,0,0,0,0,0,0,0,0,0,0,0,0,0,0,0,0,0,0,0,0,0,0,0,0,0,0,0,0,0,0,0,0,0,0,0,0,0,0,0,0,0,0,0,0,0,0,0,0,0,0,0,0,0,0,0,0,0,0,0,0,0,0,0,0,0,0,0,0,0,0,0,0,0,0,0,0,0,0,0,0,0,0,0,0,0,0,0,0,0,0,0,0,0,0,0,0,0,0,0,0,0,0,0,0,0,0,0,0,0,0,0,0,0,0,0,0,0,0,0,0,0,0,0,0,0,0,0,0,0,0,0,0,0,0,0,0,0,0,0,0,0,0,0,0,0,0,0,0,0,0,0,0,0,0,0,0,0,
0,0,0,0,0,0,0,0,0,0,0,0,0,0,0,0,0,0,0,0,0,0,0,0,0,0,0,0,0,0,0,0,0,0,0,0,0,0,0,0,0,0,0,0,0,0,0,0,0,0,0,0,0,0,0,0,0,0,0,0,0,0,0,0,0,0,0,0,0,0,0,0,0,0,0,0,0,0,0,0,0,0,0,0,0,0,0,0,0,0,0,0,0,0,0,0,0,0,0,0,0,0,0,0,0,0,0,0,0,0,0,0,0,0,0,0,0,0,0,0,0,0,0,0,0,0,0,0,0,0,0,0,0,0,0,0,0,0,0,0,0,0,0,0,0,0,0,0,0,0,0,0,0,0,0,0,0,0,0,0,0,0,0,0,0,0,0,0,0,0,0,0,0,0,0,0,0,0,0,0,0,0,0,0,0,0,0,0,0,0,0,0,0,0,0,0,0,0,0,0,0,0,0,0,0,0,0,0,0,0,0,0,0,0,0,0,0,0,0,0,0,0,0,0,0,0,0,0,0,0,0,0,0,0,0,0,0,0,0,0,0,0,0,0,0,0,0,0,0,0,
0,0,0,0,0,0,0,0,0,0,0,0,0,0,0,0,0,0,0,0,0,0,0,0,0,0,0,0,0,0,0,0,0,0,0,0,0,0,0,0,0,0,0,0,0,0,0,0,0,0,0,0,0,0,0,0,0,0,0,0,0,0,0,0,0,0,0,0,0,0,0,0,0,0,0,0,0,0,0,0,0,0,0,0,0,0,0,0,0,0,0,0,0,0,0,0,0,0,0,0,0,0,0,0,0,0,0,0,0,0,0,0,0,0,0,0,0,0,0,0,0,0,0,0,0,0,0,0,0,0,0,0,0,0,0,0,0,0,0,0,0,0,0,0,0,0,0,0,0,0,0,0,0,0,0,0,0,0,0,0,0,0,0,0,0,0,0,0,0,0,0,0,0,0,0,0,0,0,0,0,0,0,0,0,0,0,0,0,0,0,0,0,0,0,0,0,0,0,0,0,0,0,0,0,0,0,0,0,0,0,0,0,0,0,0,0,0,0,0,0,0,0,0,0,0,0,0,0,0,0,0,0,0,0,0,0,0,0,0,0,0,0,0,0,0,0,0,0,0,0,
0,0,0,0,0,0,0,0,0,0,0,0,0,0,0,0,0,0,0,0,0,0,0,0,0,0,0,0,0,0,0,0,0,0,0,0,0,0,0,0,0,0,0,0,0,0,0,0,0,0,0,0,0,0,0,0,0,0,0,0,0,0,0,0,0,0,0,0,0,0,0,0,0,0,0,0,0,0,0,0,0,0,0,0,0,0,0,0,0,0,0,0,0,0,0,0,0,0,0,0,0,0,0,0,0,0,0,0,0,0,0,0,0,0,0,0,0,0,0,0,0,0,0,0,0,0,0,0,0,0,0,0,0,0,0,0,0,0,0,0,0,0,0,0,0,0,0,0,0,0,0,0,0,0,0,0,0,0,0,0,0,0,0,0,0,0,0,0,0,0,0,0,0,0,0,0,0,0,0,0,0,0,0,0,0,0,0,0,0,0,0,0,0,0,0,0,0,0,0,0,0,0,0,0,0,0,0,0,0,0,0,0,0,0,0,0,0,0,0,0,0,0,0,0,0,0,0,0,0,0,0,0,0,0,0,0,0,0,0,0,0,0,0,0,0,0,0,0,0,0,
0,0,0,0,0,0,0,0,0,0,0,0,0,0,0,0,0,0,0,0,0,0,0,0,0,0,0,0,0,0,0,0,0,0,0,0,0,0,0,0,0,0,0,0,0,0,0,0,0,0,0,0,0,0,0,0,0,0,0,0,0,0,0,0,0,0,0,0,0,0,0,0,0,0,0,0,0,0,0,0,0,0,0,0,0,0,0,0,0,0,0,0,0,0,0,0,0,0,0,0,0,0,0,0,0,0,0,0,0,0,0,0,0,0,0,0,0,0,0,0,0,0,0,0,0,0,0,0,0,0,0,0,0,0,0,0,0,0,0,0,0,0,0,0,0,0,0,0,0,0,0,0,0,0,0,0,0,0,0,0,0,0,0,0,0,0,0,0,0,0,0,0,0,0,0,0,0,0,0,0,0,0,0,0,0,0,0,0,0,0,0,0,0,0,0,0,0,0,0,0,0,0,0,0,0,0,0,0,0,0,0,0,0,0,0,0,0,0,0,0,0,0,0,0,0,0,0,0,0,0,0,0,0,0,0,0,0,0,0,0,0,0,0,0,0,0,0,0,0,0,
0,0,0,0,0,0,0,0,0,0,0,0,0,0,0,0,0,0,0,0,0,0,0,0,0,0,0,0,0,0,0,0,0,0,0,0,0,0,0,0,0,0,0,0,0,0,0,0,0,0,0,0,0,0,0,0,0,0,0,0,0,0,0,0,0,0,0,0,0,0,0,0,0,0,0,0,0,0,0,0,0,0,0,0,0,0,0,0,0,0,0,0,0,0,0,0,0,0,0,0,0,0,0,0,0,0,0,0,0,0,0,0,0,0,0,0,0,0,0,0,0,0,0,0,0,0,0,0,0,0,0,0,0,0,0,0,0,0,0,0,0,0,0,0,0,0,0,0,0,0,0,0,0,0,0,0,0,0,0,0,0,0,0,0,0,0,0,0,0,0,0,0,0,0,0,0,0,0,0,0,0,0,0,0,0,0,0,0,0,0,0,0,0,0,0,0,0,0,0,0,0,0,0,0,0,0,0,0,0,0,0,0,0,0,0,0,0,0,0,0,0,0,0,0,0,0,0,0,0,0,0,0,0,0,0,0,0,0,0,0,0,0,0,0,0,0,0,0,0,0,
0,0,0,0,0,0,0,0,0,0,0,0,0,0,0,0,0,0,0,0,0,0,0,0,0,0,0,0,0,0,0,0,0,0,0,0,0,0,0,0,0,0,0,0,0,0,0,0,0,0,0,0,0,0,0,0,0,0,0,0,0,0,0,0,0,0,0,0,0,0,0,0,0,0,0,0,0,0,0,0,0,0,0,0,0,0,0,0,0,0,0,0,0,0,0,0,0,0,0,0,0,0,0,0,0,0,0,0,0,0,0,0,0,0,0,0,0,0,0,0,0,0,0,0,0,0,0,0,0,0,0,0,0,0,0,0,0,0,0,0,0,0,0,0,0,0,0,0,0,0,0,0,0,0,0,0,0,0,0,0,0,0,0,0,0,0,0,0,0,0,0,0,0,0,0,0,0,0,0,0,0,0,0,0,0,0,0,0,0,0,0,0,0,0,0,0,0,0,0,0,0,0,0,0,0,0,0,0,0,0,0,0,0,0,0,0,0,0,0,0,0,0,0,0,0,0,0,0,0,0,0,0,0,0,0,0,0,0,0,0,0,0,0,0,0,0,0,0,0,0,
0,0,0,0,0,0,0,0,0,0,0,0,0,0,0,0,0,0,0,0,0,0,0,0,0,0,0,0,0,0,0,0,0,0,0,0,0,0,0,0,0,0,0,0,0,0,0,0,0,0,0,0,0,0,0,0,0,0,0,0,0,0,0,0,0,0,0,0,0,0,0,0,0,0,0,0,0,0,0,0,0,0,0,0,0,0,0,0,0,0,0,0,0,0,0,0,0,0,0,0,0,0,0,0,0,0,0,0,0,0,0,0,0,0,0,0,0,0,0,0,0,0,0,0,0,0,0,0,0,0,0,0,0,0,0,0,0,0,0,0,0,0,0,0,0,0,0,0,0,0,0,0,0,0,0,0,0,0,0,0,0,0,0,0,0,0,0,0,0,0,0,0,0,0,0,0,0,0,0,0,0,0,0,0,0,0,0,0,0,0,0,0,0,0,0,0,0,0,0,0,0,0,0,0,0,0,0,0,0,0,0,0,0,0,0,0,0,0,0,0,0,0,0,0,0,0,0,0,0,0,0,0,0,0,0,0,0,0,0,0,0,0,0,0,0,0,0,0,0,0,
0,0,0,0,0,0,0,0,0,0,0,0,0,0,0,0,0,0,0,0,0,0,0,0,0,0,0,0,0,0,0,0,0,0,0,0,0,0,0,0,0,0,0,0,0,0,0,0,0,0,0,0,0,0,0,0,0,0,0,0,0,0,0,0,0,0,0,0,0,0,0,0,0,0,0,0,0,0,0,0,0,0,0,0,0,0,0,0,0,0,0,0,0,0,0,0,0,0,0,0,0,0,0,0,0,0,0,0,0,0,0,0,0,0,0,0,0,0,0,0,0,0,0,0,0,0,0,0,0,0,0,0,0,0,0,0,0,0,0,0,0,0,0,0,0,0,0,0,0,0,0,0,0,0,0,0,0,0,0,0,0,0,0,0,0,0,0,0,0,0,0,0,0,0,0,0,0,0,0,0,0,0,0,0,0,0,0,0,0,0,0,0,0,0,0,0,0,0,0,0,0,0,0,0,0,0,0,0,0,0,0,0,0,0,0,0,0,0,0,0,0,0,0,0,0,0,0,0,0,0,0,0,0,0,0,0,0,0,0,0,0,0,0,0,0,0,0,0,0,0,
0,0,0,0,0,0,0,0,0,0,0,0,0,0,0,0,0,0,0,0,0,0,0,0,0,0,0,0,0,0,0,0,0,0,0,0,0,0,0,0,0,0,0,0,0,0,0,0,0,0,0,0,0,0,0,0,0,0,0,0,0,0,0,0,0,0,0,0,0,0,0,0,0,0,0,0,0,0,0,0,0,0,0,0,0,0,0,0,0,0,0,0,0,0,0,0,0,0,0,0,0,0,0,0,0,0,0,0,0,0,0,0,0,0,0,0,0,0,0,0,0,0,0,0,0,0,0,0,0,0,0,0,0,0,0,0,0,0,0,0,0,0,0,0,0,0,0,0,0,0,0,0,0,0,0,0,0,0,0,0,0,0,0,0,0,0,0,0,0,0,0,0,0,0,0,0,0,0,0,0,0,0,0,0,0,0,0,0,0,0,0,0,0,0,0,0,0,0,0,0,0,0,0,0,0,0,0,0,0,0,0,0,0,0,0,0,0,0,0,0,0,0,0,0,0,0,0,0,0,0,0,0,0,0,0,0,0,0,0,0,0,0,0,0,0,0,0,0,0,0,
0,0,0,0,0,0,0,0,0,0,0,0,0,0,0,0,0,0,0,0,0,0,0,0,0,0,0,0,0,0,0,0,0,0,0,0,0,0,0,0,0,0,0,0,0,0,0,0,0,0,0,0,0,0,0,0,0,0,0,0,0,0,0,0,0,0,0,0,0,0,0,0,0,0,0,0,0,0,0,0,0,0,0,0,0,0,0,0,0,0,0,0,0,0,0,0,0,0,0,0,0,0,0,0,0,0,0,0,0,0,0,0,0,0,0,0,0,0,0,0,0,0,0,0,0,0,0,0,0,0,0,0,0,0,0,0,0,0,0,0,0,0,0,0,0,0,0,0,0,0,0,0,0,0,0,0,0,0,0,0,0,0,0,0,0,0,0,0,0,0,0,0,0,0,0,0,0,0,0,0,0,0,0,0,0,0,0,0,0,0,0,0,0,0,0,0,0,0,0,0,0,0,0,0,0,0,0,0,0,0,0,0,0,0,0,0,0,0,0,0,0,0,0,0,0,0,0,0,0,0,0,0,0,0,0,0,0,0,0,0,0,0,0,0,0,0,0,0,0,0,
0,0,0,0,0,0,0,0,0,0,0,0,0,0,0,0,0,0,0,0,0,0,0,0,0,0,0,0,0,0,0,0,0,0,0,0,0,0,0,0,0,0,0,0,0,0,0,0,0,0,0,0,0,0,0,0,0,0,0,0,0,0,0,0,0,0,0,0,0,0,0,0,0,0,0,0,0,0,0,0,0,0,0,0,0,0,0,0,0,0,0,0,0,0,0,0,0,0,0,0,0,0,0,0,0,0,0,0,0,0,0,0,0,0,0,0,0,0,0,0,0,0,0,0,0,0,0,0,0,0,0,0,0,0,0,0,0,0,0,0,0,0,0,0,0,0,0,0,0,0,0,0,0,0,0,0,0,0,0,0,0,0,0,0,0,0,0,0,0,0,0,0,0,0,0,0,0,0,0,0,0,0,0,0,0,0,0,0,0,0,0,0,0,0,0,0,0,0,0,0,0,0,0,0,0,0,0,0,0,0,0,0,0,0,0,0,0,9970,9970,9970,0,9970,9970,9970,9970,0,9970,9970,0,0,0,0,0,0,0,0,0,0,0,0,0,0,0,0,0,0,0,0,0,0,
0,0,0,0,0,0,0,0,0,0,0,0,0,0,0,0,0,0,0,0,0,0,0,0,0,0,0,0,0,0,0,0,0,0,0,0,0,0,0,0,0,0,0,0,0,0,0,0,0,0,0,0,0,0,0,0,0,0,0,0,0,0,0,0,0,0,0,0,0,0,0,0,0,0,0,0,0,0,0,0,0,0,0,0,0,0,0,0,0,0,0,0,0,0,0,0,0,0,0,0,0,0,0,0,0,0,0,0,0,0,0,0,0,0,0,0,0,0,0,0,0,0,0,0,0,0,0,0,0,0,0,0,0,0,0,0,0,0,0,0,0,0,0,0,0,0,0,0,0,0,0,0,0,0,0,0,0,0,0,0,0,0,0,0,0,0,0,0,0,0,0,0,0,0,0,0,0,0,0,0,0,0,0,0,0,0,0,0,0,0,0,0,0,0,0,0,0,0,0,0,0,0,0,0,0,0,0,0,0,0,0,0,0,0,0,0,10096,2684364912,10288,10289,10289,10288,10289,10288,10289,0,2684364912,2684364848,10100,0,0,0,0,0,0,0,0,0,0,0,0,0,0,0,0,0,0,0,0,0,
0,0,0,0,0,0,0,0,0,0,0,0,0,0,0,0,0,0,0,0,0,0,0,0,0,0,0,0,0,0,0,0,0,0,0,0,0,0,0,0,0,0,0,0,0,0,0,0,0,0,0,0,0,0,0,0,0,0,0,0,0,0,0,0,0,0,0,0,0,0,0,0,0,0,0,0,0,0,0,0,0,0,0,0,0,0,0,0,0,0,0,0,0,0,0,0,0,0,0,0,0,0,0,0,0,0,0,0,0,0,0,0,0,0,0,0,0,0,0,0,0,0,0,0,0,0,0,0,0,0,0,0,0,0,0,0,0,0,0,0,0,0,0,0,0,0,0,0,0,0,0,0,0,0,0,0,0,0,0,0,0,0,0,0,0,0,0,0,0,0,0,0,0,0,0,0,0,0,0,0,0,0,0,0,0,0,0,0,0,0,0,0,0,0,0,0,0,0,0,0,0,0,0,0,0,0,0,0,0,0,0,0,0,0,0,0,10096,2684364913,0,10353,10353,10352,10353,10352,10353,10353,2684364913,0,0,0,0,0,0,0,0,0,0,0,0,0,0,0,0,0,0,0,0,0,0,0,
0,0,0,0,0,0,0,0,0,0,0,0,0,0,0,0,0,0,0,0,0,0,0,0,0,0,0,0,0,0,0,0,0,0,0,0,0,0,0,0,0,0,0,0,0,0,0,0,0,0,0,0,0,0,0,0,0,0,0,0,0,0,0,0,0,0,0,0,0,0,0,0,0,0,0,0,0,0,0,0,0,0,0,0,0,0,0,0,0,0,0,0,0,0,0,0,0,0,0,0,0,0,0,0,0,0,0,0,0,0,0,0,0,0,0,0,0,0,0,0,0,0,0,0,0,0,0,0,0,0,0,0,0,0,0,0,0,0,0,0,0,0,0,0,0,0,0,0,0,0,0,0,0,0,0,0,0,0,0,0,0,0,0,0,0,0,0,0,0,0,0,0,0,0,0,0,0,0,0,0,0,0,0,0,0,0,0,0,0,0,0,0,0,0,0,0,0,0,0,0,0,0,0,0,0,0,0,0,0,0,0,0,0,0,0,0,0,2684364914,2684364850,10163,10161,0,0,0,0,10161,2684364914,2684364850,0,0,0,0,0,0,0,0,0,0,0,0,0,0,0,0,0,0,0,0,0,0,
0,0,0,0,0,0,0,0,0,0,0,0,0,0,0,0,0,0,0,0,0,0,0,0,0,0,0,0,0,0,0,0,0,0,0,0,0,0,0,0,0,0,0,0,0,0,0,0,0,0,0,0,0,0,0,0,0,0,0,0,0,0,0,0,0,0,0,0,0,0,0,0,0,0,0,0,0,0,0,0,0,0,0,0,0,0,0,0,0,0,0,0,0,0,0,0,0,0,0,0,0,0,0,0,0,0,0,0,0,0,0,0,0,0,0,0,0,0,0,0,0,0,0,0,0,0,0,0,0,0,0,0,0,0,0,0,0,0,0,0,0,0,0,0,0,0,0,0,0,0,0,0,0,0,0,0,0,0,0,0,0,0,0,0,0,0,0,0,0,0,0,0,0,0,0,0,0,0,0,0,0,0,0,0,0,0,0,0,0,0,0,0,0,0,0,0,0,0,0,0,0,0,0,0,0,0,0,0,0,0,0,0,0,0,0,0,10096,2684364915,2684364851,0,0,0,2684364911,0,0,10096,2684364915,2684364851,10100,0,0,0,0,0,0,0,0,0,0,0,0,0,0,0,0,0,0,0,0,0,
0,0,0,0,0,0,0,0,0,0,0,0,0,0,0,0,0,0,0,0,0,0,0,0,0,0,0,0,0,0,0,0,0,0,0,0,0,0,0,0,0,0,0,0,0,0,0,0,0,0,0,0,0,0,0,0,0,0,0,0,0,0,0,0,0,0,0,0,0,0,0,0,0,0,0,0,0,0,0,0,0,0,0,0,0,0,0,0,0,0,0,0,0,0,0,0,0,0,0,0,0,0,0,0,0,0,0,0,0,0,0,0,0,0,0,0,0,0,0,0,0,0,0,0,0,0,0,0,0,0,0,0,0,0,0,0,0,0,0,0,0,0,0,0,0,0,0,0,0,0,0,0,0,0,0,0,0,0,0,0,0,0,0,0,0,0,0,0,0,0,0,0,0,0,0,9891,9892,0,0,0,0,0,0,0,0,0,0,0,0,0,0,0,0,0,0,0,0,0,0,0,0,0,0,0,0,0,0,0,0,0,0,0,0,0,0,0,0,10226,10226,0,0,10096,2684364912,10100,0,0,10226,10226,0,0,0,0,0,0,0,0,0,0,0,0,0,0,0,0,0,0,0,0,0,0,
0,0,0,0,0,0,0,0,0,0,0,0,0,0,0,0,0,0,0,0,0,0,0,0,0,0,0,0,0,0,0,0,0,0,0,0,0,0,0,0,0,0,0,0,0,0,0,0,0,0,0,0,0,0,0,0,0,0,0,0,0,0,0,0,0,0,0,0,0,0,0,0,0,0,0,0,0,0,0,0,0,0,0,0,0,0,0,0,0,0,0,0,0,0,0,0,0,0,0,0,0,0,0,0,0,0,0,0,0,0,0,0,0,0,0,0,0,0,0,0,0,0,0,0,0,0,0,0,0,0,0,0,0,0,0,0,0,0,0,0,0,0,0,0,0,0,0,0,0,0,0,0,0,0,0,0,0,0,0,0,0,0,0,0,0,0,0,0,0,0,0,0,0,0,0,0,0,0,0,0,0,0,0,0,0,0,0,0,0,0,0,0,0,0,0,0,0,0,0,0,0,0,0,0,0,0,0,0,0,0,0,0,0,0,0,0,0,0,0,0,0,0,0,0,0,0,0,0,0,0,0,0,0,0,0,0,0,0,0,0,0,0,0,0,0,0,0,0,0,0,
0,0,0,0,0,0,0,0,0,0,0,0,0,0,0,0,0,0,0,0,0,0,0,0,0,0,0,0,0,0,0,0,0,0,0,0,0,0,0,0,0,0,0,0,0,0,0,0,0,0,0,0,0,0,0,0,0,0,0,0,0,0,0,0,0,0,0,0,0,0,0,0,0,0,0,0,0,0,0,0,0,0,0,0,0,0,0,0,0,0,0,0,0,0,0,0,0,0,0,0,0,0,0,0,0,0,0,0,0,0,0,0,0,0,0,0,0,0,0,0,0,0,0,0,0,0,0,0,0,0,0,0,0,0,0,0,0,0,0,0,0,0,0,0,0,0,0,0,0,0,0,0,0,0,0,0,0,0,0,0,0,0,0,0,0,0,0,0,0,0,0,0,0,0,9970,9970,9970,9970,0,0,0,0,0,0,0,0,0,0,0,0,0,0,0,0,0,0,0,0,0,0,0,0,0,0,0,0,0,0,0,0,0,0,0,0,0,0,0,0,0,0,0,10096,2684364914,0,0,0,0,0,0,0,0,0,0,0,0,0,0,0,0,0,0,0,0,0,0,0,0,0,0,0,
0,0,0,0,0,0,0,0,0,0,0,0,0,0,0,0,0,0,0,0,0,0,0,0,0,0,0,0,0,0,0,0,0,0,0,0,0,0,0,0,0,0,0,0,0,0,0,0,0,0,0,0,0,0,0,0,0,0,0,0,0,0,0,0,0,0,0,0,0,0,0,0,0,0,0,0,0,0,0,0,0,0,0,0,0,0,0,0,0,0,0,0,0,0,0,0,0,0,0,0,0,0,0,0,0,0,0,0,0,0,0,0,0,0,0,0,0,0,0,0,0,0,0,0,0,0,0,0,0,0,0,0,0,0,0,0,0,0,0,0,0,0,0,0,0,0,0,0,0,0,0,0,0,0,0,0,0,0,0,0,0,0,0,0,0,0,0,0,0,0,0,0,0,10096,10288,10289,10290,10291,10100,0,0,0,0,0,0,0,0,0,0,0,0,0,0,0,0,0,0,0,0,0,0,0,0,0,0,0,0,0,0,0,0,0,0,0,0,0,0,0,0,0,0,10096,2684364915,10100,0,0,0,0,0,0,0,0,0,0,0,0,0,0,0,0,0,0,0,0,0,0,0,0,0,0,
0,0,0,0,0,0,0,0,0,0,0,0,0,0,0,0,0,0,0,0,0,0,0,0,0,0,0,0,0,0,0,0,0,0,0,0,0,0,0,0,0,0,0,0,0,0,0,0,0,0,0,0,0,0,0,0,0,0,0,0,0,0,0,0,0,0,0,0,0,0,0,0,0,0,0,0,0,0,0,0,0,0,0,0,0,0,0,0,0,0,0,0,0,0,0,0,0,0,0,0,0,0,0,0,0,0,0,0,0,0,0,0,0,0,0,0,0,0,0,0,0,0,0,0,0,0,0,0,0,0,0,0,0,0,0,0,0,0,0,0,0,0,0,0,0,0,0,0,0,0,0,0,0,0,0,0,0,0,0,0,0,0,0,0,0,0,0,0,0,9440,0,0,0,0,10288,10289,0,10291,10100,0,0,0,0,0,0,0,0,0,0,0,0,0,0,0,0,0,0,0,0,0,0,0,0,0,0,0,0,0,0,0,0,0,0,0,0,0,0,0,0,0,0,10096,2684364914,10100,0,0,0,0,0,0,0,0,0,0,0,0,0,0,0,0,0,0,0,0,0,0,0,0,0,0,
0,0,0,0,0,0,0,0,0,0,0,0,0,0,0,0,0,0,0,0,0,0,0,0,0,0,0,0,0,0,0,0,0,0,0,0,0,0,0,0,0,0,0,0,0,0,0,0,0,0,0,0,0,0,0,0,0,0,0,0,0,0,0,0,0,0,0,0,0,0,0,0,0,0,0,0,0,0,0,0,0,0,0,0,0,0,0,0,0,0,0,0,0,0,0,0,0,0,0,0,0,0,0,0,0,0,0,0,0,0,0,0,0,0,0,0,0,0,0,0,0,0,0,0,0,0,0,0,0,0,0,0,0,0,0,0,0,0,0,0,0,0,0,0,0,0,0,0,0,0,0,0,0,0,0,0,0,0,0,0,0,0,0,0,0,0,0,0,0,9504,0,0,0,0,10288,10289,10290,10291,10100,0,0,0,0,0,0,0,0,0,0,0,0,0,0,0,0,0,0,0,0,0,0,0,0,0,0,0,0,0,0,0,0,0,0,0,0,0,0,0,0,0,0,0,2684364915,10100,0,0,0,0,0,0,0,0,0,0,0,0,0,0,0,0,0,0,0,0,0,0,0,0,0,0,
0,0,0,0,0,0,0,0,0,0,0,0,0,0,0,0,0,0,0,0,0,0,0,0,0,0,0,0,0,0,0,0,0,0,0,0,0,0,0,0,0,0,0,0,0,0,0,0,0,0,0,0,0,0,0,0,0,0,0,0,0,0,0,0,0,0,0,0,0,0,0,0,0,0,0,0,0,0,0,0,0,0,0,0,0,0,0,0,0,0,0,0,0,0,0,0,0,0,0,0,0,0,0,0,0,0,0,0,0,0,0,0,0,0,0,0,0,0,0,0,0,0,0,0,0,0,0,0,0,0,0,0,0,0,0,0,0,0,0,0,0,0,0,0,0,0,0,0,0,0,0,0,0,0,0,0,0,0,0,0,0,0,0,0,0,0,0,0,0,9568,0,0,0,0,10288,10289,10290,10291,0,0,0,0,0,0,0,0,0,0,0,0,0,0,0,0,0,0,0,0,0,0,0,0,0,0,0,0,0,0,0,0,0,0,0,0,0,0,0,0,0,0,0,0,2684364911,0,0,0,0,0,0,0,0,0,0,0,0,0,0,0,0,0,0,0,0,0,0,0,0,0,0,0,
0,0,0,0,0,0,0,0,0,0,0,0,0,0,0,0,0,0,0,0,0,0,0,0,0,0,0,0,0,0,0,0,0,0,0,0,0,0,0,0,0,0,0,0,0,0,0,0,0,0,0,0,0,0,0,0,0,0,0,0,0,0,0,0,0,0,0,0,0,0,0,0,0,0,0,0,0,0,0,0,0,0,0,0,0,0,0,0,0,0,0,0,0,0,0,0,0,0,0,0,0,0,0,0,0,0,0,0,0,0,0,0,0,0,0,0,0,0,0,0,0,0,0,0,0,0,0,0,0,0,0,0,0,0,0,0,0,0,0,0,0,0,0,0,0,0,0,0,0,0,0,0,0,0,0,0,0,0,0,0,0,0,0,0,0,0,0,0,0,0,0,0,0,10096,10288,10289,10290,10291,10100,0,0,0,0,0,0,0,0,0,0,0,0,0,0,0,0,0,0,0,0,0,0,0,0,0,0,0,0,0,0,0,0,0,0,0,0,0,0,0,0,0,0,10096,2684364912,10100,0,0,0,0,0,0,0,0,0,0,0,0,0,0,0,0,0,0,0,0,0,0,0,0,0,0,
0,0,0,0,0,0,0,0,0,0,0,0,0,0,0,0,0,0,0,0,0,0,0,0,0,0,0,0,0,0,0,0,0,0,0,0,0,0,0,0,0,0,0,0,0,0,0,0,0,0,0,0,0,0,0,0,0,0,0,0,0,0,0,0,0,0,0,0,0,0,0,0,0,0,0,0,0,0,0,0,0,0,0,0,0,0,0,0,0,0,0,0,0,0,0,0,0,0,0,0,0,0,0,0,0,0,0,0,0,0,0,0,0,0,0,0,0,0,0,0,0,0,0,0,0,0,0,0,0,0,0,0,0,0,0,0,0,0,0,0,0,0,0,0,0,0,0,0,0,0,0,0,0,0,0,0,0,0,0,0,0,0,0,0,0,0,0,0,0,0,0,0,0,10096,10288,10289,10290,10291,10100,0,0,0,0,0,0,0,0,0,0,0,0,0,0,0,0,9970,9970,0,0,0,0,0,0,0,0,0,0,0,0,0,0,0,0,0,0,0,0,0,0,0,0,10096,2684364913,10100,0,0,0,0,0,0,0,0,0,0,0,0,0,0,0,0,0,0,0,0,0,0,0,0,0,0,
0,0,0,0,0,0,0,0,0,0,0,0,0,0,0,0,0,0,0,0,0,0,0,0,0,0,0,0,0,0,0,0,0,0,0,0,0,0,0,0,0,0,0,0,0,0,0,0,0,0,0,0,0,0,0,0,0,0,0,0,0,0,0,0,0,0,0,0,0,0,0,0,0,0,0,0,0,0,0,0,0,0,0,0,0,0,0,0,0,0,0,0,0,0,0,0,0,0,0,0,0,0,0,0,0,0,0,0,0,0,0,0,0,0,0,0,0,0,0,0,0,0,0,0,0,0,0,0,0,0,0,0,0,0,0,0,0,0,0,0,0,0,0,0,0,0,0,0,0,0,0,0,0,0,0,0,0,0,0,0,0,0,0,0,0,0,0,0,0,0,0,0,0,10096,10288,0,10290,10291,10100,0,0,0,0,9970,9970,9970,9970,9970,0,9970,9970,0,0,0,0,0,10290,10100,0,0,0,0,0,0,0,0,9970,9970,0,9970,9970,0,0,0,0,0,0,0,0,0,0,10096,2684364914,0,0,0,0,0,0,0,0,0,0,0,0,0,0,0,0,0,0,0,0,0,0,0,0,0,0,0,
0,0,0,0,0,0,0,0,0,0,0,0,0,0,0,0,0,0,0,0,0,0,0,0,0,0,0,0,0,0,0,0,0,0,0,0,0,0,0,0,0,0,0,0,0,0,0,0,0,0,0,0,0,0,0,0,0,0,0,0,0,0,0,0,0,0,0,0,0,0,0,0,0,0,0,0,0,0,0,0,0,0,0,0,0,0,0,0,0,0,0,0,0,0,0,0,0,0,0,0,0,0,0,0,0,0,0,0,0,0,0,0,0,0,0,0,0,0,0,0,0,0,0,0,0,0,0,0,0,0,0,0,0,0,0,0,0,0,0,0,0,0,0,0,0,0,0,0,0,0,0,0,0,0,0,0,0,0,0,0,0,0,0,0,0,0,0,0,0,0,0,0,0,10096,10288,10289,10290,10291,10100,0,0,0,10096,10352,10353,10354,10355,10352,10353,10354,10355,10100,0,10096,0,0,0,0,0,0,0,0,0,0,0,10096,10352,10352,10353,10354,10355,0,0,0,0,0,0,0,0,0,0,10096,2684364915,10100,0,0,0,0,0,0,0,0,0,0,0,0,0,0,0,0,0,0,0,0,0,0,0,0,0,0,
0,0,0,0,0,0,0,0,0,0,0,0,0,0,0,0,0,0,0,0,0,0,0,0,0,0,0,0,0,0,0,0,0,0,0,0,0,0,0,0,0,0,0,0,0,0,0,0,0,0,0,0,0,0,0,0,0,0,0,0,0,0,0,0,0,0,0,0,0,0,0,0,0,0,0,0,0,0,0,0,0,0,0,0,0,0,0,0,0,0,0,0,0,0,0,0,0,0,0,0,0,0,0,0,0,0,0,0,0,0,0,0,0,0,0,0,0,0,0,0,0,0,0,0,0,0,0,0,0,0,0,0,0,0,0,0,0,0,0,0,0,0,0,0,0,0,0,0,0,0,0,0,0,0,0,0,0,0,0,0,0,0,0,0,0,0,0,0,0,0,0,0,0,10096,10288,10289,10290,10291,10100,0,0,0,0,10226,10226,0,10226,10226,10226,10226,10226,0,0,0,0,0,10354,10100,0,0,0,0,0,0,0,0,10226,0,10226,10226,10226,0,0,0,0,0,0,0,0,0,0,10096,2684364912,10100,0,0,0,0,0,0,0,0,0,0,0,0,0,0,0,0,0,0,0,0,0,0,0,0,0,0,
0,0,0,0,0,0,0,0,0,0,0,0,0,0,0,0,0,0,0,0,0,0,0,0,0,0,0,0,0,0,0,0,0,0,0,0,0,0,0,0,0,0,0,0,0,0,0,0,0,0,0,0,0,0,0,0,0,0,0,0,0,0,0,0,0,0,0,0,0,0,0,0,0,0,0,0,0,0,0,0,0,0,0,0,0,0,0,0,0,0,0,0,0,0,0,0,0,0,0,0,0,0,0,0,0,0,0,0,0,0,0,0,0,0,0,0,0,0,0,0,0,0,0,0,0,0,0,0,0,0,0,0,0,0,0,0,0,0,0,0,0,0,0,0,0,0,0,0,0,0,0,0,0,0,0,0,0,0,0,0,0,0,0,0,0,0,0,0,0,0,0,0,0,0,10288,10289,0,10291,10100,0,0,0,0,0,0,0,0,0,0,0,0,0,0,0,0,10226,10226,0,0,0,0,0,0,0,0,0,0,0,0,0,0,0,0,0,0,0,0,0,0,0,0,10096,2684364913,10100,0,0,0,0,0,0,0,0,0,0,0,0,0,0,0,0,0,0,0,0,0,0,0,0,0,0,
0,0,0,0,0,0,0,0,0,0,0,0,0,0,0,0,0,0,0,0,0,0,0,0,0,0,0,0,0,0,0,0,0,0,0,0,0,0,0,0,0,0,0,0,0,0,0,0,0,0,0,0,0,0,0,0,0,0,0,0,0,0,0,0,0,0,0,0,0,0,0,0,0,0,0,0,0,0,0,0,0,0,0,0,0,0,0,0,0,0,0,0,0,0,0,0,0,0,0,0,0,0,0,0,0,0,0,0,0,0,0,0,0,0,0,0,0,0,0,0,0,0,0,0,0,0,0,0,0,0,0,0,0,0,0,0,0,0,0,0,0,0,0,0,0,0,0,0,0,0,0,0,0,0,0,0,0,0,0,0,0,0,0,0,0,0,0,0,0,0,0,0,0,0,10288,10289,10290,10291,10100,0,0,0,0,0,0,0,0,0,0,0,0,0,0,0,0,9970,0,0,0,0,0,0,0,0,0,0,0,0,0,0,0,0,0,0,0,0,0,0,0,0,0,0,2684364914,10100,0,0,0,0,0,0,0,0,0,0,0,0,0,0,0,0,0,0,0,0,0,0,0,0,0,0,
0,0,0,0,0,0,0,0,0,0,0,0,0,0,0,0,0,0,0,0,0,0,0,0,0,0,0,0,0,0,0,0,0,0,0,0,0,0,0,0,0,0,0,0,0,0,0,0,0,0,0,0,0,0,0,0,0,0,0,0,0,0,0,0,0,0,0,0,0,0,0,0,0,0,0,0,0,0,0,0,0,0,0,0,0,0,0,0,0,0,0,0,0,0,0,0,0,0,0,0,0,0,0,0,0,0,0,0,0,0,0,0,0,0,0,0,0,0,0,0,0,0,0,0,0,0,0,0,0,0,0,0,0,0,0,0,0,0,0,0,0,0,0,0,0,0,0,0,0,0,0,0,0,0,0,0,0,0,0,0,0,0,0,0,0,0,0,0,0,9440,0,0,0,0,10288,0,10290,10291,10100,0,0,0,0,0,0,0,0,0,0,0,0,0,0,0,10096,10288,10289,10100,0,0,0,0,0,0,0,0,0,0,0,0,0,0,0,0,0,0,0,0,0,0,0,10096,2684364915,10100,0,0,0,0,0,0,0,0,0,0,0,0,0,0,0,0,0,0,0,0,0,0,0,0,0,0,
0,0,0,0,0,0,0,0,0,0,0,0,0,0,0,0,0,0,0,0,0,0,0,0,0,0,0,0,0,0,0,0,0,0,0,0,0,0,0,0,0,0,0,0,0,0,0,0,0,0,0,0,0,0,0,0,0,0,0,0,0,0,0,0,0,0,0,0,0,0,0,0,0,0,0,0,0,0,0,0,0,0,0,0,0,0,0,0,0,0,0,0,0,0,0,0,0,0,0,0,0,0,0,0,0,0,0,0,0,0,0,0,0,0,0,0,0,0,0,0,0,0,0,0,0,0,0,0,0,0,0,0,0,0,0,0,0,0,0,0,0,0,0,0,0,0,0,0,0,0,0,0,0,0,0,0,0,0,0,0,0,0,0,0,0,0,0,0,0,9504,0,0,0,10096,10288,10289,10290,10291,10100,0,0,0,0,0,0,0,0,0,0,0,0,0,0,0,10096,10352,10353,10100,0,0,0,0,0,0,0,0,0,0,0,0,0,0,0,0,0,0,0,0,0,0,0,0,0,0,0,0,0,0,0,0,0,0,0,0,0,0,0,0,0,0,0,0,0,0,0,0,0,0,0,0,
0,0,0,0,0,0,0,0,0,0,0,0,0,0,0,0,0,0,0,0,0,0,0,0,0,0,0,0,0,0,0,0,0,0,0,0,0,0,0,0,0,0,0,0,0,0,0,0,0,0,0,0,0,0,0,0,0,0,0,0,0,0,0,0,0,0,0,0,0,0,0,0,0,0,0,0,0,0,0,0,0,0,0,0,0,0,0,0,0,0,0,0,0,0,0,0,0,0,0,0,0,0,0,0,0,0,0,0,0,0,0,0,0,0,0,0,0,0,0,0,0,0,0,0,0,0,0,0,0,0,0,0,0,0,0,0,0,0,0,0,0,0,0,0,0,0,0,0,0,0,0,0,0,0,0,0,0,0,0,0,0,0,0,0,0,0,0,0,0,9568,0,0,0,10096,10352,10353,10354,10355,10100,0,0,0,0,0,0,0,0,0,0,0,0,0,0,0,10096,10288,10289,10100,0,0,0,0,0,0,0,0,0,0,0,0,0,0,0,0,0,0,0,0,0,0,0,0,0,0,0,0,0,0,0,0,0,0,0,0,0,0,0,0,0,0,0,0,0,0,0,0,0,0,0,0,
0,0,0,0,0,0,0,0,0,0,0,0,0,0,0,0,0,0,0,0,0,0,0,0,0,0,0,0,0,0,0,0,0,0,0,0,0,0,0,0,0,0,0,0,0,0,0,0,0,0,0,0,0,0,0,0,0,0,0,0,0,0,0,0,0,0,0,0,0,0,0,0,0,0,0,0,0,0,0,0,0,0,0,0,0,0,0,0,0,0,0,0,0,0,0,0,0,0,0,0,0,0,0,0,0,0,0,0,0,0,0,0,0,0,0,0,0,0,0,0,0,0,0,0,0,0,0,0,0,0,0,0,0,0,0,0,0,0,0,0,0,0,0,0,0,0,0,0,0,0,0,0,0,0,0,0,0,0,0,0,0,0,0,0,0,0,0,0,0,0,0,0,0,0,10226,10226,10226,10226,0,0,0,0,0,0,0,0,0,0,0,0,0,0,0,0,0,10288,10289,10100,0,0,0,0,0,0,0,0,0,0,0,0,0,0,0,0,0,0,0,0,0,0,0,0,0,0,0,0,0,0,0,0,0,0,0,0,0,0,0,0,0,0,0,0,0,0,0,0,0,0,0,0,
0,0,0,0,0,0,0,0,0,0,0,0,0,0,0,0,0,0,0,0,0,0,0,0,0,0,0,0,0,0,0,0,0,0,0,0,0,0,0,0,0,0,0,0,0,0,0,0,0,0,0,0,0,0,0,0,0,0,0,0,0,0,0,0,0,0,0,0,0,0,0,0,0,0,0,0,0,0,0,0,0,0,0,0,0,0,0,0,0,0,0,0,0,0,0,0,0,0,0,0,0,0,0,0,0,0,0,0,0,0,0,0,0,0,0,0,0,0,0,0,0,0,0,0,0,0,0,0,0,0,0,0,0,0,0,0,0,0,0,0,0,0,0,0,0,0,0,0,0,0,0,0,0,0,0,0,0,0,0,0,0,0,0,0,0,0,0,0,0,0,0,0,0,0,0,0,0,0,0,0,0,0,0,0,0,0,0,0,0,0,0,0,0,0,10096,10288,10289,10100,0,0,0,0,0,0,0,0,0,0,0,0,0,0,0,0,0,0,9970,9970,0,0,0,0,0,0,0,0,0,9970,9970,0,0,0,0,0,0,0,0,0,0,0,0,0,0,0,0,0,0,0,0,0,
0,0,0,0,0,0,0,0,0,0,0,0,0,0,0,0,0,0,0,0,0,0,0,0,0,0,0,0,0,0,0,0,0,0,0,0,0,0,0,0,0,0,0,0,0,0,0,0,0,0,0,0,0,0,0,0,0,0,0,0,0,0,0,0,0,0,0,0,0,0,0,0,0,0,0,0,0,0,0,0,0,0,0,0,0,0,0,0,0,0,0,0,0,0,0,0,0,0,0,0,0,0,0,0,0,0,0,0,0,0,0,0,0,0,0,0,0,0,0,0,0,0,0,0,0,0,0,0,0,0,0,0,0,0,0,0,0,0,0,0,0,0,0,0,0,0,0,0,0,0,0,0,0,0,0,0,0,0,0,0,0,0,0,0,0,0,0,0,0,0,0,0,0,0,0,0,0,0,0,0,0,0,0,0,0,0,0,0,0,0,0,0,0,0,10096,10352,10353,10100,0,0,0,0,0,0,0,0,0,0,0,0,0,0,0,0,0,0,10352,10353,10100,0,0,10163,0,10161,0,0,0,10352,10353,10100,0,0,0,0,0,0,0,0,0,0,0,0,0,0,0,0,0,0,0,0,
0,0,0,0,0,0,0,0,0,0,0,0,0,0,0,0,0,0,0,0,0,0,0,0,0,0,0,0,0,0,0,0,0,0,0,0,0,0,0,0,0,0,0,0,0,0,0,0,0,0,0,0,0,0,0,0,0,0,0,0,0,0,0,0,0,0,0,0,0,0,0,0,0,0,0,0,0,0,0,0,0,0,0,0,0,0,0,0,0,0,0,0,0,0,0,0,0,0,0,0,0,0,0,0,0,0,0,0,0,0,0,0,0,0,0,0,0,0,0,0,0,0,0,0,0,0,0,0,0,0,0,0,0,0,0,0,0,0,0,0,0,0,0,0,0,0,0,0,0,0,0,0,0,0,0,0,0,0,0,0,0,0,0,0,0,0,0,0,0,0,0,0,0,0,0,0,0,0,0,0,0,0,0,0,0,0,0,0,0,0,0,0,0,0,0,10226,10226,0,0,0,0,0,0,0,0,0,0,0,0,0,0,0,0,0,0,10096,10352,0,0,0,0,0,0,0,0,0,10096,10352,10353,0,0,0,0,0,0,0,0,0,0,0,0,0,0,0,0,0,0,0,0,0,
0,0,0,0,0,0,0,0,0,0,0,0,0,0,0,0,0,0,0,0,0,0,0,0,0,0,0,0,0,0,0,0,0,0,0,0,0,0,0,0,0,0,0,0,0,0,0,0,0,0,0,0,0,0,0,0,0,0,0,0,0,0,0,0,0,0,0,0,0,0,0,0,0,0,0,0,0,0,0,0,0,0,0,0,0,0,0,0,0,0,0,0,0,0,0,0,0,0,0,0,0,0,0,0,0,0,0,0,0,0,0,0,0,0,0,0,0,0,0,0,0,0,0,0,0,0,0,0,0,0,0,0,0,0,0,0,0,0,0,0,0,0,0,0,0,0,0,0,0,0,0,0,0,0,0,0,0,0,0,0,0,0,0,0,0,0,0,0,0,0,0,0,0,0,0,0,0,0,0,0,0,0,0,0,0,0,0,0,0,0,0,0,0,0,0,0,0,0,0,0,0,0,0,0,0,0,0,0,0,0,0,0,0,0,0,10096,10352,10353,10100,0,0,10035,0,10033,0,0,10096,10352,10353,10100,0,0,0,0,0,0,0,0,0,0,0,0,0,0,0,0,0,0,0,0,
0,0,0,0,0,0,0,0,0,0,0,0,0,0,0,0,0,0,0,0,0,0,0,0,0,0,0,0,0,0,0,0,0,0,0,0,0,0,0,0,0,0,0,0,0,0,0,0,0,0,0,0,0,0,0,0,0,0,0,0,0,0,0,0,0,0,0,0,0,0,0,0,0,0,0,0,0,0,0,0,0,0,0,0,0,0,0,0,0,0,0,0,0,0,0,0,0,0,0,0,0,0,0,0,0,0,0,0,0,0,0,0,0,0,0,0,0,0,0,0,0,0,0,0,0,0,0,0,0,0,0,0,0,0,0,0,0,0,0,0,0,0,0,0,0,0,0,0,0,0,0,0,0,0,0,0,0,0,0,0,0,0,0,0,0,0,0,0,0,0,0,0,0,0,0,0,0,0,0,0,0,0,0,0,0,0,0,0,0,0,0,0,0,0,0,0,9970,0,0,0,0,0,0,0,0,0,0,0,0,0,0,0,0,0,0,0,0,10226,0,0,0,0,0,0,0,0,0,0,10226,0,0,0,0,0,0,0,0,0,0,0,0,0,0,0,0,0,0,0,0,0,
0,0,0,0,0,0,0,0,0,0,0,0,0,0,0,0,0,0,0,0,0,0,0,0,0,0,0,0,0,0,0,0,0,0,0,0,0,0,0,0,0,0,0,0,0,0,0,0,0,0,0,0,0,0,0,0,0,0,0,0,0,0,0,0,0,0,0,0,0,0,0,0,0,0,0,0,0,0,0,0,0,0,0,0,0,0,0,0,0,0,0,0,0,0,0,0,0,0,0,0,0,0,0,0,0,0,0,0,0,0,0,0,0,0,0,0,0,0,0,0,0,0,0,0,0,0,0,0,0,0,0,0,0,0,0,0,0,0,0,0,0,0,0,0,0,0,0,0,0,0,0,0,0,0,0,0,0,0,0,0,0,0,0,0,0,0,0,0,0,0,0,0,0,0,0,0,0,0,0,0,0,0,0,0,0,0,0,0,0,0,0,0,0,0,10096,0,0,10100,0,0,0,0,0,0,0,0,0,0,0,0,0,0,0,0,0,0,0,0,0,0,0,0,0,0,0,0,0,0,0,0,0,0,0,0,0,0,0,0,0,0,0,0,0,0,0,0,0,0,0,0,
0,0,0,0,0,0,0,0,0,0,0,0,0,0,0,0,0,0,0,0,0,0,0,0,0,0,0,0,0,0,0,0,0,0,0,0,0,0,0,0,0,0,0,0,0,0,0,0,0,0,0,0,0,0,0,0,0,0,0,0,0,0,0,0,0,0,0,0,0,0,0,0,0,0,0,0,0,0,0,0,0,0,0,0,0,0,0,0,0,0,0,0,0,0,0,0,0,0,0,0,0,0,0,0,0,0,0,0,0,0,0,0,0,0,0,0,0,0,0,0,0,0,0,0,0,0,0,0,0,0,0,0,0,0,0,0,0,0,0,0,0,0,0,0,0,0,0,0,0,0,0,0,0,0,0,0,0,0,0,0,0,0,0,0,0,0,0,0,0,0,0,0,0,0,0,0,0,0,0,0,0,0,0,0,0,0,0,0,0,0,0,0,0,0,10096,0,0,0,0,0,0,0,0,0,0,0,0,0,0,0,0,0,0,0,0,0,0,0,0,0,0,0,0,0,0,0,0,0,0,0,0,0,0,0,0,0,0,0,0,0,0,0,0,0,0,0,0,0,0,0,
0,0,0,0,0,0,0,0,0,0,0,0,0,0,0,0,0,0,0,0,0,0,0,0,0,0,0,0,0,0,0,0,0,0,0,0,0,0,0,0,0,0,0,0,0,0,0,0,0,0,0,0,0,0,0,0,0,0,0,0,0,0,0,0,0,0,0,0,0,0,0,0,0,0,0,0,0,0,0,0,0,0,0,0,0,0,0,0,0,0,0,0,0,0,0,0,0,0,0,0,0,0,0,0,0,0,0,0,0,0,0,0,0,0,0,0,0,0,0,0,0,0,0,0,0,0,0,0,0,0,0,0,0,0,0,0,0,0,0,0,0,0,0,0,0,0,0,0,0,0,0,0,0,0,0,0,0,0,0,0,0,0,0,0,0,0,0,0,0,0,0,0,0,0,0,0,0,0,0,0,0,0,0,0,0,0,0,0,0,0,0,0,0,0,0,0,0,10100,0,0,0,0,0,0,0,0,0,0,0,0,0,0,0,0,0,0,0,0,0,0,0,0,0,0,0,0,0,0,0,0,0,0,0,0,0,0,0,0,0,0,0,0,0,0,0,0,0,0,0,0,
0,0,0,0,0,0,0,0,0,0,0,0,0,0,0,0,0,0,0,0,0,0,0,0,0,0,0,0,0,0,0,0,0,0,0,0,0,0,0,0,0,0,0,0,0,0,0,0,0,0,0,0,0,0,0,0,0,0,0,0,0,0,0,0,0,0,0,0,0,0,0,0,0,0,0,0,0,0,0,0,0,0,0,0,0,0,0,0,0,0,0,0,0,0,0,0,0,0,0,0,0,0,0,0,0,0,0,0,0,0,0,0,0,0,0,0,0,0,0,0,0,0,0,0,0,0,0,0,0,0,0,0,0,0,0,0,0,0,0,0,0,0,0,0,0,0,0,0,0,0,0,0,0,0,0,0,0,0,0,0,0,0,0,0,0,0,0,0,0,0,0,0,0,0,0,0,0,0,0,0,0,0,0,0,0,0,0,0,0,0,0,0,0,0,10096,0,0,10100,0,0,0,0,0,0,0,0,0,0,0,0,0,0,0,0,0,9969,9970,9970,0,0,0,0,0,0,0,0,0,0,0,0,0,0,0,0,0,0,0,0,0,0,0,0,0,0,0,0,0,0,0,0,
0,0,0,0,0,0,0,0,0,0,0,0,0,0,0,0,0,0,0,0,0,0,0,0,0,0,0,0,0,0,0,0,0,0,0,0,0,0,0,0,0,0,0,0,0,0,0,0,0,0,0,0,0,0,0,0,0,0,0,0,0,0,0,0,0,0,0,0,0,0,0,0,0,0,0,0,0,0,0,0,0,0,0,0,0,0,0,0,0,0,0,0,0,0,0,0,0,0,0,0,0,0,0,0,0,0,0,0,0,0,0,0,0,0,0,0,0,0,0,0,0,0,0,0,0,0,0,0,0,0,0,0,0,0,0,0,0,0,0,0,0,0,0,0,0,0,0,0,0,0,0,0,0,0,0,0,0,0,0,0,0,0,0,0,0,0,0,0,0,0,0,0,0,0,0,0,0,0,0,0,0,0,0,0,0,0,0,0,0,0,0,0,0,0,0,10226,10226,0,0,0,0,0,0,0,0,0,0,0,0,0,0,0,0,0,0,0,0,0,0,0,0,0,0,0,0,0,0,0,0,0,0,0,0,0,0,0,0,0,0,0,0,0,0,0,0,0,0,0,0,0,
0,0,0,0,0,0,0,0,0,0,0,0,0,0,0,0,0,0,0,0,0,0,0,0,0,0,0,0,0,0,0,0,0,0,0,0,0,0,0,0,0,0,0,0,0,0,0,0,0,0,0,0,0,0,0,0,0,0,0,0,0,0,0,0,0,0,0,0,0,0,0,0,0,0,0,0,0,0,0,0,0,0,0,0,0,0,0,0,0,0,0,0,0,0,0,0,0,0,0,0,0,0,0,0,0,0,0,0,0,0,0,0,0,0,0,0,0,0,0,0,0,0,0,0,0,0,0,0,0,0,0,0,0,0,0,0,0,0,0,0,0,0,0,0,0,0,0,0,0,0,0,0,0,0,0,0,0,0,0,0,0,0,0,0,0,0,0,0,0,0,0,0,0,0,0,0,0,0,0,0,0,0,0,0,0,0,0,0,0,0,0,0,0,0,0,0,0,0,0,0,0,0,0,0,0,0,0,0,0,0,0,0,0,0,0,10096,0,0,10100,0,0,0,0,0,0,0,0,0,0,0,0,0,0,0,0,0,0,0,0,0,0,0,0,0,0,0,0,0,0,0,
0,0,0,0,0,0,0,0,0,0,0,0,0,0,0,0,0,0,0,0,0,0,0,0,0,0,0,0,0,0,0,0,0,0,0,0,0,0,0,0,0,0,0,0,0,0,0,0,0,0,0,0,0,0,0,0,0,0,0,0,0,0,0,0,0,0,0,0,0,0,0,0,0,0,0,0,0,0,0,0,0,0,0,0,0,0,0,0,0,0,0,0,0,0,0,0,0,0,0,0,0,0,0,0,0,0,0,0,0,0,0,0,0,0,0,0,0,0,0,0,0,0,0,0,0,0,0,0,0,0,0,0,0,0,0,0,0,0,0,0,0,0,0,0,0,0,0,0,0,0,0,0,0,0,0,0,0,0,0,0,0,0,0,0,0,0,0,0,0,0,0,0,0,0,0,0,0,0,0,0,0,0,0,0,0,0,0,0,0,0,0,0,0,0,0,0,0,0,0,0,0,0,0,0,0,0,0,0,0,0,0,0,0,0,0,10096,0,0,10100,0,0,0,0,0,0,0,0,0,0,0,0,0,0,0,0,0,0,0,0,0,0,0,0,0,0,0,0,0,0,0,
0,0,0,0,0,0,0,0,0,0,0,0,0,0,0,0,0,0,0,0,0,0,0,0,0,0,0,0,0,0,0,0,0,0,0,0,0,0,0,0,0,0,0,0,0,0,0,0,0,0,0,0,0,0,0,0,0,0,0,0,0,0,0,0,0,0,0,0,0,0,0,0,0,0,0,0,0,0,0,0,0,0,0,0,0,0,0,0,0,0,0,0,0,0,0,0,0,0,0,0,0,0,0,0,0,0,0,0,0,0,0,0,0,0,0,0,0,0,0,0,0,0,0,0,0,0,0,0,0,0,0,0,0,0,0,0,0,0,0,0,0,0,0,0,0,0,0,0,0,0,0,0,0,0,0,0,0,0,0,0,0,0,0,0,0,0,0,0,0,0,0,0,0,0,0,0,0,0,0,0,0,0,0,0,0,0,0,0,0,0,0,0,0,0,0,0,0,0,0,0,0,0,0,0,0,0,0,0,0,0,0,0,0,0,0,10096,0,0,10100,0,0,0,0,0,0,0,0,0,0,0,0,0,0,0,0,0,0,0,0,0,0,0,0,0,0,0,0,0,0,0,
0,0,0,0,0,0,0,0,0,0,0,0,0,0,0,0,0,0,0,0,0,0,0,0,0,0,0,0,0,0,0,0,0,0,0,0,0,0,0,0,0,0,0,0,0,0,0,0,0,0,0,0,0,0,0,0,0,0,0,0,0,0,0,0,0,0,0,0,0,0,0,0,0,0,0,0,0,0,0,0,0,0,0,0,0,0,0,0,0,0,0,0,0,0,0,0,0,0,0,0,0,0,0,0,0,0,0,0,0,0,0,0,0,0,0,0,0,0,0,0,0,0,0,0,0,0,0,0,0,0,0,0,0,0,0,0,0,0,0,0,0,0,0,0,0,0,0,0,0,0,0,0,0,0,0,0,0,0,0,0,0,0,0,0,0,0,0,0,0,0,0,0,0,0,0,0,0,0,0,0,0,0,0,0,0,0,0,0,0,0,0,0,0,0,0,0,0,0,0,0,0,0,0,0,0,0,0,0,0,0,0,0,0,0,0,0,0,10226,0,0,0,0,0,0,0,0,0,0,0,0,0,0,0,0,0,0,0,0,0,0,0,0,0,0,0,0,0,0,0,0,
0,0,0,0,0,0,0,0,0,0,0,0,0,0,0,0,0,0,0,0,0,0,0,0,0,0,0,0,0,0,0,0,0,0,0,0,0,0,0,0,0,0,0,0,0,0,0,0,0,0,0,0,0,0,0,0,0,0,0,0,0,0,0,0,0,0,0,0,0,0,0,0,0,0,0,0,0,0,0,0,0,0,0,0,0,0,0,0,0,0,0,0,0,0,0,0,0,0,0,0,0,0,0,0,0,0,0,0,0,0,0,0,0,0,0,0,0,0,0,0,0,0,0,0,0,0,0,0,0,0,0,0,0,0,0,0,0,0,0,0,0,0,0,0,0,0,0,0,0,0,0,0,0,0,0,0,0,0,0,0,0,0,0,0,0,0,0,0,0,0,0,0,0,0,0,0,0,0,0,0,0,0,0,0,0,0,0,0,0,0,0,0,0,0,0,0,0,0,0,0,0,0,0,0,0,0,0,0,0,0,0,0,0,0,0,0,0,0,0,0,0,0,0,0,0,0,0,0,0,0,0,0,0,0,0,0,0,0,0,0,0,0,0,0,0,0,0,0,0,0,
0,0,0,0,0,0,0,0,0,0,0,0,0,0,0,0,0,0,0,0,0,0,0,0,0,0,0,0,0,0,0,0,0,0,0,0,0,0,0,0,0,0,0,0,0,0,0,0,0,0,0,0,0,0,0,0,0,0,0,0,0,0,0,0,0,0,0,0,0,0,0,0,0,0,0,0,0,0,0,0,0,0,0,0,0,0,0,0,0,0,0,0,0,0,0,0,0,0,0,0,0,0,0,0,0,0,0,0,0,0,0,0,0,0,0,0,0,0,0,0,0,0,0,0,0,0,0,0,0,0,0,0,0,0,0,0,0,0,0,0,0,0,0,0,0,0,0,0,0,0,0,0,0,0,0,0,0,0,0,0,0,0,0,0,0,0,0,0,0,0,0,0,0,0,0,0,0,0,0,0,0,0,0,0,0,0,0,0,0,0,0,0,0,0,0,0,0,0,0,0,0,0,0,0,0,0,0,0,0,0,0,0,0,0,0,0,9970,0,0,0,0,0,0,0,0,0,0,0,0,0,0,0,0,0,0,0,0,0,0,0,0,0,0,0,0,0,0,0,0,0,
0,0,0,0,0,0,0,0,0,0,0,0,0,0,0,0,0,0,0,0,0,0,0,0,0,0,0,0,0,0,0,0,0,0,0,0,0,0,0,0,0,0,0,0,0,0,0,0,0,0,0,0,0,0,0,0,0,0,0,0,0,0,0,0,0,0,0,0,0,0,0,0,0,0,0,0,0,0,0,0,0,0,0,0,0,0,0,0,0,0,0,0,0,0,0,0,0,0,0,0,0,0,0,0,0,0,0,0,0,0,0,0,0,0,0,0,0,0,0,0,0,0,0,0,0,0,0,0,0,0,0,0,0,0,0,0,0,0,0,0,0,0,0,0,0,0,0,0,0,0,0,0,0,0,0,0,0,0,0,0,0,0,0,0,0,0,0,0,0,0,0,0,0,0,0,0,0,0,0,0,0,0,0,0,0,0,0,0,0,0,0,0,0,0,0,0,0,0,0,0,0,0,0,0,0,0,0,0,0,0,0,0,0,0,0,10096,0,0,10100,0,0,0,0,0,0,0,0,0,0,0,0,0,0,0,0,0,0,0,0,0,0,0,0,0,0,0,0,0,0,0,
0,0,0,0,0,0,0,0,0,0,0,0,0,0,0,0,0,0,0,0,0,0,0,0,0,0,0,0,0,0,0,0,0,0,0,0,0,0,0,0,0,0,0,0,0,0,0,0,0,0,0,0,0,0,0,0,0,0,0,0,0,0,0,0,0,0,0,0,0,0,0,0,0,0,0,0,0,0,0,0,0,0,0,0,0,0,0,0,0,0,0,0,0,0,0,0,0,0,0,0,0,0,0,0,0,0,0,0,0,0,0,0,0,0,0,0,0,0,0,0,0,0,0,0,0,0,0,0,0,0,0,0,0,0,0,0,0,0,0,0,0,0,0,0,0,0,0,0,0,0,0,0,0,0,0,0,0,0,0,0,0,0,0,0,0,0,0,0,0,0,0,0,0,0,0,0,0,0,0,0,0,0,0,0,0,0,0,0,0,0,0,0,0,0,0,0,0,0,0,0,0,0,0,0,0,0,0,0,0,0,0,0,0,0,0,0,0,0,10100,0,0,0,0,0,0,0,0,0,0,0,0,0,0,0,0,0,0,0,0,0,0,0,0,0,0,0,0,0,0,0,
0,0,0,0,0,0,0,0,0,0,0,0,0,0,0,0,0,0,0,0,0,0,0,0,0,0,0,0,0,0,0,0,0,0,0,0,0,0,0,0,0,0,0,0,0,0,0,0,0,0,0,0,0,0,0,0,0,0,0,0,0,0,0,0,0,0,0,0,0,0,0,0,0,0,0,0,0,0,0,0,0,0,0,0,0,0,0,0,0,0,0,0,0,0,0,0,0,0,0,0,0,0,0,0,0,0,0,0,0,0,0,0,0,0,0,0,0,0,0,0,0,0,0,0,0,0,0,0,0,0,0,0,0,0,0,0,0,0,0,0,0,0,0,0,0,0,0,0,0,0,0,0,0,0,0,0,0,0,0,0,0,0,0,0,0,0,0,0,0,0,0,0,0,0,0,0,0,0,0,0,0,0,0,0,0,0,0,0,0,0,0,0,0,0,0,0,0,0,0,0,0,0,0,0,0,0,0,0,0,0,0,0,0,0,0,10096,0,0,10100,0,0,0,0,0,0,0,0,0,0,0,0,0,0,0,0,0,0,0,0,0,0,0,0,0,0,0,0,0,0,0,
0,0,0,0,0,0,0,0,0,0,0,0,0,0,0,0,0,0,0,0,0,0,0,0,0,0,0,0,0,0,0,0,0,0,0,0,0,0,0,0,0,0,0,0,0,0,0,0,0,0,0,0,0,0,0,0,0,0,0,0,0,0,0,0,0,0,0,0,0,0,0,0,0,0,0,0,0,0,0,0,0,0,0,0,0,0,0,0,0,0,0,0,0,0,0,0,0,0,0,0,0,0,0,0,0,0,0,0,0,0,0,0,0,0,0,0,0,0,0,0,0,0,0,0,0,0,0,0,0,0,0,0,0,0,0,0,0,0,0,0,0,0,0,0,0,0,0,0,0,0,0,0,0,0,0,0,0,0,0,0,0,0,0,0,0,0,0,0,0,0,0,0,0,0,0,0,0,0,0,0,0,0,0,0,0,0,0,0,0,0,0,0,0,0,0,0,0,0,0,0,0,0,0,0,0,0,0,0,0,0,0,0,0,0,0,10096,0,0,0,0,0,0,0,0,0,0,0,0,0,0,0,0,0,0,0,0,0,0,0,0,0,0,0,0,0,0,0,0,0,0,
0,0,0,0,0,0,0,0,0,0,0,0,0,0,0,0,0,0,0,0,0,0,0,0,0,0,0,0,0,0,0,0,0,0,0,0,0,0,0,0,0,0,0,0,0,0,0,0,0,0,0,0,0,0,0,0,0,0,0,0,0,0,0,0,0,0,0,0,0,0,0,0,0,0,0,0,0,0,0,0,0,0,0,0,0,0,0,0,0,0,0,0,0,0,0,0,0,0,0,0,0,0,0,0,0,0,0,0,0,0,0,0,0,0,0,0,0,0,0,0,0,0,0,0,0,0,0,0,0,0,0,0,0,0,0,0,0,0,0,0,0,0,0,0,0,0,0,0,0,0,0,0,0,0,0,0,0,0,0,0,0,0,0,0,0,0,0,0,0,0,0,0,0,0,0,0,0,0,0,0,0,0,0,0,0,0,0,0,0,0,0,0,0,0,0,0,0,0,0,0,0,0,0,0,0,0,0,0,0,0,0,0,0,0,0,0,10226,10226,0,0,0,0,0,0,0,0,0,0,0,0,0,0,0,0,0,0,0,0,0,0,0,0,0,0,0,0,0,0,0,0,
0,0,0,0,0,0,0,0,0,0,0,0,0,0,0,0,0,0,0,0,0,0,0,0,0,0,0,0,0,0,0,0,0,0,0,0,0,0,0,0,0,0,0,0,0,0,0,0,0,0,0,0,0,0,0,0,0,0,0,0,0,0,0,0,0,0,0,0,0,0,0,0,0,0,0,0,0,0,0,0,0,0,0,0,0,0,0,0,0,0,0,0,0,0,0,0,0,0,0,0,0,0,0,0,0,0,0,0,0,0,0,0,0,0,0,0,0,0,0,0,0,0,0,0,0,0,0,0,0,0,0,0,0,0,0,0,0,0,0,0,0,0,0,0,0,0,0,0,0,0,0,0,0,0,0,0,0,0,0,0,0,0,0,0,0,0,0,0,0,0,0,0,0,0,0,0,0,0,0,0,0,0,0,0,0,0,0,0,0,0,0,0,0,0,0,0,0,0,0,0,0,0,0,0,0,0,0,0,0,0,0,0,0,0,0,0,0,0,0,0,0,0,0,0,0,0,0,0,0,0,0,0,0,0,0,0,0,0,0,0,0,0,0,0,10100,0,0,0,0,0,
0,0,0,0,0,0,0,0,0,0,0,0,0,0,0,0,0,0,0,0,0,0,0,0,0,0,0,0,0,0,0,0,0,0,0,0,0,0,0,0,0,0,0,0,0,0,0,0,0,0,0,0,0,0,0,0,0,0,0,0,0,0,0,0,0,0,0,0,0,0,0,0,0,0,0,0,0,0,0,0,0,0,0,0,0,0,0,0,0,0,0,0,0,0,0,0,0,0,0,0,0,0,0,0,0,0,0,0,0,0,0,0,0,0,0,0,0,0,0,0,0,0,0,0,0,0,0,0,0,0,0,0,0,0,0,0,0,0,0,0,0,0,0,0,0,0,0,0,0,0,0,0,0,0,0,0,0,0,0,0,0,0,0,0,0,0,0,0,0,0,0,0,0,0,0,0,0,0,0,0,0,0,0,0,0,0,0,0,0,0,0,0,0,0,0,0,0,0,0,0,0,9970,9970,0,9970,0,9970,0,9970,9970,9970,0,9970,9970,9970,0,0,0,0,0,0,0,0,0,0,0,0,0,0,0,0,0,0,0,0,0,0,0,0,0,0,0,0,0,10100,0,0,0,0,0,
0,0,0,0,0,0,0,0,0,0,0,0,0,0,0,0,0,0,0,0,0,0,0,0,0,0,0,0,0,0,0,0,0,0,0,0,0,0,0,0,0,0,0,0,0,0,0,0,0,0,0,0,0,0,0,0,0,0,0,0,0,0,0,0,0,0,0,0,0,0,0,0,0,0,0,0,0,0,0,0,0,0,0,0,0,0,0,0,0,0,0,0,0,0,0,0,0,0,0,0,0,0,0,0,0,0,0,0,0,0,0,0,0,0,0,0,0,0,0,0,0,0,0,0,0,0,0,0,0,0,0,0,0,0,0,0,0,0,0,0,0,0,0,0,0,0,0,0,0,0,0,0,0,0,0,0,0,0,0,0,0,0,0,0,0,0,0,0,0,0,0,0,0,0,0,0,0,0,0,0,0,0,0,0,0,0,0,0,0,0,0,0,0,0,0,0,0,0,0,0,10096,0,0,0,0,0,0,0,0,0,0,0,0,0,0,0,0,0,0,0,0,0,0,0,0,0,0,0,0,0,0,0,0,0,0,0,0,0,0,0,10096,0,0,0,0,0,0,0,0,0,
0,0,0,0,0,0,0,0,0,0,0,0,0,0,0,0,0,0,0,0,0,0,0,0,0,0,0,0,0,0,0,0,0,0,0,0,0,0,0,0,0,0,0,0,0,0,0,0,0,0,0,0,0,0,0,0,0,0,0,0,0,0,0,0,0,0,0,0,0,0,0,0,0,0,0,0,0,0,0,0,0,0,0,0,0,0,0,0,0,0,0,0,0,0,0,0,0,0,0,0,0,0,0,0,0,0,0,0,0,0,0,0,0,0,0,0,0,0,0,0,0,0,0,0,0,0,0,0,0,0,0,0,0,0,0,0,0,0,0,0,0,0,0,0,0,0,0,0,0,0,0,0,0,0,0,0,0,0,0,0,0,0,0,0,0,0,0,0,0,0,0,0,0,0,0,0,0,0,0,0,0,0,0,0,0,0,0,0,0,0,0,0,0,0,0,0,0,0,0,0,0,10226,0,10226,10226,0,10226,10226,10226,0,10226,0,10226,10226,0,0,0,0,0,0,0,0,0,0,0,0,0,0,0,0,0,0,0,0,0,0,0,0,0,0,10096,0,0,0,10100,0,0,0,0,0,
0,0,0,0,0,0,0,0,0,0,0,0,0,0,0,0,0,0,0,0,0,0,0,0,0,0,0,0,0,0,0,0,0,0,0,0,0,0,0,0,0,0,0,0,0,0,0,0,0,0,0,0,0,0,0,0,0,0,0,0,0,0,0,0,0,0,0,0,0,0,0,0,0,0,0,0,0,0,0,0,0,0,0,0,0,0,0,0,0,0,0,0,0,0,0,0,0,0,0,0,0,0,0,0,0,0,0,0,0,0,0,0,0,0,0,0,0,0,0,0,0,0,0,0,0,0,0,0,0,0,0,0,0,0,0,0,0,0,0,0,0,0,0,0,0,0,0,0,0,0,0,0,0,0,0,0,0,0,0,0,0,0,0,0,0,0,0,0,0,0,0,0,0,0,0,0,0,0,0,0,0,0,0,0,0,0,0,0,0,0,0,0,0,0,0,0,0,0,0,0,0,0,0,0,0,0,0,0,0,0,0,0,0,0,0,0,0,0,0,0,0,0,0,0,0,0,0,0,0,0,0,0,0,0,0,0,0,0,0,0,10096,0,0,0,10100,0,0,0,0,0,
0,0,0,0,0,0,0,0,0,0,0,0,0,0,0,0,0,0,0,0,0,0,0,0,0,0,0,0,0,0,0,0,0,0,0,0,0,0,0,0,0,0,0,0,0,0,0,0,0,0,0,0,0,0,0,0,0,0,0,0,0,0,0,0,0,0,0,0,0,0,0,0,0,0,0,0,0,0,0,0,0,0,0,0,0,0,0,0,0,0,0,0,0,0,0,0,0,0,0,0,0,0,0,0,0,0,0,0,0,0,0,0,0,0,0,0,0,0,0,0,0,0,0,0,0,0,0,0,0,0,0,0,0,0,0,0,0,0,0,0,0,0,0,0,0,0,0,0,0,0,0,0,0,0,0,0,0,0,0,0,0,0,0,0,0,0,0,0,0,0,0,0,0,0,0,0,0,0,0,0,0,0,0,0,0,0,0,0,0,0,0,0,0,0,0,0,0,0,0,0,0,0,0,0,0,0,0,0,0,0,0,0,0,0,0,0,0,0,0,0,0,0,0,0,0,0,0,0,0,0,0,0,0,0,0,0,0,0,0,0,0,10226,0,10226,0,0,0,0,0,0,
0,0,0,0,0,0,0,0,0,0,0,0,0,0,0,0,0,0,0,0,0,0,0,0,0,0,0,0,0,0,0,0,0,0,0,0,0,0,0,0,0,0,0,0,0,0,0,0,0,0,0,0,0,0,0,0,0,0,0,0,0,0,0,0,0,0,0,0,0,0,0,0,0,0,0,0,0,0,0,0,0,0,0,0,0,0,0,0,0,0,0,0,0,0,0,0,0,0,0,0,0,0,0,0,0,0,0,0,0,0,0,0,0,0,0,0,0,0,0,0,0,0,0,0,0,0,0,0,0,0,0,0,0,0,0,0,0,0,0,0,0,0,0,0,0,0,0,0,0,0,0,0,0,0,0,0,0,0,0,0,0,0,0,0,0,0,0,0,0,0,0,0,0,0,0,0,0,0,0,0,0,0,0,0,0,0,0,0,0,0,0,0,0,0,0,0,0,0,0,0,0,0,0,0,0,0,0,0,0,0,0,0,0,0,0,0,0,0,0,0,0,0,0,0,0,0,0,0,0,0,0,0,0,0,0,0,0,0,0,0,0,0,0,0,0,0,0,0,0,0,
0,0,0,0,0,0,0,0,0,0,0,0,0,0,0,0,0,0,0,0,0,0,0,0,0,0,0,0,0,0,0,0,0,0,0,0,0,0,0,0,0,0,0,0,0,0,0,0,0,0,0,0,0,0,0,0,0,0,0,0,0,0,0,0,0,0,0,0,0,0,0,0,0,0,0,0,0,0,0,0,0,0,0,0,0,0,0,0,0,0,0,0,0,0,0,0,0,0,0,0,0,0,0,0,0,0,0,0,0,0,0,0,0,0,0,0,0,0,0,0,0,0,0,0,0,0,0,0,0,0,0,0,0,0,0,0,0,0,0,0,0,0,0,0,0,0,0,0,0,0,0,0,0,0,0,0,0,0,0,0,0,0,0,0,0,0,0,0,0,0,0,0,0,0,0,0,0,0,0,0,0,0,0,0,0,0,0,0,0,0,0,0,0,0,0,0,0,0,0,0,0,0,0,0,0,0,0,0,0,0,0,0,0,0,0,0,0,0,0,0,0,0,0,0,0,0,0,0,0,0,0,0,0,0,0,0,0,0,0,0,0,0,0,0,0,0,0,0,0,0,
0,0,0,0,0,0,0,0,0,0,0,0,0,0,0,0,0,0,0,0,0,0,0,0,0,0,0,0,0,0,0,0,0,0,0,0,0,0,0,0,0,0,0,0,0,0,0,0,0,0,0,0,0,0,0,0,0,0,0,0,0,0,0,0,0,0,0,0,0,0,0,0,0,0,0,0,0,0,0,0,0,0,0,0,0,0,0,0,0,0,0,0,0,0,0,0,0,0,0,0,0,0,0,0,0,0,0,0,0,0,0,0,0,0,0,0,0,0,0,0,0,0,0,0,0,0,0,0,0,0,0,0,0,0,0,0,0,0,0,0,0,0,0,0,0,0,0,0,0,0,0,0,0,0,0,0,0,0,0,0,0,0,0,0,0,0,0,0,0,0,0,0,0,0,0,0,0,0,0,0,0,0,0,0,0,0,0,0,0,0,0,0,0,0,0,0,0,0,0,0,0,0,0,0,0,0,0,0,0,0,0,0,0,0,0,0,0,0,0,0,0,0,0,0,0,0,0,0,0,0,0,0,0,0,0,0,0,0,0,0,0,0,0,0,0,0,0,0,0,0,
0,0,0,0,0,0,0,0,0,0,0,0,0,0,0,0,0,0,0,0,0,0,0,0,0,0,0,0,0,0,0,0,0,0,0,0,0,0,0,0,0,0,0,0,0,0,0,0,0,0,0,0,0,0,0,0,0,0,0,0,0,0,0,0,0,0,0,0,0,0,0,0,0,0,0,0,0,0,0,0,0,0,0,0,0,0,0,0,0,0,0,0,0,0,0,0,0,0,0,0,0,0,0,0,0,0,0,0,0,0,0,0,0,0,0,0,0,0,0,0,0,0,0,0,0,0,0,0,0,0,0,0,0,0,0,0,0,0,0,0,0,0,0,0,0,0,0,0,0,0,0,0,0,0,0,0,0,0,0,0,0,0,0,0,0,0,0,0,0,0,0,0,0,0,0,0,0,0,0,0,0,0,0,0,0,0,0,0,0,0,0,0,0,0,0,0,0,0,0,0,0,0,0,0,0,0,0,0,0,0,0,0,0,0,0,0,0,0,0,0,0,0,0,0,0,0,0,0,0,0,0,0,0,0,0,0,0,0,0,0,0,0,0,0,0,0,0,0,0,0,
0,0,0,0,0,0,0,0,0,0,0,0,0,0,0,0,0,0,0,0,0,0,0,0,0,0,0,0,0,0,0,0,0,0,0,0,0,0,0,0,0,0,0,0,0,0,0,0,0,0,0,0,0,0,0,0,0,0,0,0,0,0,0,0,0,0,0,0,0,0,0,0,0,0,0,0,0,0,0,0,0,0,0,0,0,0,0,0,0,0,0,0,0,0,0,0,0,0,0,0,0,0,0,0,0,0,0,0,0,0,0,0,0,0,0,0,0,0,0,0,0,0,0,0,0,0,0,0,0,0,0,0,0,0,0,0,0,0,0,0,0,0,0,0,0,0,0,0,0,0,0,0,0,0,0,0,0,0,0,0,0,0,0,0,0,0,0,0,0,0,0,0,0,0,0,0,0,0,0,0,0,0,0,0,0,0,0,0,0,0,0,0,0,0,0,0,0,0,0,0,0,0,0,0,0,0,0,0,0,0,0,0,0,0,0,0,0,0,0,0,0,0,0,0,0,0,0,0,0,0,0,0,0,0,0,0,0,0,0,0,0,0,0,0,0,0,0,0,0,0,
0,0,0,0,0,0,0,0,0,0,0,0,0,0,0,0,0,0,0,0,0,0,0,0,0,0,0,0,0,0,0,0,0,0,0,0,0,0,0,0,0,0,0,0,0,0,0,0,0,0,0,0,0,0,0,0,0,0,0,0,0,0,0,0,0,0,0,0,0,0,0,0,0,0,0,0,0,0,0,0,0,0,0,0,0,0,0,0,0,0,0,0,0,0,0,0,0,0,0,0,0,0,0,0,0,0,0,0,0,0,0,0,0,0,0,0,0,0,0,0,0,0,0,0,0,0,0,0,0,0,0,0,0,0,0,0,0,0,0,0,0,0,0,0,0,0,0,0,0,0,0,0,0,0,0,0,0,0,0,0,0,0,0,0,0,0,0,0,0,0,0,0,0,0,0,0,0,0,0,0,0,0,0,0,0,0,0,0,0,0,0,0,0,0,0,0,0,0,0,0,0,0,0,0,0,0,0,0,0,0,0,0,0,0,0,0,0,0,0,0,0,0,0,0,0,0,0,0,0,0,0,0,0,0,0,0,0,0,0,0,0,0,0,0,0,0,0,0,0,0,
0,0,0,0,0,0,0,0,0,0,0,0,0,0,0,0,0,0,0,0,0,0,0,0,0,0,0,0,0,0,0,0,0,0,0,0,0,0,0,0,0,0,0,0,0,0,0,0,0,0,0,0,0,0,0,0,0,0,0,0,0,0,0,0,0,0,0,0,0,0,0,0,0,0,0,0,0,0,0,0,0,0,0,0,0,0,0,0,0,0,0,0,0,0,0,0,0,0,0,0,0,0,0,0,0,0,0,0,0,0,0,0,0,0,0,0,0,0,0,0,0,0,0,0,0,0,0,0,0,0,0,0,0,0,0,0,0,0,0,0,0,0,0,0,0,0,0,0,0,0,0,0,0,0,0,0,0,0,0,0,0,0,0,0,0,0,0,0,0,0,0,0,0,0,0,0,0,0,0,0,0,0,0,0,0,0,0,0,0,0,0,0,0,0,0,0,0,0,0,0,0,0,0,0,0,0,0,0,0,0,0,0,0,0,0,0,0,0,0,0,0,0,0,0,0,0,0,0,0,0,0,0,0,0,0,0,0,0,0,0,0,0,0,0,0,0,0,0,0,0
</data>
 </layer>
 <objectgroup id="15" name="props">
  <object id="71" gid="12452" x="1095.33" y="1804" width="64" height="64"/>
  <object id="74" gid="12411" x="1264" y="1674" width="64" height="64"/>
  <object id="75" gid="12393" x="1336" y="1452" width="64" height="64"/>
  <object id="76" gid="12336" x="1075.33" y="1208.67" width="64" height="64"/>
  <object id="78" gid="12231" x="1837.5" y="2197.5" width="64" height="64"/>
  <object id="82" gid="12228" x="1777" y="1211" width="32" height="64"/>
  <object id="83" gid="12230" x="1622.67" y="667.33" width="64" height="64"/>
  <object id="87" gid="12363" x="987.333" y="674" width="32" height="32"/>
  <object id="88" gid="12200" x="1132.67" y="831.33" width="32" height="32"/>
  <object id="89" gid="12200" x="804" y="2220.67" width="32" height="32"/>
  <object id="90" gid="12187" x="866" y="1927.33" width="32" height="32"/>
  <object id="91" gid="12393" x="1237.33" y="2057.33" width="64" height="64"/>
  <object id="92" gid="12393" x="896" y="2816" width="64" height="64"/>
  <object id="93" gid="12443" x="928" y="2976" width="32" height="32"/>
  <object id="94" gid="12443" x="284" y="2695" width="32" height="32"/>
  <object id="95" gid="12477" x="174.5" y="2048.5" width="32" height="32"/>
  <object id="96" gid="12479" x="405" y="1779" width="32" height="32"/>
  <object id="97" gid="12420" x="173" y="1648.5" width="32" height="32"/>
  <object id="98" gid="12420" x="493.5" y="1218.5" width="32" height="32"/>
  <object id="99" gid="12365" x="216" y="894.67" width="32" height="32"/>
  <object id="100" gid="12318" x="616.667" y="806" width="32" height="32"/>
  <object id="101" gid="12319" x="795.333" y="1194.67" width="32" height="32"/>
  <object id="102" gid="12319" x="1593.33" y="1094.67" width="32" height="32"/>
  <object id="103" gid="12319" x="1295" y="616" width="32" height="32"/>
  <object id="104" gid="12319" x="2205" y="2056" width="32" height="32"/>
  <object id="105" gid="12274" x="1920" y="1927" width="32" height="32"/>
  <object id="106" gid="12274" x="454.667" y="2982.67" width="32" height="32"/>
  <object id="107" gid="12296" x="1704" y="3087" width="64" height="64"/>
  <object id="108" gid="12233" x="2009" y="2691" width="64" height="64"/>
  <object id="109" gid="12206" x="1593" y="2697" width="32" height="32"/>
  <object id="111" gid="12225" x="2053" y="2975" width="32" height="32"/>
  <object id="113" gid="12207" x="1422" y="3006" width="32" height="32"/>
  <object id="114" gid="12489" x="3164" y="1481.33" width="128" height="128"/>
  <object id="116" gid="12492" x="4219" y="1261.5" width="128" height="128"/>
  <object id="117" gid="13110" x="4053.33" y="1584" width="32" height="96"/>
  <object id="118" gid="13110" x="4309.33" y="1817.33" width="32" height="96"/>
  <object id="119" gid="2217" x="4070.67" y="954.67" width="32" height="32"/>
  <object id="123" gid="13110" x="4525.33" y="3391.33" width="32" height="96"/>
  <object id="124" gid="13110" x="4027.33" y="3390.67" width="32" height="96"/>
  <object id="128" gid="13110" x="3392" y="1216" width="32" height="96"/>
  <object id="129" gid="13110" x="3392" y="992" width="32" height="96"/>
  <object id="130" gid="13110" x="2992" y="1568" width="32" height="96"/>
  <object id="131" gid="13110" x="2888" y="1606.67" width="32" height="96"/>
  <object id="133" gid="13110" x="3214.67" y="1797.33" width="32" height="96"/>
  <object id="134" gid="13110" x="3148" y="1893.33" width="32" height="96"/>
  <object id="136" gid="13110" x="5014" y="1155" width="32" height="96"/>
  <object id="137" gid="13110" x="4733" y="1374" width="32" height="96"/>
  <object id="138" gid="13110" x="4544" y="1375" width="32" height="96"/>
  <object id="144" gid="13110" x="5252.67" y="1373.67" width="32" height="96"/>
  <object id="145" gid="13110" x="5252.67" y="1494.33" width="32" height="96"/>
  <object id="151" gid="13110" x="3609.33" y="2240.67" width="32" height="96"/>
  <object id="152" gid="13110" x="3460.67" y="2238" width="32" height="96"/>
  <object id="153" gid="13110" x="3611.33" y="2843.33" width="32" height="96"/>
  <object id="154" gid="13110" x="3464" y="2844.67" width="32" height="96"/>
  <object id="155" gid="13102" x="3720.67" y="3139.33" width="32" height="96"/>
  <object id="156" gid="13102" x="3558.67" y="3263.33" width="32" height="96"/>
  <object id="157" gid="13102" x="3616" y="2464" width="32" height="96"/>
  <object id="159" gid="13102" x="3616" y="2592" width="32" height="96"/>
  <object id="160" gid="13102" x="3328" y="2496" width="32" height="96"/>
  <object id="161" gid="13102" x="3328" y="2624" width="32" height="96"/>
  <object id="162" gid="13102" x="4672" y="2752" width="32" height="96"/>
  <object id="163" gid="13102" x="4239" y="2858" width="32" height="96"/>
  <object id="164" gid="13102" x="4773.33" y="771.33" width="32" height="96"/>
  <object id="165" gid="13102" x="4644.67" y="768.67" width="32" height="96"/>
  <object id="169" gid="13102" x="2912" y="736" width="32" height="96"/>
  <object id="171" gid="13102" x="2624" y="736" width="32" height="96"/>
  <object id="173" gid="13118" x="4875" y="1836" width="87" height="87"/>
  <object id="177" gid="13102" x="5312" y="3104" width="32" height="96"/>
  <object id="178" gid="13102" x="5632" y="3104" width="32" height="96"/>
  <object id="179" gid="13102" x="4704" y="3136" width="32" height="96"/>
  <object id="180" gid="13102" x="5056" y="3136" width="32" height="96"/>
  <object id="181" gid="12726" x="7842" y="2388" width="96" height="96"/>
  <object id="182" gid="12581" x="7851.5" y="2451.5" width="64" height="64"/>
  <object id="183" gid="12580" x="7714.5" y="2401.5" width="32" height="32"/>
  <object id="184" gid="12576" x="7703" y="2469.5" width="96" height="64"/>
  <object id="185" gid="12561" x="7757.5" y="2428.5" width="96" height="64"/>
  <object id="193" gid="12499" x="7026.91" y="2114.73" width="64" height="128"/>
  <object id="197" gid="12501" x="7392" y="1920" width="96" height="128"/>
  <object id="198" gid="13082" x="4644.67" y="580" width="160" height="128"/>
  <object id="199" gid="13082" x="1076" y="549.333" width="160" height="128"/>
  <object id="200" gid="13082" x="1793" y="2663" width="160" height="128"/>
  <object id="201" gid="13082" x="4416" y="2272" width="160" height="128"/>
  <object id="202" gid="13082" x="6192.67" y="1993.33" width="160" height="128"/>
  <object id="205" gid="12677" x="6172.33" y="2986" width="32" height="32"/>
  <object id="208" gid="12583" x="6151.33" y="3006.67" width="32" height="32"/>
  <object id="213" gid="12697" x="4352" y="2688" width="96" height="64"/>
  <object id="214" gid="12697" x="4576" y="2368" width="96" height="64"/>
  <object id="215" gid="12699" x="3008" y="2496" width="96" height="64"/>
  <object id="217" gid="12699" x="3232" y="2656" width="96" height="64"/>
  <object id="218" gid="12698" x="3648" y="896" width="96" height="64"/>
  <object id="219" gid="12700" x="3520" y="1248" width="96" height="64"/>
  <object id="222" gid="12699" x="3712" y="1120" width="96" height="64"/>
  <object id="240" gid="12639" x="6405.33" y="3284.67" width="32" height="32"/>
  <object id="242" gid="12630" x="7738.67" y="2378.67" width="32" height="32"/>
  <object id="243" gid="12634" x="7890" y="2392.67" width="32" height="32"/>
  <object id="245" gid="12485" x="7328" y="768" width="96" height="128"/>
  <object id="248" gid="12576" x="7200" y="708.667" width="96" height="64"/>
  <object id="249" gid="12581" x="6957.33" y="715.333" width="64" height="64"/>
  <object id="250" gid="12583" x="7150.67" y="634.667" width="32" height="32"/>
  <object id="251" gid="12582" x="7045.33" y="634.667" width="32" height="32"/>
  <object id="252" gid="12739" x="7335" y="2387.5" width="32" height="32"/>
  <object id="253" gid="12739" x="6779" y="2656.5" width="32" height="32"/>
  <object id="255" gid="12730" x="6194.5" y="2344.5" width="32" height="32"/>
  <object id="256" gid="12730" x="6319" y="2344" width="32" height="32"/>
  <object id="257" gid="12738" x="6292.67" y="1979" width="32" height="32"/>
  <object id="260" gid="12727" x="7037" y="1564" width="64" height="64"/>
  <object id="262" gid="12727" x="7392.67" y="865.333" width="64" height="64"/>
  <object id="263" gid="12727" x="6816" y="736" width="64" height="64"/>
  <object id="264" gid="12727" x="6848" y="1120" width="64" height="64"/>
  <object id="265" gid="12728" x="6897.33" y="1903.33" width="96" height="96"/>
  <object id="276" gid="12689" x="7468" y="1008.67" width="96" height="192"/>
  <object id="278" gid="12691" x="6675.33" y="898.667" width="96" height="96"/>
  <object id="282" gid="13035" x="7008.67" y="1406" width="224" height="128"/>
  <object id="283" gid="12730" x="7200" y="1696" width="32" height="32"/>
  <object id="284" gid="12730" x="7008" y="1696" width="32" height="32"/>
  <object id="285" gid="12732" x="7184" y="1567.5" width="32" height="32"/>
  <object id="287" gid="12732" x="7024" y="1566" width="32" height="32"/>
  <object id="289" gid="12604" x="7015" y="1709.5" width="32" height="32"/>
  <object id="290" gid="12610" x="7208" y="1710" width="32" height="32"/>
  <object id="291" gid="12583" x="7204" y="1738.5" width="32" height="32"/>
  <object id="292" gid="12582" x="7006.5" y="1735.5" width="32" height="32"/>
  <object id="293" gid="12578" x="6856" y="1639.33" width="64" height="32"/>
  <object id="294" gid="12579" x="6737.33" y="1802.67" width="32" height="32"/>
  <object id="295" gid="12581" x="7356" y="1623.33" width="64" height="64"/>
  <object id="296" gid="12579" x="6766" y="1572.67" width="32" height="32"/>
  <object id="297" gid="12495" x="6752" y="1920" width="96" height="128"/>
  <object id="298" gid="2147496141" x="7138.5" y="2113.83" width="96" height="128"/>
  <object id="316" gid="12739" x="6874.5" y="2383" width="32" height="32"/>
  <object id="317" gid="12739" x="7360" y="2662" width="32" height="32"/>
  <object id="324" gid="12504" x="5536" y="1888" width="96" height="128"/>
  <object id="325" gid="12739" x="5802.67" y="2265.33" width="32" height="32"/>
  <object id="326" gid="12739" x="5803.33" y="2136.67" width="32" height="32"/>
  <object id="327" gid="12739" x="7834.67" y="2573.33" width="32" height="32"/>
  <object id="328" gid="13110" x="7835.33" y="2587.33" width="32" height="96"/>
  <object id="329" gid="12735" x="7534.67" y="1802" width="32" height="32"/>
  <object id="330" gid="12735" x="6675.33" y="1803.33" width="32" height="32"/>
  <object id="331" gid="12687" x="6905" y="2391.67" width="32" height="32"/>
  <object id="333" gid="12683" x="6795" y="2654.33" width="32" height="32"/>
  <object id="334" gid="12675" x="7599.33" y="3088" width="32" height="32"/>
  <object id="335" gid="12733" x="7885.33" y="3020.67" width="32" height="32"/>
  <object id="336" gid="12734" x="7604" y="3026.67" width="32" height="32"/>
  <object id="339" gid="13110" x="7264.33" y="1710.33" width="32" height="96"/>
  <object id="340" gid="13110" x="6944" y="1710.5" width="32" height="96"/>
  <object id="341" gid="13110" x="7000.5" y="2765.5" width="32" height="96"/>
  <object id="342" gid="13110" x="6856.5" y="2766" width="32" height="96"/>
  <object id="343" gid="12625" x="6999.5" y="3053.5" width="32" height="32"/>
  <object id="344" gid="13110" x="6856" y="3086.5" width="32" height="96"/>
  <object id="345" gid="12625" x="7199.5" y="3226" width="32" height="32"/>
  <object id="346" gid="13110" x="6656" y="3258.5" width="32" height="96"/>
  <object id="347" gid="13110" x="6328" y="2958" width="32" height="96"/>
  <object id="348" gid="12625" x="6047.5" y="3117.5" width="32" height="32"/>
  <object id="349" gid="12625" x="6183.5" y="2926" width="32" height="32"/>
  <object id="350" gid="13110" x="6048.5" y="3258.5" width="32" height="96"/>
  <object id="351" gid="13110" x="7896.5" y="3182" width="32" height="96"/>
  <object id="352" gid="13110" x="5803" y="2279.5" width="32" height="96"/>
  <object id="353" gid="13110" x="5804.5" y="2151" width="32" height="96"/>
  <object id="354" gid="12643" x="7568.67" y="1103.33" width="32" height="32"/>
  <object id="355" gid="12675" x="7593" y="1095" width="32" height="32"/>
  <object id="356" gid="12577" x="7579.33" y="1124" width="64" height="32"/>
  <object id="357" gid="12645" x="6900.33" y="1262.33" width="32" height="32"/>
  <object id="358" gid="12596" x="6921" y="1260.33" width="32" height="32"/>
  <object id="361" gid="12616" x="6194" y="2000.67" width="32" height="32"/>
  <object id="362" gid="12632" x="6204" y="1981.33" width="32" height="32"/>
  <object id="364" gid="12578" x="6203.33" y="2023" width="64" height="32"/>
  <object id="365" gid="12495" x="5984.33" y="2432.67" width="96" height="128"/>
  <object id="366" gid="13121" x="3820" y="2192" width="32" height="32"/>
  <object id="367" gid="13121" x="4042.67" y="2101.33" width="32" height="32"/>
  <object id="368" gid="13121" x="3700" y="1606.67" width="32" height="32"/>
  <object id="369" gid="13121" x="3334.67" y="1566.67" width="32" height="32"/>
  <object id="370" gid="13121" x="3429.33" y="1648" width="32" height="32"/>
  <object id="371" gid="13121" x="3513.33" y="1569.33" width="32" height="32"/>
  <object id="372" gid="13121" x="3033.33" y="2165.33" width="32" height="32"/>
  <object id="373" gid="13121" x="3120" y="2284" width="32" height="32"/>
  <object id="374" gid="13121" x="2826.67" y="2546.67" width="32" height="32"/>
  <object id="375" gid="13121" x="2904" y="2777.33" width="32" height="32"/>
  <object id="376" gid="13121" x="3062.67" y="2832" width="32" height="32"/>
  <object id="377" gid="13121" x="3253.33" y="2904" width="32" height="32"/>
  <object id="378" gid="13121" x="3300" y="2338.67" width="32" height="32"/>
  <object id="379" gid="13121" x="3782.67" y="2882.67" width="32" height="32"/>
  <object id="380" gid="13121" x="3888" y="2982.67" width="32" height="32"/>
  <object id="381" gid="13121" x="3354.67" y="3073.33" width="32" height="32"/>
  <object id="382" gid="13121" x="3400" y="3369.33" width="32" height="32"/>
  <object id="383" gid="13121" x="3632" y="3430.67" width="32" height="32"/>
  <object id="386" gid="13121" x="3749.33" y="2997.33" width="32" height="32"/>
  <object id="387" gid="13121" x="3988" y="2874.67" width="32" height="32"/>
  <object id="388" gid="13121" x="3906.67" y="1624" width="32" height="32"/>
  <object id="389" gid="13121" x="4049.33" y="1362.67" width="32" height="32"/>
  <object id="390" gid="13121" x="3244" y="1269.33" width="32" height="32"/>
  <object id="391" gid="13121" x="3202.67" y="917.333" width="32" height="32"/>
  <object id="392" gid="13121" x="3000" y="920" width="32" height="32"/>
  <object id="393" gid="13121" x="2669.33" y="978.667" width="32" height="32"/>
  <object id="394" gid="13121" x="2857.33" y="568" width="32" height="32"/>
  <object id="395" gid="13121" x="2321.33" y="638.667" width="32" height="32"/>
  <object id="396" gid="13121" x="2244" y="948" width="32" height="32"/>
  <object id="397" gid="13121" x="3108" y="802.667" width="32" height="32"/>
  <object id="398" gid="13121" x="3201.33" y="782.667" width="32" height="32"/>
  <object id="399" gid="13121" x="2733.33" y="1214.67" width="32" height="32"/>
  <object id="400" gid="13121" x="2661.33" y="1344" width="32" height="32"/>
  <object id="401" gid="13121" x="2656" y="1405.33" width="32" height="32"/>
  <object id="402" gid="13121" x="2816" y="1709.33" width="32" height="32"/>
  <object id="403" gid="13121" x="2758.67" y="1752" width="32" height="32"/>
  <object id="404" gid="13121" x="2900" y="1812" width="32" height="32"/>
  <object id="405" gid="13121" x="2694.67" y="1634.67" width="32" height="32"/>
  <object id="406" gid="13121" x="4578" y="1696" width="32" height="32"/>
  <object id="407" gid="13121" x="4748" y="1736" width="32" height="32"/>
  <object id="408" gid="13121" x="4618" y="1806" width="32" height="32"/>
  <object id="409" gid="13121" x="4696" y="1646" width="32" height="32"/>
  <object id="410" gid="13121" x="4444" y="1240" width="32" height="32"/>
  <object id="411" gid="13121" x="4436" y="1148" width="32" height="32"/>
  <object id="412" gid="13121" x="4168" y="1090" width="32" height="32"/>
  <object id="413" gid="13121" x="5100" y="1184" width="32" height="32"/>
  <object id="414" gid="13121" x="5192" y="836" width="32" height="32"/>
  <object id="415" gid="13121" x="4938" y="510" width="32" height="32"/>
  <object id="416" gid="13121" x="4628" y="486" width="32" height="32"/>
  <object id="417" gid="13121" x="4364" y="488" width="32" height="32"/>
  <object id="418" gid="13121" x="4344" y="664" width="32" height="32"/>
  <object id="419" gid="13121" x="4490" y="918" width="32" height="32"/>
  <object id="420" gid="13121" x="4400" y="842" width="32" height="32"/>
  <object id="421" gid="13121" x="4336" y="912" width="32" height="32"/>
  <object id="422" gid="13121" x="5734" y="1340" width="32" height="32"/>
  <object id="423" gid="13121" x="5702" y="1184" width="32" height="32"/>
  <object id="424" gid="13121" x="5638" y="1312" width="32" height="32"/>
  <object id="425" gid="13121" x="5840" y="1430" width="32" height="32"/>
  <object id="426" gid="13121" x="5496" y="1074" width="32" height="32"/>
  <object id="427" gid="13121" x="5386" y="1086" width="32" height="32"/>
  <object id="428" gid="13121" x="5462" y="1164" width="32" height="32"/>
  <object id="429" gid="13121" x="5242" y="1782" width="32" height="32"/>
  <object id="430" gid="13121" x="5162" y="1882" width="32" height="32"/>
  <object id="431" gid="13121" x="5414" y="1870" width="32" height="32"/>
  <object id="432" gid="13121" x="5130" y="1694" width="32" height="32"/>
  <object id="433" gid="13121" x="5194" y="2262" width="32" height="32"/>
  <object id="434" gid="13121" x="4980" y="2372" width="32" height="32"/>
  <object id="435" gid="13121" x="5168" y="2442" width="32" height="32"/>
  <object id="436" gid="13121" x="4978" y="2682" width="32" height="32"/>
  <object id="438" gid="13121" x="4932" y="2566" width="32" height="32"/>
  <object id="439" gid="13121" x="4552" y="2066" width="32" height="32"/>
  <object id="440" gid="13121" x="4296" y="2092" width="32" height="32"/>
  <object id="441" gid="13121" x="3984" y="2420" width="32" height="32"/>
  <object id="442" gid="13121" x="4882" y="2976" width="32" height="32"/>
  <object id="443" gid="13121" x="5110" y="2982" width="32" height="32"/>
  <object id="444" gid="13121" x="5134" y="2854" width="32" height="32"/>
  <object id="445" gid="13121" x="2700" y="3108" width="32" height="32"/>
  <object id="446" gid="13121" x="2540" y="3252" width="32" height="32"/>
  <object id="447" gid="13121" x="2808" y="3248" width="32" height="32"/>
  <object id="448" gid="13121" x="2732" y="2888" width="32" height="32"/>
  <object id="449" gid="13121" x="2280" y="3040" width="32" height="32"/>
  <object id="450" gid="13121" x="2902" y="2272" width="32" height="32"/>
  <object id="451" gid="13121" x="2832" y="2348" width="32" height="32"/>
  <object id="452" gid="13121" x="5552" y="2782" width="32" height="32"/>
  <object id="453" gid="13121" x="5484" y="2928" width="32" height="32"/>
  <object id="454" gid="13121" x="5792" y="2954" width="32" height="32"/>
  <object id="455" gid="13121" x="5798" y="2722" width="32" height="32"/>
  <object id="456" gid="13121" x="5480" y="2680" width="32" height="32"/>
  <object id="457" gid="13121" x="6072" y="2602" width="32" height="32"/>
  <object id="458" gid="13121" x="5972" y="2698" width="32" height="32"/>
  <object id="459" gid="13121" x="6118" y="2392" width="32" height="32"/>
  <object id="460" gid="13121" x="5962.67" y="2380" width="32" height="32"/>
  <object id="461" gid="13121" x="5906.67" y="2408" width="32" height="32"/>
  <object id="462" gid="13121" x="6334" y="1647" width="32" height="32"/>
  <object id="463" gid="13121" x="6169" y="1661" width="32" height="32"/>
  <object id="464" gid="13121" x="6154" y="1768" width="32" height="32"/>
  <object id="465" gid="13121" x="6445" y="1799" width="32" height="32"/>
  <object id="466" gid="13121" x="6001" y="1881" width="32" height="32"/>
  <object id="467" gid="13121" x="6054" y="2022" width="32" height="32"/>
  <object id="468" gid="13121" x="5890" y="2030" width="32" height="32"/>
  <object id="469" gid="13121" x="5743" y="1705" width="32" height="32"/>
  <object id="470" gid="13121" x="5546" y="1730" width="32" height="32"/>
  <object id="471" gid="13121" x="5238" y="2044" width="32" height="32"/>
  <object id="472" gid="13121" x="6576" y="2848" width="32" height="32"/>
  <object id="473" gid="13121" x="6430" y="2902" width="32" height="32"/>
  <object id="474" gid="13121" x="6652" y="3086" width="32" height="32"/>
  <object id="475" gid="13121" x="6720" y="2868" width="32" height="32"/>
  <object id="476" gid="13121" x="6532" y="2652" width="32" height="32"/>
  <object id="477" gid="13121" x="6402" y="2642" width="32" height="32"/>
  <object id="478" gid="13121" x="6622" y="2492" width="32" height="32"/>
  <object id="479" gid="13121" x="6402" y="2392" width="32" height="32"/>
  <object id="480" gid="13121" x="6534" y="2030" width="32" height="32"/>
  <object id="481" gid="13121" x="6790" y="2050" width="32" height="32"/>
  <object id="482" gid="13121" x="6948" y="2188" width="32" height="32"/>
  <object id="483" gid="13121" x="6422" y="2080" width="32" height="32"/>
  <object id="484" gid="13121" x="6430" y="2182" width="32" height="32"/>
  <object id="485" gid="13121" x="6940" y="2280" width="32" height="32"/>
  <object id="486" gid="13121" x="6908" y="2068" width="32" height="32"/>
  <object id="487" gid="13121" x="7346" y="2916" width="32" height="32"/>
  <object id="488" gid="13121" x="7150" y="3022" width="32" height="32"/>
  <object id="489" gid="13121" x="7496" y="3076" width="32" height="32"/>
  <object id="490" gid="13121" x="7296" y="2798" width="32" height="32"/>
  <object id="491" gid="13121" x="7136" y="2856" width="32" height="32"/>
  <object id="492" gid="13121" x="7726" y="2852" width="32" height="32"/>
  <object id="493" gid="13121" x="7636" y="2938" width="32" height="32"/>
  <object id="494" gid="13121" x="7620" y="2368" width="32" height="32"/>
  <object id="495" gid="13121" x="7396" y="2282" width="32" height="32"/>
  <object id="496" gid="13121" x="7326" y="2162" width="32" height="32"/>
  <object id="497" gid="13121" x="7716" y="2080" width="32" height="32"/>
  <object id="498" gid="13121" x="7840" y="1650" width="32" height="32"/>
  <object id="499" gid="13121" x="7538" y="1460" width="32" height="32"/>
  <object id="500" gid="13121" x="7746" y="1336" width="32" height="32"/>
  <object id="501" gid="13121" x="7836" y="700" width="32" height="32"/>
  <object id="502" gid="13121" x="7756" y="728" width="32" height="32"/>
  <object id="503" gid="13121" x="7760" y="436" width="32" height="32"/>
  <object id="504" gid="13121" x="7538" y="364" width="32" height="32"/>
  <object id="505" gid="13121" x="7828" y="874" width="32" height="32"/>
  <object id="506" gid="13121" x="7394" y="256" width="32" height="32"/>
  <object id="507" gid="13121" x="7032" y="228" width="32" height="32"/>
  <object id="508" gid="13121" x="6668" y="312" width="32" height="32"/>
  <object id="509" gid="13121" x="6586" y="498" width="32" height="32"/>
  <object id="510" gid="13121" x="6372" y="744" width="32" height="32"/>
  <object id="511" gid="13121" x="6364" y="904" width="32" height="32"/>
  <object id="512" gid="13121" x="6356" y="1040" width="32" height="32"/>
  <object id="513" gid="13121" x="6456" y="1080" width="32" height="32"/>
  <object id="514" gid="13121" x="6190" y="890" width="32" height="32"/>
  <object id="515" gid="13121" x="6404" y="1228" width="32" height="32"/>
  <object id="516" gid="13121" x="6544" y="1448" width="32" height="32"/>
  <object id="517" gid="13121" x="6376" y="1500" width="32" height="32"/>
  <object id="518" gid="13121" x="6340" y="1416" width="32" height="32"/>
  <object id="519" gid="13121" x="6546" y="1594" width="32" height="32"/>
  <object id="520" gid="13121" x="5936" y="828" width="32" height="32"/>
  <object id="521" gid="13121" x="5782" y="956" width="32" height="32"/>
  <object id="522" gid="13121" x="5876" y="1092" width="32" height="32"/>
  <object id="523" gid="13121" x="5568" y="732" width="32" height="32"/>
  <object id="524" gid="13121" x="6008" y="1552" width="32" height="32"/>
  <object id="525" gid="13121" x="5930" y="1666" width="32" height="32"/>
  <object id="526" gid="13121" x="6608" y="3432" width="32" height="32"/>
  <object id="527" gid="13121" x="6948" y="3436" width="32" height="32"/>
  <object id="528" gid="13121" x="7140" y="3436" width="32" height="32"/>
  <object id="529" gid="13121" x="6796" y="3396" width="32" height="32"/>
  <object id="530" gid="13121" x="6772" y="3492" width="32" height="32"/>
  <object id="531" gid="13121" x="7372" y="3428" width="32" height="32"/>
  <object id="532" gid="13121" x="7308" y="3496" width="32" height="32"/>
  <object id="533" gid="13121" x="7636" y="3524" width="32" height="32"/>
  <object id="534" gid="13121" x="7892" y="3492" width="32" height="32"/>
  <object id="536" gid="13121" x="7948" y="3248" width="32" height="32"/>
  <object id="537" gid="13121" x="7952" y="3000" width="32" height="32"/>
  <object id="538" gid="13121" x="7856" y="2968" width="32" height="32"/>
  <object id="539" gid="13121" x="5712" y="3424" width="32" height="32"/>
  <object id="540" gid="13121" x="5416" y="3424" width="32" height="32"/>
  <object id="541" gid="13121" x="5852" y="3452" width="32" height="32"/>
  <object id="542" gid="13121" x="5848" y="3536" width="32" height="32"/>
  <object id="543" gid="13121" x="5040" y="3440" width="32" height="32"/>
  <object id="544" gid="13121" x="4864" y="3484" width="32" height="32"/>
  <object id="545" gid="13121" x="5200" y="3496" width="32" height="32"/>
  <object id="546" gid="13121" x="4772" y="3372" width="32" height="32"/>
  <object id="547" gid="13121" x="4544" y="3488" width="32" height="32"/>
  <object id="548" gid="13121" x="3848" y="3452" width="32" height="32"/>
  <object id="549" gid="13121" x="3236" y="3464" width="32" height="32"/>
  <object id="550" gid="13121" x="2924" y="3360" width="32" height="32"/>
  <object id="551" gid="13121" x="2976" y="3480" width="32" height="32"/>
  <object id="552" gid="13121" x="4116" y="2532" width="32" height="32"/>
  <object id="553" gid="13121" x="4968" y="2120" width="32" height="32"/>
  <object id="554" gid="13121" x="4784" y="2072" width="32" height="32"/>
  <object id="555" gid="13121" x="4884" y="2204" width="32" height="32"/>
  <object id="556" gid="13121" x="3744" y="2380" width="32" height="32"/>
  <object id="557" gid="13121" x="3792" y="2026" width="32" height="32"/>
  <object id="558" gid="13121" x="3920.36" y="1085.7" width="32" height="32"/>
  <object id="559" gid="13121" x="3905.21" y="1167.52" width="32" height="32"/>
  <object id="560" gid="13121" x="4050.67" y="885.697" width="32" height="32"/>
  <object id="561" gid="13121" x="3923.39" y="840.242" width="32" height="32"/>
  <object id="562" gid="13121" x="3632.48" y="431.152" width="32" height="32"/>
  <object id="563" gid="13121" x="3308.24" y="555.394" width="32" height="32"/>
  <object id="564" gid="13121" x="3487.03" y="643.273" width="32" height="32"/>
  <object id="565" gid="13121" x="3720.36" y="561.455" width="32" height="32"/>
  <object id="566" gid="13121" x="3387.03" y="334.182" width="32" height="32"/>
  <object id="567" gid="13121" x="3674.91" y="570.545" width="32" height="32"/>
  <object id="568" gid="13121" x="3223.39" y="376.606" width="32" height="32"/>
  <object id="569" gid="13121" x="3108.24" y="488.727" width="32" height="32"/>
  <object id="570" gid="13121" x="5324" y="2412" width="32" height="32"/>
  <object id="571" gid="13121" x="5284" y="2532" width="32" height="32"/>
  <object id="573" gid="2147496665" x="7206" y="656" width="96" height="64"/>
  <object id="575" gid="13005" x="6947.5" y="615.5" width="96" height="64"/>
  <object id="579" gid="12528" x="7040" y="1120" width="160" height="128"/>
 </objectgroup>
 <objectgroup id="18" name="props3">
  <object id="192" gid="13118" x="7761" y="2402.33" width="87" height="87"/>
  <object id="223" gid="12700" x="4736" y="992" width="96" height="64"/>
  <object id="224" gid="12699" x="4960" y="832" width="96" height="64"/>
  <object id="272" gid="12687" x="7335.67" y="765.333" width="32" height="32"/>
  <object id="273" gid="12577" x="7360.67" y="783.667" width="64" height="32"/>
  <object id="280" gid="12705" x="7462" y="882.667" width="128" height="160"/>
  <object id="281" gid="12702" x="6691.33" y="825.333" width="96" height="128"/>
  <object id="318" gid="13110" x="7360.67" y="2677.33" width="32" height="96"/>
  <object id="319" gid="13110" x="7335.67" y="2402.33" width="32" height="96"/>
  <object id="320" gid="13110" x="6874.75" y="2397.25" width="32" height="96"/>
  <object id="321" gid="13110" x="6779.5" y="2670.75" width="32" height="96"/>
 </objectgroup>
 <objectgroup id="16" name="props2">
  <object id="190" gid="12569" x="7792" y="2374.67" width="32" height="32"/>
 </objectgroup>
</map>
